;Generated by Cura LulzBot Edition GCodeWriter Version: 3.2.21
;FLAVOR:Marlin
;TIME:9650
;Filament used: 2.50387m
;Layer height: 0.3
;Generated with Cura_SteamEngine 3.2.21
M82 ;absolute extrusion mode
;This G-Code has been generated specifically for the LulzBot TAZ 6 with Aerosturder
M75 ; start GLCD timer
G26 ; clear potential 'probe fail' condition
G21 ; set units to Millimetres
M107 ; disable fans
G90 ; absolute positioning
M82 ; set extruder to absolute mode
G92 E0 ; set extruder position to 0
M140 S50 ; start bed heating up
G28 XY ; home X and Y
G1 X-19 Y258 F1000 ; move to safe homing position
M109 R180 ; soften filament before homing Z
G28 Z ; home Z
G1 E-15 F100 ; retract filament
M109 R180 ; wait for extruder to reach wiping temp
G1 X-15 Y100 F3000 ; move above wiper pad
G1 Z1 ; push nozzle into wiper
G1 X-17 Y95 F1000 ; slow wipe
G1 X-17 Y90 F1000 ; slow wipe
G1 X-17 Y85 F1000 ; slow wipe
G1 X-15 Y90 F1000 ; slow wipe
G1 X-17 Y80 F1000 ; slow wipe
G1 X-15 Y95 F1000 ; slow wipe
G1 X-17 Y75 F2000 ; fast wipe
G1 X-15 Y65 F2000 ; fast wipe
G1 X-17 Y70 F2000 ; fast wipe
G1 X-15 Y60 F2000 ; fast wipe
G1 X-17 Y55 F2000 ; fast wipe
G1 X-15 Y50 F2000 ; fast wipe
G1 X-17 Y40 F2000 ; fast wipe
G1 X-15 Y45 F2000 ; fast wipe
G1 X-17 Y35 F2000 ; fast wipe
G1 X-15 Y40 F2000 ; fast wipe
G1 X-17 Y70 F2000 ; fast wipe
G1 X-15 Y30 Z2 F2000 ; fast wipe
G1 X-17 Y35 F2000 ; fast wipe
G1 X-15 Y25 F2000 ; fast wipe
G1 X-17 Y30 F2000 ; fast wipe
G1 X-15 Y25 Z1.5 F1000 ; slow wipe
G1 X-17 Y23 F1000 ; slow wipe
G1 Z10 ; raise extruder
M109 R180 ; wait for extruder to reach probe temp
G1 X-9 Y-9 ; move above first probe point
M204 S100 ; set probing acceleration
G29 ; start auto-leveling sequence
M204 S500 ; restore standard acceleration
G1 X0 Y0 Z15 F5000 ; move up off last probe point
G4 S1 ; pause
M400 ; wait for moves to finish
M117 Heating... ; progress indicator message on LCD
M109 R225 ; wait for extruder to reach printing temp
M190 S50 ; wait for bed to reach printing temp
G1 Z2 E0 F75 ; prime tiny bit of filament into the nozzle
M117 TAZ 6 Printing... ; progress indicator message on LCD


M221 S115
;LAYER_COUNT:34
;LAYER:0
M107
G0 F4200 X102.563 Y69.396 Z0.4
;TYPE:SKIRT
G1 F480 X102.825 Y69.035 E0.01865
G1 X107.076 Y63.935 E0.29627
G1 X107.187 Y63.809 E0.30329
G1 X108.493 Y62.395 E0.38378
G1 X108.729 Y62.163 E0.39761
G1 X109.62 Y61.374 E0.44738
G1 X110.055 Y61.049 E0.47008
G1 X117.217 Y56.558 E0.82356
G1 X117.658 Y56.326 E0.8444
G1 X119.322 Y55.605 E0.92023
G1 X119.833 Y55.432 E0.94279
G1 X127.807 Y53.438 E1.28648
G1 X128.325 Y53.351 E1.30844
G1 X130.367 Y53.175 E1.39414
G1 X130.883 Y53.171 E1.41572
G1 X138.811 Y53.731 E1.74805
G1 X139.263 Y53.795 E1.76714
G1 X141.025 Y54.169 E1.84246
G1 X141.525 Y54.317 E1.86426
G1 X145.58 Y55.877 E2.04593
G1 X145.667 Y55.912 E2.04985
G1 X149.334 Y57.444 E2.21603
G1 X149.757 Y57.657 E2.23583
G1 X151.545 Y58.727 E2.32296
G1 X151.967 Y59.028 E2.34463
G1 X157.156 Y63.369 E2.62752
G1 X157.27 Y63.469 E2.63386
G1 X158.585 Y64.676 E2.7085
G1 X158.863 Y64.963 E2.7252
G1 X159.868 Y66.139 E2.78989
G1 X160.159 Y66.537 E2.8105
G1 X164.397 Y73.333 E3.1454
G1 X164.635 Y73.79 E3.16694
G1 X165.454 Y75.72 E3.25461
G1 X165.609 Y76.176 E3.27475
G1 X166.728 Y80.466 E3.46013
G1 X166.748 Y80.548 E3.46366
G1 X167.553 Y83.994 E3.61163
G1 X167.622 Y84.397 E3.62873
G1 X167.807 Y86.143 E3.70215
G1 X167.819 Y86.695 E3.72523
G1 X167.418 Y93.16 E3.99608
G1 X167.412 Y93.238 E3.99935
G1 X167.259 Y95.023 E4.07426
G1 X167.204 Y95.403 E4.09032
G1 X166.875 Y97.01 E4.15891
G1 X166.854 Y97.104 E4.16293
G1 X165.243 Y103.946 E4.45685
G1 X164.757 Y106.588 E4.56918
G1 X163.989 Y112.009 E4.79811
G1 X163.532 Y117.449 E5.02638
G1 X163.382 Y122.924 E5.2554
G1 X163.541 Y128.399 E5.48443
G1 X164.009 Y133.838 E5.7127
G1 X164.786 Y139.263 E5.94185
G1 X165.873 Y144.655 E6.17185
G1 X166.515 Y147.265 E6.28424
G1 X166.516 Y147.265 E6.28428
G1 X167.397 Y150.7 E6.43256
G1 X167.419 Y150.792 E6.43652
G1 X168.79 Y156.85 E6.69623
G1 X168.866 Y157.401 E6.71949
G1 X168.971 Y159.36 E6.80152
G1 X168.968 Y159.766 E6.8185
G1 X168.729 Y163.204 E6.9626
G1 X168.72 Y163.305 E6.96684
G1 X168.272 Y167.76 E7.15406
G1 X168.198 Y168.199 E7.17268
G1 X167.694 Y170.302 E7.26311
G1 X167.54 Y170.781 E7.28414
G1 X166.081 Y174.354 E7.44552
G1 X166.048 Y174.433 E7.4491
G1 X164.384 Y178.223 E7.62218
G1 X164.174 Y178.624 E7.64111
G1 X163.117 Y180.344 E7.72552
G1 X162.803 Y180.772 E7.74772
G1 X158.213 Y186.09 E8.04146
G1 X158.096 Y186.218 E8.04871
G1 X156.99 Y187.371 E8.11551
G1 X156.692 Y187.647 E8.1325
G1 X155.496 Y188.62 E8.19697
G1 X155.158 Y188.861 E8.21433
G1 X152.221 Y190.691 E8.35902
G1 X152.146 Y190.736 E8.36268
G1 X148.212 Y193.044 E8.5534
G1 X147.861 Y193.223 E8.56987
G1 X146.93 Y193.629 E8.61234
G1 X146.829 Y193.671 E8.61691
G1 X146.164 Y193.935 E8.64683
G1 X145.7 Y194.081 E8.66717
G1 X137.634 Y195.973 E9.0136
G1 X137.24 Y196.04 E9.03031
G1 X135.119 Y196.273 E9.11953
G1 X134.445 Y196.278 E9.14771
G1 X126.442 Y195.512 E9.48388
G1 X126.049 Y195.45 E9.50052
G1 X124.037 Y195.009 E9.58665
G1 X123.495 Y194.841 E9.61037
G1 X119.052 Y193.024 E9.81109
G1 X113.881 Y191.212 E10.0402
G1 X113.284 Y190.934 E10.06774
G1 X112.832 Y190.665 E10.08973
G1 X112.413 Y190.369 E10.11118
G1 X111.995 Y189.954 E10.13581
G1 X110.441 Y188.108 E10.23671
G1 X106.022 Y183.196 E10.51298
G1 X105.662 Y182.715 E10.5381
G1 X102.002 Y176.749 E10.83077
G1 X101.964 Y176.684 E10.83392
G1 X101.238 Y175.438 E10.89422
G1 X101.055 Y175.075 E10.91122
G1 X100.523 Y173.831 E10.96779
G1 X100.37 Y173.389 E10.98735
G1 X99.448 Y169.955 E11.13602
G1 X99.414 Y169.816 E11.14201
G1 X98.321 Y164.904 E11.35242
G1 X98.251 Y164.435 E11.37225
G1 X98.082 Y162.193 E11.46626
G1 X98.085 Y161.663 E11.48842
G1 X98.768 Y153.71 E11.82219
G1 X98.856 Y153.184 E11.84449
G1 X99.74 Y149.682 E11.99552
G1 X100.912 Y144.302 E12.22576
G1 X101.373 Y141.639 E12.33876
G1 X102.081 Y136.213 E12.56757
G1 X102.479 Y130.765 E12.79598
G1 X102.57 Y125.272 E13.0257
G1 X102.351 Y119.833 E13.25331
G1 X101.822 Y114.366 E13.48297
G1 X100.99 Y108.985 E13.71065
G1 X99.528 Y102.364 E13.99417
G1 X97.571 Y94.57 E14.33018
G1 X97.534 Y94.403 E14.33734
G1 X97.166 Y92.529 E14.41719
G1 X97.117 Y92.189 E14.43156
G1 X96.98 Y90.667 E14.49545
G1 X96.975 Y90.139 E14.51753
G1 X97.516 Y82.46 E14.83942
G1 X97.564 Y82.084 E14.85527
G1 X97.919 Y80.189 E14.93589
G1 X98.081 Y79.617 E14.96074
G1 X99.931 Y74.784 E15.17713
G1 X99.973 Y74.681 E15.18178
G1 X100.991 Y72.268 E15.29129
G1 X101.08 Y72.074 E15.30022
G1 X101.782 Y70.672 E15.36578
G1 X101.936 Y70.397 E15.37896
G1 X102.563 Y69.396 E15.42835
G1 F240 E13.42835
G0 F4200 X109.159 Y65.641
G0 X111.424 Y64.566
;TYPE:SUPPORT
G1 F240 E15.42835
G1 F480 X111.792 Y64.228 E15.44924
G1 X112.016 Y64.055 E15.46107
G1 X112.026 Y64.069 E15.46179
G1 X111.482 Y64.635 E15.49462
G1 X111.424 Y64.566 E15.49839
G1 F240 E13.49839
G0 F4200 X109.159 Y65.641
G0 X107.848 Y67.056
G0 X105.767 Y69.659
G0 X103.205 Y73.949
G0 X102.393 Y75.698
G0 X101.221 Y78.812
G0 X101.531 Y80.737
G1 F240 E15.49839
G1 F480 X101.273 Y82.121 E15.55726
G1 X101.188 Y82.107 E15.56086
G1 X101.213 Y82.009 E15.56509
G1 X101.44 Y80.879 E15.61328
G1 X101.486 Y80.722 E15.62012
G1 X101.531 Y80.737 E15.62211
G1 F240 E13.62211
G0 F4200 X100.107 Y83.687
G0 X99.877 Y85.639
G0 X99.724 Y88.928
G0 X100.17 Y93.908
G0 X100.543 Y95.796
G0 X101.427 Y99.008
G0 X103.391 Y103.606
G0 X104.319 Y105.271
G0 X106.2 Y108.084
G0 X109.448 Y111.839
G0 X110.863 Y113.145
G0 X113.505 Y115.227
G0 X117.754 Y117.789
G0 X119.505 Y118.6
G0 X122.619 Y119.772
G0 X125.162 Y119.691
G1 F240 E15.62211
G1 F480 X125.898 Y119.677 E15.65289
G1 X125.933 Y119.683 E15.65437
G1 X125.795 Y120.533 E15.69038
G1 X125.889 Y120.657 E15.69688
G1 X125.752 Y120.628 E15.70274
G1 X125.773 Y120.404 E15.71215
G1 X125.315 Y119.735 E15.74605
G1 X125.162 Y119.691 E15.75271
G1 F240 E13.75271
G0 F4200 X148.652 Y131.799
G0 X149.825 Y133.314
G1 F240 E15.75271
G1 F480 X150.376 Y133.607 E15.7788
G1 X150.812 Y133.627 E15.79705
G1 X151.18 Y133.873 E15.81556
G1 X150.949 Y134.19 E15.83196
G1 X149.778 Y133.405 E15.89091
G1 X149.825 Y133.314 E15.89519
G1 F240 E13.89519
G0 F4200 X152.88 Y134.463
G0 X154.414 Y135.652
G0 X156.864 Y137.888
G0 X157.438 Y139.764
G1 F240 E15.89519
G1 F480 X157.482 Y139.72 E15.89779
G1 X157.904 Y140.188 E15.92414
G1 X158.402 Y140.809 E15.95743
G1 X158.31 Y140.875 E15.96216
G1 X157.438 Y139.764 E16.02122
G1 F240 E14.02122
G0 F4200 X160.061 Y141.732
G0 X161.159 Y143.349
G0 X162.787 Y146.225
G0 X164.644 Y150.864
G0 X165.185 Y152.73
G0 X165.852 Y155.977
G0 X165.213 Y157.832
G1 F240 E16.02122
G1 F480 X165.311 Y157.817 E16.02536
G1 X165.32 Y157.877 E16.0279
G1 X165.374 Y159.242 E16.08502
G1 X165.265 Y159.241 E16.08958
G1 X165.213 Y157.832 E16.14853
G1 F240 E14.14853
G0 F4200 X166.178 Y160.965
G0 X166.116 Y162.923
G0 X165.744 Y166.202
G0 X164.568 Y167.767
G1 F240 E16.14853
G1 F480 X164.63 Y167.777 E16.15116
G1 X164.561 Y168.101 E16.16501
G1 X164.547 Y168.111 E16.16573
G1 X164.418 Y168.694 E16.1907
G1 X164.289 Y169.158 E16.21084
G1 X164.182 Y169.123 E16.21554
G1 X164.568 Y167.767 E16.2745
G1 F240 E14.2745
G0 F4200 X164.517 Y171.045
G0 X163.866 Y172.866
G0 X162.488 Y175.89
G0 X160.89 Y177.02
G1 F240 E16.2745
G1 F480 X160.934 Y177.043 E16.27657
G1 X160.46 Y177.858 E16.316
G1 X160.449 Y177.861 E16.31647
G1 X160.191 Y178.257 E16.33623
G1 X160.185 Y178.253 E16.33654
G1 X160.165 Y178.094 E16.34324
G1 X160.89 Y177.02 E16.39742
G1 F240 E14.39742
G0 F4200 X159.824 Y180.119
G0 X158.614 Y181.677
G0 X156.395 Y184.101
G0 X152.555 Y187.3
G0 X150.938 Y188.398
G0 X148.062 Y190.026
G0 X143.424 Y191.883
G0 X141.553 Y192.425
G0 X138.31 Y193.091
G0 X136.466 Y192.521
G1 F240 E16.39742
G1 F480 X136.017 Y192.568 E16.4163
G1 X135.923 Y192.585 E16.42029
G1 X135.792 Y192.585 E16.42577
G1 X135.045 Y192.669 E16.4572
G1 X135.046 Y192.517 E16.46356
G1 X136.466 Y192.521 E16.52293
G1 F240 E14.52293
G0 F4200 X133.322 Y193.417
G0 X131.363 Y193.355
G0 X128.085 Y192.983
G0 X126.52 Y191.81
G1 F240 E16.52293
G1 F480 X126.51 Y191.873 E16.5256
G1 X126.152 Y191.79 E16.54097
G1 X125.115 Y191.57 E16.58529
G1 X125.164 Y191.421 E16.59185
G1 X126.52 Y191.81 E16.65084
G1 F240 E14.65084
G0 F4200 X123.242 Y191.757
G0 X121.422 Y191.105
G0 X118.397 Y189.727
G0 X117.27 Y188.123
G1 F240 E16.65084
G1 F480 X117.223 Y188.215 E16.65516
G1 X117.127 Y188.165 E16.65968
G1 X116.509 Y188.08 E16.68577
G1 X115.853 Y187.67 E16.71812
G1 X116.098 Y187.335 E16.73547
G1 X117.27 Y188.123 E16.79452
G1 F240 E14.79452
G0 F4200 X114.168 Y187.063
G0 X112.607 Y185.85
G0 X110.187 Y183.634
G0 X106.986 Y179.793
G0 X105.889 Y178.177
G0 X104.258 Y175.304
G0 X102.404 Y170.662
G0 X101.644 Y167.867
G0 X101.197 Y165.527
G0 X101.867 Y163.677
G1 F240 E16.79452
G1 F480 X101.761 Y163.694 E16.79901
G1 X101.675 Y162.285 E16.85804
G1 X101.796 Y162.286 E16.8631
G1 X101.813 Y162.587 E16.8757
G1 X101.807 Y162.9 E16.88879
G1 X101.824 Y163.238 E16.90294
G1 X101.867 Y163.677 E16.92139
G1 F240 E14.92139
G0 F4200 X100.871 Y160.562
G0 X100.932 Y158.604
G0 X101.304 Y155.324
G0 X102.531 Y150.481
G0 X103.182 Y148.66
G0 X104.56 Y145.635
G0 X107.224 Y141.407
G0 X125.561 Y118.473
G0 X127.494 Y120.886
G0 X129.445 Y121.116
G0 X132.735 Y121.269
G0 X137.715 Y120.823
G0 X139.602 Y120.45
G0 X142.815 Y119.566
G0 X147.415 Y117.603
G0 X149.081 Y116.671
G0 X151.891 Y114.793
G0 X155.643 Y111.547
G0 X156.96 Y110.121
G0 X159.033 Y107.481
G0 X161.596 Y103.238
G0 X162.407 Y101.487
G0 X163.566 Y98.328
G0 X164.693 Y93.499
G0 X164.923 Y91.54
G0 X165.076 Y88.258
G0 X164.63 Y83.278
G0 X164.256 Y81.388
G0 X163.337 Y78.147
G0 X161.41 Y73.578
G0 X160.48 Y71.916
G0 X158.601 Y69.101
G0 X155.352 Y65.352
G0 X153.937 Y64.041
G0 X151.335 Y61.962
G0 X149.381 Y61.706
G1 F240 E16.92139
G1 F480 X149.216 Y61.611 E16.92935
G1 X148.99 Y61.467 E16.94056
G1 X148.701 Y61.303 E16.95445
G1 X148.429 Y61.16 E16.9673
G1 X148.437 Y61.148 E16.9679
G1 X148.387 Y61.008 E16.97412
G1 X149.33 Y61.557 E17.01974
G1 X149.437 Y61.629 E17.02514
G1 X149.381 Y61.706 E17.02912
G1 F240 E15.02912
G0 F4200 X148.338 Y62.443
G0 X148.302 Y62.468
G0 X144.532 Y65.136
G0 X144.496 Y65.161
G0 X144.465 Y65.185
G0 X145.177 Y63.79
G0 X109.773 Y72.022
G0 X109.871 Y72.006
;TYPE:WALL-INNER
G1 F240 E17.02912
G1 F480 X110.188 Y72.189 E17.04442
G1 X112.818 Y73.709 E17.17144
G1 X109.868 Y78.818 E17.41812
G1 X109.718 Y79.077 E17.43064
G1 X109.459 Y78.927 E17.43873
G1 X107.088 Y77.558 E17.55321
G1 X106.771 Y77.375 E17.56851
G1 X106.655 Y77.723 E17.57791
G1 X105.503 Y81.172 E17.72996
G1 X104.871 Y84.052 E17.85325
G1 X104.545 Y86.982 E17.97652
G1 X104.531 Y89.93 E18.09979
G1 X104.827 Y92.863 E18.22305
G1 X105.432 Y95.748 E18.34631
G1 X106.337 Y98.553 E18.46955
G1 X107.534 Y101.247 E18.59282
G1 X109.007 Y103.801 E18.7161
G1 X110.743 Y106.184 E18.83938
G1 X112.719 Y108.371 E18.96263
G1 X114.916 Y110.337 E19.0859
G1 X117.307 Y112.06 E19.20914
G1 X119.868 Y113.522 E19.33244
G1 X122.568 Y114.704 E19.45569
G1 X125.378 Y115.597 E19.57897
G1 X128.941 Y116.324 E19.73103
G1 X129.3 Y116.397 E19.74635
G1 X129.3 Y116.031 E19.75572
G1 X129.3 Y116.03 E19.75576
G1 X129.3 Y112.993 E19.88275
G1 X135.5 Y112.993 E20.142
G1 X135.5 Y116.03 E20.26899
G1 X135.5 Y116.031 E20.26903
G1 X135.5 Y116.397 E20.28434
G1 X135.859 Y116.324 E20.29372
G1 X139.422 Y115.597 E20.44577
G1 X142.232 Y114.704 E20.56906
G1 X144.932 Y113.522 E20.69231
G1 X147.492 Y112.06 E20.81558
G1 X149.883 Y110.337 E20.93881
G1 X152.081 Y108.371 E21.06212
G1 X154.057 Y106.184 E21.18536
G1 X155.793 Y103.801 E21.30864
G1 X157.266 Y101.247 E21.43192
G1 X158.463 Y98.553 E21.55519
G1 X159.368 Y95.748 E21.67843
G1 X159.973 Y92.863 E21.80169
G1 X160.269 Y89.93 E21.92495
G1 X160.255 Y86.982 E22.04822
G1 X159.929 Y84.052 E22.17149
G1 X159.296 Y81.172 E22.29479
G1 X158.146 Y77.723 E22.44681
G1 X158.03 Y77.375 E22.46215
G1 X157.713 Y77.558 E22.47153
G1 X155.081 Y79.077 E22.5986
G1 X151.981 Y73.709 E22.8578
G1 X154.613 Y72.189 E22.98489
G1 X154.93 Y72.006 E23.00019
G1 X154.687 Y71.732 E23.00957
G1 X152.274 Y69.01 E23.16168
G1 X150.098 Y67.024 E23.28486
G1 X147.723 Y65.276 E23.40817
G1 X145.177 Y63.79 E23.53143
G1 X142.489 Y62.58 E23.65469
G1 X139.687 Y61.661 E23.778
G1 X136.805 Y61.042 E23.90125
G1 X133.874 Y60.731 E24.0245
G1 X130.925 Y60.731 E24.14781
G1 X127.995 Y61.042 E24.27101
G1 X125.112 Y61.661 E24.39431
G1 X122.311 Y62.58 E24.51757
G1 X119.622 Y63.79 E24.64087
G1 X117.077 Y65.276 E24.7641
G1 X114.702 Y67.023 E24.88738
G1 X112.525 Y69.01 E25.01063
G1 X110.114 Y71.732 E25.16267
G1 X109.871 Y72.006 E25.17205
G0 F4200 X109.773 Y72.022
G0 X106.757 Y77.338
G0 X105.465 Y81.162
G0 X104.832 Y84.046
G0 X104.506 Y86.98
G0 X104.545 Y96.892
G0 X104.502 Y96.982
G1 F480 X103.035 Y97.462 E25.2366
G1 X102.823 Y97.531 E25.24592
G1 X102.658 Y97.592 E25.25327
G1 X102.655 Y97.578
G1 X102.596 Y97.363 E25.2602
G1 X102.066 Y95.432 E25.34392
G1 X101.962 Y94.91 E25.36618
G1 X101.902 Y94.608 E25.37906
G1 X102.205 Y94.557 E25.38729
G1 X103.815 Y94.283 E25.45558
G1 X103.491 Y91.543 E25.57095
G1 X103.411 Y91.056 E25.59158
G1 X103.388 Y90.853 E25.60013
G1 X103.276 Y87.953 E25.72148
G1 X101.728 Y87.953 E25.78621
G1 X101.505 Y87.953 E25.79553
G1 X101.332 Y87.961 E25.80277
G1 X101.332 Y87.946
G1 X101.342 Y87.724 E25.80967
G1 X101.438 Y85.715 E25.89377
G1 X101.5 Y85.198 E25.91555
G1 X101.501 Y85.197 E25.91561
G1 X101.536 Y84.893 E25.9284
G1 X101.839 Y84.936 E25.93662
G1 X103.457 Y85.17 E26.00498
G1 X103.994 Y82.465 E26.12029
G1 X104.061 Y82.024 E26.13894
G1 X104.114 Y81.767 E26.14992
G1 X104.897 Y78.984 E26.2708
G1 X103.429 Y78.506 E26.33536
G1 X103.218 Y78.438 E26.34463
G1 X103.048 Y78.391 E26.352
G1 X103.053 Y78.377
G1 X103.131 Y78.17 E26.35888
G1 X103.842 Y76.29 E26.44293
G1 X104.063 Y75.811 E26.46498
G1 X104.064 Y75.81 E26.46504
G1 X104.192 Y75.532 E26.47784
G1 X104.467 Y75.668 E26.48607
G1 X105.931 Y76.395 E26.55441
G1 X107.277 Y73.989 E26.66969
G1 X107.486 Y73.574 E26.68912
G1 X107.609 Y73.356 E26.69959
G1 X109.214 Y70.956 E26.82031
G1 X107.963 Y70.048 E26.88495
G1 X107.783 Y69.917 E26.89426
G1 X107.638 Y69.82 E26.90155
G1 X107.646 Y69.81
G1 X107.785 Y69.636 E26.90847
