;Generated by Cura LulzBot Edition GCodeWriter Version: 3.6.8
;FLAVOR:Marlin
;TIME:14481
;Filament used: 5.69432m
;Layer height: 0.25
;Generated with Cura_SteamEngine 3.6.8
M82 ;absolute extrusion mode
M221 S100
;This G-Code has been generated specifically for the LulzBot TAZ 6 with Aerosturder
M73 P0 ; clear GLCD progress bar
M75 ; start GLCD timer
G26 ; clear potential 'probe fail' condition
M107 ; disable fans
M420 S0 ; disable leveling matrix
G90 ; absolute positioning
M82 ; set extruder to absolute mode
G92 E0 ; set extruder position to 0
M140 S60 ; start bed heating up
G28 XY ; home X and Y
G1 X-19 Y258 F1000 ; move to safe homing position
M109 R140 ; soften filament before homing Z
G28 Z ; home Z
G1 E-15 F100 ; retract filament
M109 R140 ; wait for extruder to reach wiping temp
G1 X-15 Y100 F3000 ; move above wiper pad
G1 Z1 ; push nozzle into wiper
G1 X-17 Y95 F1000 ; slow wipe
G1 X-17 Y90 F1000 ; slow wipe
G1 X-17 Y85 F1000 ; slow wipe
G1 X-15 Y90 F1000 ; slow wipe
G1 X-17 Y80 F1000 ; slow wipe
G1 X-15 Y95 F1000 ; slow wipe
G1 X-17 Y75 F2000 ; fast wipe
G1 X-15 Y65 F2000 ; fast wipe
G1 X-17 Y70 F2000 ; fast wipe
G1 X-15 Y60 F2000 ; fast wipe
G1 X-17 Y55 F2000 ; fast wipe
G1 X-15 Y50 F2000 ; fast wipe
G1 X-17 Y40 F2000 ; fast wipe
G1 X-15 Y45 F2000 ; fast wipe
G1 X-17 Y35 F2000 ; fast wipe
G1 X-15 Y40 F2000 ; fast wipe
G1 X-17 Y70 F2000 ; fast wipe
G1 X-15 Y30 Z2 F2000 ; fast wipe
G1 X-17 Y35 F2000 ; fast wipe
G1 X-15 Y25 F2000 ; fast wipe
G1 X-17 Y30 F2000 ; fast wipe
G1 X-15 Y25 Z1.5 F1000 ; slow wipe
G1 X-17 Y23 F1000 ; slow wipe
G1 Z10 ; raise extruder
M109 R140 ; wait for extruder to reach probe temp
G1 X-9 Y-9 ; move above first probe point
M204 S100 ; set probing acceleration
G29 ; start auto-leveling sequence
M420 S1              ; enable leveling matrix
M425 Z			     ; use measured Z backlash for compensation
M425 Z F0		     ; turn off measured Z backlash compensation. (if activated in the quality settings, this command will automatically be ignored)
M204 S500 ; restore standard acceleration
G1 X0 Y0 Z15 F5000 ; move up off last probe point
G4 S1 ; pause
M400 ; wait for moves to finish
M117 Heating... ; progress indicator message on LCD
M109 R215 ; wait for extruder to reach printing temp
M190 S60 ; wait for bed to reach printing temp
G1 Z2 E0 F75 ; prime tiny bit of filament into the nozzle
M117 TAZ 6 Printing... ; progress indicator message on LCD


G92 E0
G1 F600 E-1
;LAYER_COUNT:20
;LAYER:0
M107
G0 F2625 X10.592 Y12.553 Z0.425
;TYPE:SKIRT
G1 F600 E0
G1 F900 X10.994 Y12.241 E0.01695
G1 X11.441 Y11.996 E0.03393
G1 X11.92 Y11.823 E0.05089
G1 X12.421 Y11.728 E0.06788
G1 X12.775 Y11.708 E0.07969
G1 X29.101 Y11.694 E0.62352
G1 X29.361 Y11.704 E0.63218
G1 X34.26 Y12.092 E0.79588
G1 X39.791 Y12.339 E0.98031
G1 X61.112 Y12.358 E1.69052
G1 X61.329 Y12.365 E1.69775
G1 X66.041 Y12.685 E1.85507
G1 X69.516 Y12.76 E1.97085
G1 X69.516 Y12.759 E1.97088
G1 X70.927 Y12.781 E2.01789
G1 X71.434 Y12.829 E2.03485
G1 X71.743 Y12.899 E2.04541
G1 X77.379 Y14.459 E2.2402
G1 X82.774 Y15.623 E2.42405
G1 X85.402 Y16.072 E2.51285
G1 X90.863 Y16.773 E2.69625
G1 X96.312 Y17.159 E2.87822
G1 X101.795 Y17.238 E3.06088
G1 X107.254 Y17.007 E3.24288
G1 X112.695 Y16.467 E3.42501
G1 X118.127 Y15.617 E3.60816
G1 X120.789 Y15.084 E3.69859
G1 X123.431 Y14.476 E3.7889
G1 X129.166 Y12.897 E3.98704
G1 X129.667 Y12.8 E4.00404
G1 X130.031 Y12.78 E4.01618
G1 X131.543 Y12.781 E4.06655
G1 X131.859 Y12.797 E4.07709
G1 X137.353 Y13.338 E4.26098
G1 X142.819 Y13.568 E4.44321
G1 X148.301 Y13.489 E4.62584
G1 X153.813 Y13.097 E4.80991
G1 X156.838 Y12.788 E4.9112
G1 X157.142 Y12.771 E4.92134
G1 X164.878 Y12.709 E5.17904
G1 X170.332 Y12.322 E5.36117
G1 X171.973 Y12.124 E5.41623
G1 X172.072 Y12.114 E5.41954
G1 X173.808 Y11.958 E5.4776
G1 X174.131 Y11.945 E5.48837
G1 X175.346 Y11.957 E5.52884
G1 X175.854 Y12.002 E5.54583
G1 X176.225 Y12.087 E5.55851
G1 X179.162 Y12.945 E5.66043
G1 X184.491 Y14.252 E5.8432
G1 X187.175 Y14.792 E5.9344
G1 X189.833 Y15.246 E6.02422
G1 X195.294 Y15.947 E6.20762
G1 X200.743 Y16.333 E6.38959
G1 X206.226 Y16.412 E6.57225
G1 X211.685 Y16.181 E6.75425
G1 X217.126 Y15.641 E6.93638
G1 X222.558 Y14.791 E7.11952
G1 X225.22 Y14.258 E7.20996
G1 X227.849 Y13.653 E7.29982
G1 X233.575 Y12.072 E7.49769
G1 X234.075 Y11.976 E7.51465
G1 X234.454 Y11.955 E7.52729
G1 X236.073 Y11.962 E7.58122
G1 X236.378 Y11.978 E7.5914
G1 X241.787 Y12.512 E7.77245
G1 X247.25 Y12.742 E7.95459
G1 X252.732 Y12.663 E8.13721
G1 X258.244 Y12.271 E8.32128
G1 X261.269 Y11.962 E8.42257
G1 X261.619 Y11.945 E8.43424
G1 X263.279 Y11.955 E8.48954
G1 X263.49 Y11.963 E8.49657
G1 X266.294 Y12.163 E8.59021
G1 X266.798 Y12.239 E8.60719
G1 X267.284 Y12.393 E8.62417
G1 X267.674 Y12.582 E8.63861
G1 X271.633 Y14.841 E8.79044
G1 X272.054 Y15.128 E8.80741
G1 X272.426 Y15.476 E8.82438
G1 X272.738 Y15.879 E8.84136
G1 X272.983 Y16.325 E8.85831
G1 X273.156 Y16.805 E8.87531
G1 X273.252 Y17.305 E8.89227
G1 X273.272 Y17.657 E8.90401
G1 X273.308 Y34.805 E9.47522
G1 X273.262 Y35.357 E9.49367
G1 X272.831 Y37.891 E9.57929
G1 X272.133 Y43.351 E9.76264
G1 X271.747 Y48.826 E9.94547
G1 X271.65 Y52.996 E10.08441
G1 X271.727 Y58.518 E10.26837
G1 X272.112 Y63.97 E10.45043
G1 X272.809 Y69.425 E10.63362
G1 X273.598 Y73.844 E10.78314
G1 X273.649 Y74.412 E10.80214
G1 X273.664 Y90.762 E11.34676
G1 X273.659 Y90.948 E11.35296
G1 X273.586 Y92.241 E11.3961
G1 X273.566 Y92.461 E11.40346
G1 X272.994 Y97.041 E11.5572
G1 X272.608 Y102.5 E11.7395
G1 X272.531 Y107.983 E11.92216
G1 X272.764 Y113.443 E12.1042
G1 X273.305 Y118.883 E12.2863
G1 X274.161 Y124.333 E12.47007
G1 X274.686 Y126.95 E12.55898
G1 X275.562 Y130.67 E12.68628
G1 X275.649 Y131.414 E12.71123
G1 X275.653 Y148.563 E13.28247
G1 X275.568 Y149.304 E13.30732
G1 X274.689 Y153.06 E13.43581
G1 X274.153 Y155.725 E13.52636
G1 X273.696 Y158.399 E13.61673
G1 X272.998 Y163.856 E13.79998
G1 X272.613 Y169.305 E13.98194
G1 X272.535 Y174.788 E14.1646
G1 X272.767 Y180.249 E14.34667
G1 X273.31 Y185.713 E14.52958
G1 X273.619 Y187.959 E14.6051
G1 X273.649 Y188.401 E14.61985
G1 X273.654 Y205.554 E15.19123
G1 X273.604 Y206.126 E15.21035
G1 X272.789 Y210.695 E15.36495
G1 X272.099 Y216.124 E15.54725
G1 X271.72 Y221.567 E15.72899
G1 X271.653 Y232.586 E16.09605
G1 X271.604 Y233.129 E16.11421
G1 X270.904 Y237.109 E16.24882
G1 X270.205 Y242.568 E16.43214
G1 X269.818 Y248.04 E16.61487
G1 X269.743 Y251.527 E16.73105
G1 X269.721 Y264.831 E17.17422
G1 X269.68 Y265.339 E17.19119
G1 X269.561 Y265.835 E17.20818
G1 X269.365 Y266.305 E17.22515
G1 X269.098 Y266.739 E17.24212
G1 X268.767 Y267.126 E17.25908
G1 X268.379 Y267.457 E17.27607
G1 X268.086 Y267.646 E17.28769
G1 X264.094 Y269.932 E17.44092
G1 X263.633 Y270.15 E17.45791
G1 X263.144 Y270.293 E17.47488
G1 X262.697 Y270.355 E17.48991
G1 X259.569 Y270.565 E17.59434
G1 X259.319 Y270.572 E17.60267
G1 X257.571 Y270.555 E17.6609
G1 X257.284 Y270.539 E17.67047
G1 X251.875 Y270.005 E17.85153
G1 X246.412 Y269.775 E18.03366
G1 X240.93 Y269.854 E18.21629
G1 X235.418 Y270.246 E18.40036
G1 X232.393 Y270.555 E18.50165
G1 X232.016 Y270.572 E18.51422
G1 X230.78 Y270.554 E18.55539
G1 X230.272 Y270.506 E18.57239
G1 X229.916 Y270.424 E18.58456
G1 X226.984 Y269.568 E18.6863
G1 X221.641 Y268.258 E18.86955
G1 X219 Y267.728 E18.95928
G1 X213.574 Y266.878 E19.14222
G1 X208.131 Y266.336 E19.32443
G1 X202.672 Y266.104 E19.50643
G1 X197.188 Y266.182 E19.68913
G1 X191.739 Y266.567 E19.87109
G1 X186.296 Y267.264 E20.05388
G1 X180.899 Y268.266 E20.23672
G1 X178.305 Y268.862 E20.32538
G1 X172.588 Y270.443 E20.52297
G1 X172.088 Y270.54 E20.53993
G1 X171.72 Y270.561 E20.55221
G1 X170.153 Y270.56 E20.60441
G1 X169.788 Y270.539 E20.61659
G1 X167.023 Y270.225 E20.70928
G1 X161.546 Y269.838 E20.89218
G1 X152.704 Y269.777 E21.18671
G1 X152.408 Y269.761 E21.19659
G1 X146.999 Y269.227 E21.37764
G1 X141.536 Y268.997 E21.55977
G1 X136.054 Y269.076 E21.7424
G1 X130.542 Y269.468 E21.92647
G1 X127.517 Y269.777 E22.02776
G1 X127.14 Y269.794 E22.04033
G1 X125.904 Y269.776 E22.08151
G1 X125.396 Y269.728 E22.0985
G1 X125.04 Y269.646 E22.11067
G1 X122.108 Y268.79 E22.21242
G1 X116.765 Y267.48 E22.39566
G1 X114.124 Y266.95 E22.48539
G1 X108.698 Y266.1 E22.66834
G1 X103.255 Y265.558 E22.85054
G1 X97.796 Y265.326 E23.03255
G1 X92.312 Y265.404 E23.21524
G1 X86.863 Y265.789 E23.3972
G1 X81.42 Y266.486 E23.57999
G1 X76.023 Y267.488 E23.76284
G1 X73.429 Y268.084 E23.8515
G1 X67.712 Y269.665 E24.04908
G1 X67.212 Y269.762 E24.06605
G1 X66.848 Y269.783 E24.07819
G1 X65.313 Y269.784 E24.12932
G1 X64.805 Y269.744 E24.1463
G1 X64.31 Y269.626 E24.16325
G1 X63.839 Y269.431 E24.18023
G1 X63.404 Y269.166 E24.19719
G1 X63.016 Y268.835 E24.21418
G1 X62.557 Y268.26 E24.23869
G1 X58.775 Y262.224 E24.47596
G1 X55.604 Y257.81 E24.657
G1 X52.153 Y253.541 E24.83985
G1 X48.476 Y249.481 E25.02231
G1 X44.585 Y245.647 E25.20427
G1 X40.447 Y242.006 E25.38787
G1 X38.358 Y240.322 E25.47725
G1 X33.943 Y237.057 E25.66016
G1 X29.373 Y234.063 E25.84215
G1 X24.636 Y231.329 E26.02434
G1 X19.73 Y228.855 E26.20736
G1 X14.709 Y226.671 E26.38975
G1 X12.158 Y225.686 E26.48084
G1 X7.952 Y224.234 E26.62906
G1 X7.485 Y224.03 E26.64603
G1 X7.056 Y223.756 E26.66299
G1 X6.674 Y223.419 E26.67996
G1 X6.35 Y223.025 E26.69695
G1 X6.092 Y222.586 E26.71391
G1 X5.905 Y222.112 E26.73088
G1 X5.795 Y221.615 E26.74784
G1 X5.763 Y221.162 E26.76297
G1 X5.763 Y219.64 E26.81367
G1 X5.803 Y219.132 E26.83064
G1 X5.893 Y218.731 E26.84433
G1 X6.75 Y215.791 E26.94634
G1 X8.06 Y210.449 E27.12955
G1 X8.6 Y207.765 E27.22075
G1 X9.054 Y205.107 E27.31057
G1 X9.755 Y199.646 E27.49397
G1 X10.141 Y194.197 E27.67594
G1 X10.22 Y188.714 E27.8586
G1 X9.989 Y183.255 E28.0406
G1 X9.449 Y177.814 E28.22273
G1 X8.599 Y172.382 E28.40588
G1 X8.066 Y169.72 E28.49631
G1 X7.458 Y167.078 E28.58661
G1 X5.879 Y161.343 E28.78476
G1 X5.782 Y160.842 E28.80176
G1 X5.762 Y160.478 E28.8139
G1 X5.763 Y158.966 E28.86426
G1 X5.779 Y158.65 E28.8748
G1 X6.32 Y153.156 E29.0587
G1 X6.55 Y147.69 E29.24093
G1 X6.471 Y142.207 E29.42359
G1 X6.079 Y136.696 E29.60763
G1 X5.77 Y133.671 E29.70892
G1 X5.753 Y133.321 E29.72059
G1 X5.763 Y131.661 E29.77589
G1 X5.771 Y131.45 E29.78292
G1 X5.971 Y128.638 E29.87682
G1 X5.985 Y128.491 E29.88174
G1 X6.742 Y122.022 E30.0987
G1 X7.046 Y116.563 E30.28082
G1 X7.05 Y109.7 E30.50943
G1 X7.09 Y109.192 E30.5264
G1 X7.168 Y108.835 E30.53858
G1 X8.727 Y103.203 E30.73323
G1 X9.891 Y97.808 E30.91708
G1 X10.34 Y95.18 E31.00589
G1 X11.041 Y89.719 E31.18929
G1 X11.427 Y84.27 E31.37125
G1 X11.506 Y78.787 E31.55391
G1 X11.275 Y73.328 E31.73591
G1 X10.735 Y67.887 E31.91805
G1 X9.885 Y62.455 E32.10119
G1 X9.352 Y59.793 E32.19162
G1 X8.744 Y57.151 E32.28193
G1 X7.165 Y51.416 E32.48007
G1 X7.068 Y50.915 E32.49707
G1 X7.048 Y50.551 E32.50921
G1 X7.049 Y49.039 E32.55958
G1 X7.065 Y48.723 E32.57012
G1 X7.606 Y43.229 E32.75401
G1 X7.836 Y37.763 E32.93625
G1 X7.757 Y32.28 E33.11891
G1 X7.365 Y26.769 E33.30294
G1 X7.056 Y23.744 E33.40423
G1 X7.039 Y23.394 E33.4159
G1 X7.049 Y21.734 E33.4712
G1 X7.057 Y21.523 E33.47823
G1 X7.257 Y18.716 E33.57197
G1 X7.333 Y18.212 E33.58895
G1 X7.487 Y17.726 E33.60593
G1 X7.677 Y17.335 E33.62041
G1 X9.956 Y13.346 E33.77345
G1 X10.243 Y12.925 E33.79042
G1 X10.592 Y12.553 E33.80741
G1 F600 E32.80741
;MESH:
G0 F2625 X11.899 Y15.138
G0 X13.131 Y15.841
G0 X13.108 Y30.024
G0 X17.669 Y30.024
G0 X17.969 Y18.124
G0 X18.039 Y18.194
;TYPE:WALL-INNER
G1 F600 E33.80741
G1 F900 X18.039 Y22.494 E33.95064
G1 X19.539 Y22.494 E34.00061
G1 X19.539 Y22.994 E34.01726
G1 X18.039 Y22.994 E34.06723
G1 X18.039 Y29.996 E34.30047
G1 X18.039 Y99.091 E36.60205
G1 X18.039 Y110.494 E36.98189
G1 X17.741 Y110.494 E36.99181
G1 X17.741 Y99.091 E37.2182
G1 X16.241 Y99.091 E37.26816
G1 X16.241 Y49.834 E38.90893
G1 X12.736 Y49.834 E39.02568
G1 X12.736 Y50.987 E39.06409
G1 X11.039 Y50.116 E39.12763
G1 X11.039 Y49.782 E39.13875
G1 X12.739 Y49.782 E39.19538
G1 X12.739 Y29.996 E39.85446
G1 X12.739 Y22.994 E40.0877
G1 X11.039 Y22.994 E40.14433
G1 X11.039 Y22.494 E40.16098
G1 X12.739 Y22.494 E40.21761
G1 X12.739 Y18.194 E40.36085
G1 X11.781 Y18.194 E40.39276
G1 X13.136 Y15.824 E40.48369
G1 X13.136 Y18.194 E40.56264
G1 X13.136 Y22.494 E40.67637
G1 X13.136 Y22.994 E40.69302
G1 X13.136 Y29.996 E40.87821
G1 X17.641 Y29.996 E41.02828
G1 X17.641 Y22.994 E41.21394
G1 X17.641 Y22.494 E41.23059
G1 X17.641 Y18.194 E41.34461
G1 X17.641 Y15.822 E41.42362
G1 X18.997 Y18.194 E41.51463
G1 X18.039 Y18.194 E41.54654
G0 F2625 X17.969 Y18.124
G0 X18.011 Y110.466
G0 X12.391 Y110.251
G0 X12.636 Y109.766
G0 X12.736 Y109.766
G1 F900 X12.736 Y109.767 E41.54657
G1 X12.736 Y110.494 E41.57079
G1 X11.447 Y110.494 E41.61373
G1 X11.039 Y110.494 E41.62732
G1 X11.039 Y110.178 E41.63785
G1 X11.407 Y110.003 E41.64898
G1 X12.38 Y109.541 E41.68486
G1 X12.736 Y109.372 E41.69799
G1 X12.736 Y109.766 E41.70556
G0 F2625 X12.636 Y109.766
G0 X12.708 Y110.109
G0 X17.769 Y110.109
G0 X17.769 Y99.063
G0 X16.269 Y49.806
G0 X13.036 Y29.496
G0 X13.636 Y29.496
;TYPE:WALL-OUTER
G1 F900 X17.141 Y29.496 E41.82232
G1 X17.141 Y15.194 E42.29872
G1 X17.858 Y15.194 E42.3226
G1 X19.645 Y18.321 E42.44258
G1 X19.858 Y18.694 E42.45688
G1 X19.429 Y18.694 E42.46499
G1 X19.428 Y18.694 E42.46503
G1 X18.539 Y18.694 E42.49464
G1 X18.539 Y21.994 E42.60456
G1 X20.039 Y21.994 E42.65453
G1 X20.039 Y23.494 E42.7045
G1 X18.539 Y23.494 E42.75446
G1 X18.539 Y110.994 E45.66912
G1 X10.539 Y110.994 E45.9356
G1 X10.539 Y109.861 E45.97334
G1 X12.88 Y108.749 E46.05967
G1 X13.236 Y108.58 E46.0728
G1 X13.236 Y108.974 E46.08038
G1 X13.236 Y108.975 E46.08041
G1 X13.236 Y110.096 E46.11775
G1 X17.241 Y110.096 E46.25116
G1 X17.241 Y99.591 E46.60108
G1 X15.741 Y99.591 E46.65105
G1 X15.741 Y50.334 E48.29182
G1 X13.236 Y50.334 E48.37526
G1 X13.236 Y51.397 E48.41067
G1 X13.236 Y51.399 E48.41074
G1 X13.236 Y51.806 E48.42429
G1 X12.873 Y51.62 E48.43208
G1 X10.539 Y50.421 E48.51948
G1 X10.539 Y49.282 E48.55742
G1 X12.239 Y49.282 E48.61405
G1 X12.239 Y23.494 E49.47306
G1 X10.539 Y23.494 E49.52969
G1 X10.539 Y21.994 E49.57965
G1 X12.239 Y21.994 E49.63628
G1 X12.239 Y18.694 E49.7462
G1 X11.35 Y18.694 E49.77582
G1 X11.349 Y18.694 E49.77585
G1 X10.92 Y18.694 E49.79014
G1 X11.133 Y18.321 E49.79826
G1 X12.92 Y15.194 E49.91823
G1 X13.636 Y15.194 E49.94208
G1 X13.636 Y29.496 E50.41849
G0 F2625 X13.886 Y29.496
G0 X13.886 Y30.096
G0 X13.229 Y30.486
;TYPE:SKIN
G1 F900 X17.549 Y30.486 E50.56239
G1 X17.549 Y98.601 E52.83132
G1 X16.731 Y98.601 E52.85857
G1 X16.731 Y49.344 E54.49934
G1 X13.229 Y49.344 E54.61599
G1 X13.229 Y30.486 E55.24416
G0 F2625 X17.324 Y31.466
G1 F900 X16.568 Y30.71 E55.27977
G0 F2625 X15.861 Y30.71
G1 F900 X17.324 Y32.173 E55.34869
G0 F2625 X17.324 Y32.88
G1 F900 X15.154 Y30.71 E55.45092
G0 F2625 X14.446 Y30.71
G1 F900 X17.324 Y33.587 E55.58647
G0 F2625 X17.324 Y34.294
G1 F900 X13.739 Y30.71 E55.75533
G0 F2625 X13.454 Y31.131
G1 F900 X17.324 Y35.001 E55.93764
G0 F2625 X17.324 Y35.708
G1 F900 X13.454 Y31.838 E56.11994
G0 F2625 X13.454 Y32.546
G1 F900 X17.324 Y36.415 E56.30223
G0 F2625 X17.324 Y37.123
G1 F900 X13.454 Y33.253 E56.48454
G0 F2625 X13.454 Y33.96
G1 F900 X17.324 Y37.83 E56.66684
G0 F2625 X17.324 Y38.537
G1 F900 X13.454 Y34.667 E56.84915
G0 F2625 X13.454 Y35.374
G1 F900 X17.324 Y39.244 E57.03146
G0 F2625 X17.324 Y39.951
G1 F900 X13.454 Y36.081 E57.21377
G0 F2625 X13.454 Y36.788
G1 F900 X17.324 Y40.658 E57.39608
G0 F2625 X17.324 Y41.365
G1 F900 X13.454 Y37.495 E57.57838
G0 F2625 X13.454 Y38.202
G1 F900 X17.324 Y42.072 E57.76069
G0 F2625 X17.324 Y42.779
G1 F900 X13.454 Y38.909 E57.943
G0 F2625 X13.454 Y39.617
G1 F900 X17.324 Y43.487 E58.12531
G0 F2625 X17.324 Y44.194
G1 F900 X13.454 Y40.324 E58.30761
G0 F2625 X13.454 Y41.031
G1 F900 X17.324 Y44.901 E58.48992
G0 F2625 X17.324 Y45.608
G1 F900 X13.454 Y41.738 E58.67223
G0 F2625 X13.454 Y42.445
G1 F900 X17.324 Y46.315 E58.85454
G0 F2625 X17.324 Y47.022
G1 F900 X13.454 Y43.152 E59.03685
G0 F2625 X13.454 Y43.859
G1 F900 X17.324 Y47.729 E59.21915
G0 F2625 X17.324 Y48.436
G1 F900 X13.454 Y44.566 E59.40146
G0 F2625 X13.454 Y45.273
G1 F900 X17.324 Y49.143 E59.58377
G0 F2625 X16.956 Y49.483
