;Generated by Cura LulzBot Edition GCodeWriter Version: 3.2.21
;FLAVOR:Marlin
;TIME:5245
;Filament used: 3.37964m
;Layer height: 0.25
;Generated with Cura_SteamEngine 3.2.21
M82 ;absolute extrusion mode
;This G-Code has been generated specifically for the LulzBot TAZ 6 with standard extruder
M75 ; start GLCD timer
G26 ; clear potential 'probe fail' condition
G21 ; set units to Millimetres
M107 ; disable fans
G90 ; absolute positioning
M82 ; set extruder to absolute mode
G92 E0 ; set extruder position to 0
M140 S60 ; start bed heating up
G28 XY ; home X and Y
G1 X-19 Y258 F1000 ; move to safe homing position
M109 R140 ; soften filament before homing Z
G28 Z ; home Z
G1 E-30 F100 ; retract filament
M109 R140 ; wait for extruder to reach wiping temp
G1 X-15 Y100 F3000 ; move above wiper pad
G1 Z1 ; push nozzle into wiper
G1 X-17 Y95 F1000 ; slow wipe
G1 X-17 Y90 F1000 ; slow wipe
G1 X-17 Y85 F1000 ; slow wipe
G1 X-15 Y90 F1000 ; slow wipe
G1 X-17 Y80 F1000 ; slow wipe
G1 X-15 Y95 F1000 ; slow wipe
G1 X-17 Y75 F2000 ; fast wipe
G1 X-15 Y65 F2000 ; fast wipe
G1 X-17 Y70 F2000 ; fast wipe
G1 X-15 Y60 F2000 ; fast wipe
G1 X-17 Y55 F2000 ; fast wipe
G1 X-15 Y50 F2000 ; fast wipe
G1 X-17 Y40 F2000 ; fast wipe
G1 X-15 Y45 F2000 ; fast wipe
G1 X-17 Y35 F2000 ; fast wipe
G1 X-15 Y40 F2000 ; fast wipe
G1 X-17 Y70 F2000 ; fast wipe
G1 X-15 Y30 Z2 F2000 ; fast wipe
G1 X-17 Y35 F2000 ; fast wipe
G1 X-15 Y25 F2000 ; fast wipe
G1 X-17 Y30 F2000 ; fast wipe
G1 X-15 Y25 Z1.5 F1000 ; slow wipe
G1 X-17 Y23 F1000 ; slow wipe
G1 Z10 ; raise extruder
M109 R140 ; wait for extruder to reach probe temp
G1 X-9 Y-9 ; move above first probe point
M204 S100 ; set probing acceleration
G29 ; start auto-leveling sequence
M204 S500 ; restore standard acceleration
G1 X0 Y0 Z15 F5000 ; move up off last probe point
G4 S1 ; pause
M400 ; wait for moves to finish
M117 Heating... ; progress indicator message on LCD
M109 R215 ; wait for extruder to reach printing temp
M190 S60 ; wait for bed to reach printing temp
G1 Z2 E0 F75 ; prime tiny bit of filament into the nozzle
M117 TAZ 6 Printing... ; progress indicator message on LCD

M221 S100
;LAYER_COUNT:76
;LAYER:0
M107
G0 F2625 X105.201 Y102.744 Z0.424
;TYPE:SKIRT
G1 F900 X106.691 Y101.267 E0.06972
G1 X106.832 Y101.135 E0.07614
G1 X109.68 Y98.629 E0.20221
G1 X109.84 Y98.497 E0.2091
G1 X113.973 Y95.303 E0.38268
G1 X114.399 Y95.024 E0.39961
G1 X114.836 Y94.826 E0.41555
G1 X115.015 Y94.76 E0.42189
G1 X115.505 Y94.621 E0.43881
G1 X116.139 Y94.559 E0.45998
G1 X171.431 Y94.56 E2.29745
G1 X171.939 Y94.6 E2.31438
G1 X172.434 Y94.719 E2.3313
G1 X172.905 Y94.914 E2.34824
G1 X173.34 Y95.18 E2.36518
G1 X173.631 Y95.418 E2.37768
G1 X173.718 Y95.498 E2.38161
G1 X173.843 Y95.619 E2.38739
G1 X174.013 Y95.793 E2.39547
G1 X174.339 Y96.184 E2.41239
G1 X174.6 Y96.621 E2.4293
G1 X174.708 Y96.863 E2.43811
G1 X176.598 Y101.614 E2.60803
G1 X178.894 Y106.59 E2.79015
G1 X181.468 Y111.428 E2.97226
G1 X184.299 Y116.092 E3.15357
G1 X187.419 Y120.634 E3.33669
G1 X189.285 Y123.11 E3.43973
G1 X189.559 Y123.54 E3.45667
G1 X189.763 Y124.007 E3.47361
G1 X189.89 Y124.5 E3.49053
G1 X189.94 Y125.066 E3.50941
G1 X189.94 Y154.928 E4.50178
G1 X189.9 Y155.436 E4.51872
G1 X189.781 Y155.931 E4.53563
G1 X189.586 Y156.402 E4.55257
G1 X189.307 Y156.855 E4.57026
G1 X186.159 Y161.131 E4.74671
G1 X183.15 Y165.726 E4.92924
G1 X180.417 Y170.465 E5.11104
G1 X177.966 Y175.329 E5.29204
G1 X175.747 Y180.434 E5.47702
G1 X174.626 Y183.228 E5.57707
G1 X174.4 Y183.684 E5.59398
G1 X174.106 Y184.1 E5.61091
G1 X173.882 Y184.342 E5.62187
G1 X173.706 Y184.514 E5.63005
G1 X173.314 Y184.841 E5.64701
G1 X172.877 Y185.102 E5.66393
G1 X172.404 Y185.292 E5.68087
G1 X171.907 Y185.405 E5.6978
G1 X171.431 Y185.44 E5.71366
G1 X115.984 Y185.393 E7.55628
G1 X115.476 Y185.353 E7.57321
G1 X114.981 Y185.233 E7.59014
G1 X114.51 Y185.038 E7.60708
G1 X114.002 Y184.717 E7.62705
G1 X110.074 Y181.688 E7.79189
G1 X109.933 Y181.572 E7.79796
G1 X107.15 Y179.165 E7.92023
G1 X106.982 Y179.009 E7.92785
G1 X104.578 Y176.613 E8.04064
G1 X104.41 Y176.432 E8.04885
G1 X101.84 Y173.449 E8.1797
G1 X101.726 Y173.309 E8.1857
G1 X100.407 Y171.594 E8.2576
G1 X100.281 Y171.419 E8.26476
G1 X97.962 Y167.949 E8.40346
G1 X97.854 Y167.776 E8.41024
G1 X96.588 Y165.598 E8.49396
G1 X96.504 Y165.443 E8.49982
G1 X95.496 Y163.469 E8.57347
G1 X95.427 Y163.326 E8.57875
G1 X94.18 Y160.557 E8.67967
G1 X94.11 Y160.39 E8.68569
G1 X93.306 Y158.302 E8.76004
G1 X93.258 Y158.168 E8.76477
G1 X92.413 Y155.65 E8.85304
G1 X92.367 Y155.503 E8.85815
G1 X91.772 Y153.406 E8.93059
G1 X91.73 Y153.24 E8.93628
G1 X91.072 Y150.348 E9.03485
G1 X91.033 Y150.147 E9.04165
G1 X90.519 Y146.974 E9.14847
G1 X90.489 Y146.732 E9.15657
G1 X90.139 Y142.658 E9.29246
G1 X90.128 Y142.473 E9.29862
G1 X90.065 Y140.262 E9.37212
G1 X90.066 Y140.062 E9.37877
G1 X90.187 Y136.372 E9.50146
G1 X90.202 Y136.145 E9.50902
G1 X90.539 Y132.887 E9.61787
G1 X90.565 Y132.695 E9.62431
G1 X90.983 Y130.146 E9.71015
G1 X91.016 Y129.973 E9.716
G1 X91.664 Y127.03 E9.81615
G1 X91.717 Y126.822 E9.82328
G1 X92.748 Y123.275 E9.94603
G1 X92.827 Y123.038 E9.95433
G1 X94.137 Y119.554 E10.07803
G1 X94.2 Y119.4 E10.08356
G1 X95.013 Y117.534 E10.1512
G1 X95.109 Y117.332 E10.15863
G1 X97.065 Y113.572 E10.29948
G1 X97.159 Y113.404 E10.30588
G1 X98.247 Y111.585 E10.37631
G1 X98.363 Y111.404 E10.38346
G1 X100.75 Y107.954 E10.52288
G1 X100.858 Y107.808 E10.52891
G1 X102.121 Y106.184 E10.59728
G1 X102.266 Y106.01 E10.60481
G1 X105.069 Y102.883 E10.74436
G1 X105.201 Y102.744 E10.75073
G0 F2625 X107.065 Y105.831
;TYPE:SUPPORT
G1 F900 X109.406 Y103.5 E10.86052
G1 X111.706 Y101.478 E10.96229
G1 X116.098 Y98.072 E11.14699
G1 X116.162 Y98.05 E11.14924
G1 X171.333 Y98.05 E12.98268
G1 X171.45 Y98.167 E12.98818
G1 X171.45 Y124.551 E13.86497
G1 X171.949 Y125.05 E13.88842
G1 X186.333 Y125.05 E14.36643
G1 X186.45 Y125.167 E14.37193
G1 X186.45 Y154.833 E15.35779
G1 X186.333 Y154.95 E15.36329
G1 X171.949 Y154.95 E15.8413
G1 X171.45 Y155.449 E15.86475
G1 X171.45 Y181.833 E16.74154
G1 X171.333 Y181.95 E16.74704
G1 X116.164 Y181.95 E18.58041
G1 X116.097 Y181.927 E18.58277
G1 X111.64 Y178.473 E18.77015
G1 X109.342 Y176.443 E18.87205
G1 X107.019 Y174.114 E18.98137
G1 X105.029 Y171.859 E19.08131
G1 X103.094 Y169.362 E19.18629
G1 X101.305 Y166.732 E19.29199
G1 X99.744 Y164.101 E19.39366
G1 X99.413 Y163.437 E19.41831
G1 X98.29 Y161.244 E19.50019
G1 X97.075 Y158.435 E19.6019
G1 X95.977 Y155.389 E19.7095
G1 X95.119 Y152.414 E19.81239
G1 X94.432 Y149.364 E19.91629
G1 X93.933 Y146.199 E20.02277
G1 X93.652 Y143.14 E20.12485
G1 X93.55 Y139.992 E20.22952
G1 X93.649 Y136.852 E20.33392
G1 X93.93 Y133.842 E20.43439
G1 X94.441 Y130.631 E20.54244
G1 X95.11 Y127.618 E20.645
G1 X96.009 Y124.519 E20.75224
G1 X96.108 Y124.272 E20.76108
G1 X97.058 Y121.611 E20.85498
G1 X98.286 Y118.764 E20.95801
G1 X99.739 Y115.916 E21.06426
G1 X101.316 Y113.255 E21.16706
G1 X103.12 Y110.603 E21.27364
G1 X105.021 Y108.144 E21.37693
G1 X107.065 Y105.831 E21.47951
G0 F2625 X101.331 Y121.086
G1 F900 X99.793 Y121.525 E21.53266
G1 X98.559 Y121.866 E21.57521
G1 X97.727 Y122.814 E21.61713
G1 X97.591 Y122.959 E21.62373
G1 X97.233 Y123.468 E21.64441
G1 X96.957 Y124.003 E21.66442
G1 X96.842 Y124.324 E21.67575
G1 X96.759 Y124.556 E21.68394
G1 X96.637 Y125.152 E21.70415
G1 X96.6 Y125.673 E21.72151
G1 X96.635 Y126.371 E21.74474
G1 X96.686 Y126.589 E21.75218
G1 X96.86 Y127.508 E21.78326
G1 X97.597 Y128.55 E21.82567
G1 X97.926 Y128.899 E21.84161
G1 X98.408 Y129.583 E21.86942
G1 X99.962 Y130.024 E21.9231
G1 X99.961 Y130.041 E21.92367
G1 X100.695 Y130.144 E21.9483
G1 X101.303 Y130.144 E21.9685
G1 X101.913 Y130.058 E21.98898
G1 X103.595 Y129.591 E22.04699
G1 X104.08 Y128.891 E22.07529
G1 X104.38 Y128.57 E22.08989
G1 X104.767 Y128.038 E22.11175
G1 X105.038 Y127.515 E22.13133
G1 X105.249 Y126.914 E22.15249
G1 X105.359 Y126.345 E22.17175
G1 X105.4 Y125.821 E22.18922
G1 X105.395 Y125.592 E22.19683
G1 X105.364 Y125.152 E22.21149
G1 X105.239 Y124.555 E22.23176
G1 X105.04 Y123.996 E22.25148
G1 X104.768 Y123.469 E22.27119
G1 X104.404 Y122.951 E22.29223
G1 X104.254 Y122.794 E22.29944
G1 X104.057 Y122.571 E22.30933
G1 X103.548 Y122.157 E22.33113
G1 X103.021 Y121.834 E22.35167
G1 X101.331 Y121.086 E22.41309
G1 F600 E21.41309
G0 F2625 X103.809 Y123.993
G0 X104.187 Y124.84
G0 X104.314 Y125.782
G0 X101.343 Y149.592
G1 F600 E22.41309
G1 F900 X100.046 Y149.954 E22.45784
G1 X99.512 Y149.991 E22.47563
G1 X98.664 Y150.528 E22.50898
G1 X98.448 Y150.657 E22.51735
G1 X97.946 Y151.069 E22.53893
G1 X97.724 Y151.319 E22.55004
G1 X97.582 Y151.468 E22.55688
G1 X97.241 Y151.953 E22.57658
G1 X96.957 Y152.493 E22.59686
G1 X96.757 Y153.066 E22.61702
G1 X96.639 Y153.645 E22.63666
G1 X96.6 Y154.169 E22.65412
G1 X96.607 Y154.408 E22.66207
G1 X96.637 Y154.851 E22.67682
G1 X96.763 Y155.443 E22.69694
G1 X96.962 Y156.011 E22.71694
G1 X97.237 Y156.537 E22.73666
G1 X97.591 Y157.039 E22.75708
G1 X97.91 Y157.382 E22.77264
G1 X98.394 Y158.076 E22.80076
G1 X100.101 Y158.562 E22.85974
G1 X100.505 Y158.617 E22.87329
G1 X100.704 Y158.644 E22.87997
G1 X101.301 Y158.644 E22.89981
G1 X101.885 Y158.563 E22.9194
G1 X103.597 Y158.09 E22.97842
G1 X104.081 Y157.389 E23.00673
G1 X104.74 Y156.695 E23.03854
G1 X104.934 Y156.21 E23.0559
G1 X105.014 Y156.057 E23.06163
G1 X105.068 Y155.926 E23.06634
G1 X105.241 Y155.442 E23.08342
G1 X105.365 Y154.837 E23.10395
G1 X105.406 Y154.214 E23.12469
G1 X105.301 Y152.721 E23.17443
G1 X104.414 Y151.468 E23.22545
G1 X104.061 Y151.074 E23.24303
G1 X103.544 Y150.654 E23.26517
G1 X103.038 Y150.347 E23.28483
G1 X101.343 Y149.592 E23.3465
G0 F2625 X160.597 Y151.447
G1 F900 X160.236 Y151.961 E23.36737
G1 X159.957 Y152.494 E23.38736
G1 X159.757 Y153.067 E23.40753
G1 X159.639 Y153.644 E23.4271
G1 X159.6 Y154.169 E23.4446
G1 X159.607 Y154.408 E23.45254
G1 X159.637 Y154.851 E23.4673
G1 X159.763 Y155.443 E23.48741
G1 X159.962 Y156.011 E23.50741
G1 X160.237 Y156.537 E23.52714
G1 X160.591 Y157.039 E23.54755
G1 X160.91 Y157.382 E23.56312
G1 X161.394 Y158.076 E23.59124
G1 X163.101 Y158.562 E23.65022
G1 X163.505 Y158.617 E23.66377
G1 X163.704 Y158.644 E23.67044
G1 X164.301 Y158.644 E23.69028
G1 X164.885 Y158.563 E23.70987
G1 X166.597 Y158.09 E23.7689
G1 X167.081 Y157.389 E23.79721
G1 X167.74 Y156.695 E23.82901
G1 X167.934 Y156.21 E23.84637
G1 X168.014 Y156.057 E23.85211
G1 X168.068 Y155.926 E23.85682
G1 X168.241 Y155.442 E23.8739
G1 X168.365 Y154.837 E23.89442
G1 X168.406 Y154.214 E23.91517
G1 X168.301 Y152.721 E23.96491
G1 X167.415 Y151.468 E24.0159
G1 X167.062 Y151.074 E24.03348
G1 X166.581 Y150.687 E24.054
G1 X166.023 Y150.336 E24.07591
G1 X164.331 Y149.586 E24.13741
G1 X162.502 Y150.105 E24.20059
G1 X161.983 Y150.334 E24.21945
G1 X161.452 Y150.657 E24.2401
G1 X160.941 Y151.072 E24.26198
G1 X160.731 Y151.312 E24.27257
G1 X160.597 Y151.447 E24.27889
G0 F2625 X159.957 Y124.003
G1 F900 X159.755 Y124.571 E24.29893
G1 X159.635 Y125.158 E24.31884
G1 X159.588 Y125.781 E24.3396
G1 X159.612 Y125.983 E24.34636
G1 X159.635 Y126.325 E24.35775
G1 X159.686 Y126.607 E24.36728
G1 X159.706 Y126.679 E24.36976
G1 X159.755 Y126.926 E24.37813
G1 X159.962 Y127.519 E24.399
G1 X160.234 Y128.034 E24.41836
G1 X160.598 Y128.548 E24.43929
G1 X160.921 Y128.892 E24.45497
G1 X161.407 Y129.583 E24.48304
G1 X162.962 Y130.024 E24.53676
G1 X162.961 Y130.041 E24.53732
G1 X163.695 Y130.144 E24.56195
G1 X164.303 Y130.144 E24.58216
G1 X164.913 Y130.058 E24.60263
G1 X166.595 Y129.591 E24.66064
G1 X167.08 Y128.891 E24.68894
G1 X167.415 Y128.531 E24.70528
G1 X167.767 Y128.038 E24.72541
G1 X168.038 Y127.515 E24.74499
G1 X168.249 Y126.914 E24.76616
G1 X168.359 Y126.345 E24.78542
G1 X168.4 Y125.821 E24.80288
G1 X168.395 Y125.592 E24.81049
G1 X168.364 Y125.152 E24.82515
G1 X168.239 Y124.555 E24.84542
G1 X168.04 Y123.996 E24.86514
G1 X167.768 Y123.469 E24.88485
G1 X167.404 Y122.951 E24.90589
G1 X167.254 Y122.794 E24.9131
G1 X167.057 Y122.571 E24.92299
G1 X166.548 Y122.157 E24.9448
G1 X166.021 Y121.834 E24.96534
G1 X164.331 Y121.086 E25.02675
G1 X162.502 Y121.605 E25.08994
G1 X161.93 Y121.866 E25.11083
G1 X161.469 Y122.147 E25.12877
G1 X160.941 Y122.572 E25.1513
G1 X160.591 Y122.958 E25.16861
G1 X160.233 Y123.468 E25.18932
G1 X159.957 Y124.003 E25.20932
G0 F2625 X159.936 Y123.607
G1 F900 X159.936 Y98.25 E26.05199
G0 F2625 X158.27 Y98.25
G1 F900 X158.27 Y181.75 E28.82686
G0 F2625 X156.604 Y181.75
G1 F900 X156.604 Y98.25 E31.60173
G0 F2625 X154.938 Y98.25
G1 F900 X154.938 Y181.75 E34.3766
G0 F2625 X153.272 Y181.75
G1 F900 X153.272 Y98.25 E37.15147
G0 F2625 X151.606 Y98.25
G1 F900 X151.606 Y181.75 E39.92634
G0 F2625 X149.94 Y181.75
G1 F900 X149.94 Y98.25 E42.70121
G0 F2625 X148.274 Y98.25
G1 F900 X148.274 Y181.75 E45.47608
G0 F2625 X146.608 Y181.75
G1 F900 X146.608 Y98.25 E48.25095
G0 F2625 X144.942 Y98.25
G1 F900 X144.942 Y181.75 E51.02582
G0 F2625 X143.276 Y181.75
G1 F900 X143.276 Y98.25 E53.80069
G0 F2625 X141.61 Y98.25
G1 F900 X141.61 Y181.75 E56.57556
G0 F2625 X139.944 Y181.75
G1 F900 X139.944 Y98.25 E59.35043
G0 F2625 X138.278 Y98.25
G1 F900 X138.278 Y181.75 E62.12531
G0 F2625 X136.612 Y181.75
G1 F900 X136.612 Y98.25 E64.90018
G0 F2625 X134.946 Y98.25
G1 F900 X134.946 Y181.75 E67.67505
G0 F2625 X133.28 Y181.75
G1 F900 X133.28 Y98.25 E70.44992
G0 F2625 X131.614 Y98.25
G1 F900 X131.614 Y181.75 E73.22479
G0 F2625 X129.948 Y181.75
G1 F900 X129.948 Y98.25 E75.99966
G0 F2625 X128.282 Y98.25
G1 F900 X128.282 Y181.75 E78.77453
G0 F2625 X126.616 Y181.75
G1 F900 X126.616 Y98.25 E81.5494
G0 F2625 X124.95 Y98.25
G1 F900 X124.95 Y181.75 E84.32427
G0 F2625 X123.284 Y181.75
G1 F900 X123.284 Y98.25 E87.09914
G0 F2625 X121.618 Y98.25
G1 F900 X121.618 Y181.75 E89.87401
G0 F2625 X119.952 Y181.75
G1 F900 X119.952 Y98.25 E92.64888
G0 F2625 X118.286 Y98.25
G1 F900 X118.286 Y181.75 E95.42375
G0 F2625 X116.62 Y181.75
G1 F900 X116.62 Y98.25 E98.19862
G0 F2625 X116.139 Y98.294
G1 F900 X171.25 Y98.294 E100.03007
G0 F2625 X169.932 Y98.25
G1 F900 X169.932 Y181.75 E102.80494
G0 F2625 X171.25 Y181.594
G1 F900 X115.993 Y181.594 E104.64124
G0 F2625 X114.954 Y180.787
G1 F900 X114.954 Y99.212 E107.35214
G0 F2625 X113.99 Y99.96
G1 F900 X171.25 Y99.96 E109.255
G0 F2625 X171.25 Y101.626
G1 F900 X111.842 Y101.626 E111.22925
G0 F2625 X111.622 Y101.817
G1 F900 X111.622 Y178.19 E113.76728
G0 F2625 X111.701 Y178.262
G1 F900 X171.25 Y178.262 E115.74621
G0 F2625 X171.25 Y179.928
G1 F900 X113.843 Y179.928 E117.65396
G0 F2625 X113.288 Y179.496
G1 F900 X113.288 Y100.504 E120.27902
G0 F2625 X109.956 Y103.282
G1 F900 X109.956 Y176.718 E122.71944
G0 F2625 X109.816 Y176.596
G1 F900 X171.25 Y176.596 E124.76101
G0 F2625 X171.25 Y174.93
G1 F900 X108.115 Y174.93 E126.85911
G0 F2625 X108.29 Y175.103
G1 F900 X108.29 Y104.893 E129.19233
G0 F2625 X108.225 Y104.958
G1 F900 X171.25 Y104.958 E131.28678
G0 F2625 X171.25 Y106.624
G1 F900 X106.632 Y106.624 E133.43416
G0 F2625 X106.624 Y106.632
G1 F900 X106.624 Y173.364 E135.6518
G0 F2625 X106.534 Y173.264
G1 F900 X171.25 Y173.264 E137.80244
G0 F2625 X171.25 Y171.598
G1 F900 X105.078 Y171.598 E140.00147
G0 F2625 X104.958 Y171.44
G1 F900 X104.958 Y156.687 E140.49174
G0 F2625 X104.991 Y156.604
G1 F900 X160.046 Y156.604 E142.32133
G0 F2625 X159.936 Y156.394
G1 F900 X159.936 Y181.75 E143.16396
G0 F2625 X161.602 Y181.75
G1 F900 X161.602 Y158.344 E143.94178
G0 F2625 X161.345 Y158.27
G1 F900 X103.698 Y158.27 E145.85751
G0 F2625 X103.292 Y158.382
G1 F900 X103.292 Y169.289 E146.21997
G0 F2625 X103.788 Y169.932
G1 F900 X171.25 Y169.932 E148.46186
G0 F2625 X171.25 Y168.266
G1 F900 X102.59 Y168.266 E150.74357
G0 F2625 X101.626 Y166.847
G1 F900 X101.626 Y158.8 E151.01099
G0 F2625 X99.96 Y158.73
G1 F900 X99.96 Y164.073 E151.18855
G0 F2625 X99.55 Y163.268
G1 F900 X171.25 Y163.268 E153.57128
G0 F2625 X171.25 Y164.934
G1 F900 X100.469 Y164.934 E155.92347
G0 F2625 X101.458 Y166.6
G1 F900 X171.25 Y166.6 E158.2428
G0 F2625 X171.25 Y161.602
G1 F900 X98.697 Y161.602 E160.65388
G0 F2625 X98.294 Y160.748
G1 F900 X98.294 Y158.256 E160.7367
G0 F2625 X98.344 Y158.27
G1 F900 X97.227 Y158.27 E160.77382
G0 F2625 X97.045 Y156.604
G1 F900 X96.626 Y156.604 E160.78774
