;Generated by Cura LulzBot Edition GCodeWriter Version: 3.6.20
;FLAVOR:Marlin
;TIME:6887
;Filament used: 4.08135m
;Layer height: 0.25
;Generated with Cura_SteamEngine 3.6.20
M82 ;absolute extrusion mode
;This G-Code has been generated specifically for the LulzBot TAZ 6 with Aerosturder
M73 P0 ; clear GLCD progress bar
M75 ; start GLCD timer
G26 ; clear potential 'probe fail' condition
M107 ; disable fans
M420 S0 ; disable leveling matrix
G90 ; absolute positioning
M82 ; set extruder to absolute mode
G92 E0 ; set extruder position to 0
M140 S60.0 ; start bed heating up
G28 XY ; home X and Y
G1 X-19 Y258 F1000 ; move to safe homing position
M109 R140 ; soften filament before homing Z
G28 Z ; home Z
G1 E-15 F100 ; retract filament
M109 R140 ; wait for extruder to reach wiping temp
G1 X-15 Y100 F3000 ; move above wiper pad
G1 Z1 ; push nozzle into wiper
G1 X-17 Y95 F1000 ; slow wipe
G1 X-17 Y90 F1000 ; slow wipe
G1 X-17 Y85 F1000 ; slow wipe
G1 X-15 Y90 F1000 ; slow wipe
G1 X-17 Y80 F1000 ; slow wipe
G1 X-15 Y95 F1000 ; slow wipe
G1 X-17 Y75 F2000 ; fast wipe
G1 X-15 Y65 F2000 ; fast wipe
G1 X-17 Y70 F2000 ; fast wipe
G1 X-15 Y60 F2000 ; fast wipe
G1 X-17 Y55 F2000 ; fast wipe
G1 X-15 Y50 F2000 ; fast wipe
G1 X-17 Y40 F2000 ; fast wipe
G1 X-15 Y45 F2000 ; fast wipe
G1 X-17 Y35 F2000 ; fast wipe
G1 X-15 Y40 F2000 ; fast wipe
G1 X-17 Y70 F2000 ; fast wipe
G1 X-15 Y30 Z2 F2000 ; fast wipe
G1 X-17 Y35 F2000 ; fast wipe
G1 X-15 Y25 F2000 ; fast wipe
G1 X-17 Y30 F2000 ; fast wipe
G1 X-15 Y25 Z1.5 F1000 ; slow wipe
G1 X-17 Y23 F1000 ; slow wipe
G1 Z10 ; raise extruder
M109 R140 ; wait for extruder to reach probe temp
G1 X-9 Y-9 ; move above first probe point
M204 S100 ; set probing acceleration
G29          ; start auto-leveling sequence
M420 S1      ; enable leveling matrix
M425 Z       ; use measured Z backlash for compensation
M425 Z F0    ; turn off measured Z backlash compensation. (if activated in the quality settings, this command will automatically be ignored)
M204 S500 ; restore standard acceleration
G1 X0 Y0 Z15 F5000 ; move up off last probe point
G4 S1 ; pause
M400 ; wait for moves to finish
M117 Heating... ; progress indicator message on LCD
M109 R220  ; wait for extruder to reach printing temp
M190 R60.0 ; wait for bed to reach printing temp
G1 Z2 E0 F75 ; prime tiny bit of filament into the nozzle
M117 TAZ 6 Printing... ; progress indicator message on LCD

M221 S100 T0
G92 E0
G1 F600 E-1
;LAYER_COUNT:80
;LAYER:0
M107
G0 F2625 X102.987 Y102.715 Z0.43
;TYPE:SKIRT
G1 F600 E0
G1 F900 X104.718 Y101.005 E0.082
G1 X104.846 Y100.885 E0.08792
G1 X106.823 Y99.133 E0.17695
G1 X106.978 Y99.004 E0.18374
G1 X111.169 Y95.729 E0.363
G1 X111.374 Y95.581 E0.37152
G1 X112.095 Y95.103 E0.40067
G1 X112.541 Y94.856 E0.41786
G1 X113.019 Y94.681 E0.43501
G1 X113.519 Y94.583 E0.45218
G1 X113.891 Y94.562 E0.46474
G1 X176.182 Y94.56 E2.56409
G1 X176.69 Y94.6 E2.58126
G1 X177.185 Y94.719 E2.59842
G1 X177.656 Y94.914 E2.6156
G1 X178.091 Y95.18 E2.63278
G1 X178.484 Y95.516 E2.65021
G1 X178.745 Y95.778 E2.66267
G1 X179.076 Y96.166 E2.67986
G1 X179.341 Y96.601 E2.69703
G1 X179.546 Y97.106 E2.7154
G1 X180.543 Y100.307 E2.82839
G1 X182.406 Y105.46 E3.01306
G1 X184.556 Y110.5 E3.19773
G1 X186.985 Y115.402 E3.38211
G1 X189.694 Y120.171 E3.56695
G1 X191.689 Y123.333 E3.69296
G1 X191.926 Y123.784 E3.71013
G1 X192.09 Y124.266 E3.72729
G1 X192.176 Y124.768 E3.74445
G1 X192.19 Y125.067 E3.75454
G1 X192.19 Y154.934 E4.76112
G1 X192.15 Y155.442 E4.7783
G1 X192.031 Y155.937 E4.79546
G1 X191.836 Y156.408 E4.81264
G1 X191.681 Y156.68 E4.82319
G1 X190.074 Y159.202 E4.92397
G1 X187.322 Y163.97 E5.10951
G1 X184.855 Y168.862 E5.29416
G1 X182.663 Y173.898 E5.47927
G1 X181.679 Y176.45 E5.57145
G1 X180.77 Y179.024 E5.66345
G1 X179.446 Y183.037 E5.80586
G1 X179.249 Y183.506 E5.82301
G1 X178.981 Y183.94 E5.8402
G1 X178.632 Y184.342 E5.85814
G1 X178.456 Y184.514 E5.86643
G1 X178.064 Y184.841 E5.88364
G1 X177.627 Y185.102 E5.90079
G1 X177.154 Y185.292 E5.91797
G1 X176.657 Y185.405 E5.93515
G1 X176.183 Y185.44 E5.95117
G1 X113.825 Y185.427 E8.05277
G1 X113.317 Y185.387 E8.06995
G1 X112.822 Y185.268 E8.08711
G1 X112.351 Y185.073 E8.10429
G1 X111.85 Y184.758 E8.12423
G1 X107.414 Y181.362 E8.31251
G1 X107.217 Y181.198 E8.32115
G1 X104.17 Y178.459 E8.45924
G1 X104.035 Y178.33 E8.46553
G1 X102.374 Y176.655 E8.54503
G1 X102.25 Y176.523 E8.55113
G1 X100.228 Y174.242 E8.65386
G1 X100.098 Y174.085 E8.66073
G1 X98.211 Y171.667 E8.7641
G1 X98.069 Y171.471 E8.77226
G1 X95.642 Y167.832 E8.91968
G1 X95.539 Y167.666 E8.92626
G1 X94.537 Y165.948 E8.99329
G1 X94.435 Y165.759 E9.00053
G1 X92.583 Y162.039 E9.14058
G1 X92.489 Y161.833 E9.14821
G1 X91.295 Y158.946 E9.2535
G1 X91.236 Y158.795 E9.25897
G1 X90.495 Y156.715 E9.33338
G1 X90.428 Y156.504 E9.34084
G1 X89.33 Y152.601 E9.47749
G1 X89.277 Y152.383 E9.48505
G1 X88.563 Y148.95 E9.60323
G1 X88.533 Y148.781 E9.60901
G1 X88.289 Y147.192 E9.66319
G1 X88.263 Y146.978 E9.67046
G1 X87.886 Y142.602 E9.81848
G1 X87.875 Y142.412 E9.8249
G1 X87.815 Y140.211 E9.8991
G1 X87.817 Y139.993 E9.90645
G1 X87.977 Y135.955 E10.04265
G1 X87.989 Y135.774 E10.04876
G1 X88.187 Y133.71 E10.11864
G1 X88.215 Y133.491 E10.12608
G1 X88.903 Y129.318 E10.26862
G1 X88.95 Y129.088 E10.27653
G1 X89.732 Y125.831 E10.38942
G1 X89.789 Y125.625 E10.39662
G1 X90.642 Y122.883 E10.4934
G1 X90.704 Y122.701 E10.49988
G1 X91.937 Y119.431 E10.61766
G1 X92.001 Y119.273 E10.62341
G1 X92.764 Y117.532 E10.68747
G1 X92.858 Y117.337 E10.69477
G1 X94.853 Y113.502 E10.84046
G1 X94.947 Y113.333 E10.84698
G1 X95.989 Y111.592 E10.91536
G1 X96.107 Y111.41 E10.92267
G1 X98.558 Y107.873 E11.0677
G1 X98.67 Y107.72 E11.07409
G1 X99.933 Y106.107 E11.14313
G1 X100.078 Y105.935 E11.15071
G1 X102.857 Y102.851 E11.29062
G1 X102.987 Y102.715 E11.29696
G1 F600 E10.29696
G0 F2625 X104.779 Y105.869
;TYPE:SUPPORT
G1 F600 E11.29696
G1 F900 X107.214 Y103.446 E11.41274
G1 X109.265 Y101.635 E11.50495
G1 X113.852 Y98.078 E11.70058
G1 X113.931 Y98.05 E11.7034
G1 X176.083 Y98.05 E13.79806
G1 X176.2 Y98.167 E13.80364
G1 X176.2 Y124.551 E14.69284
G1 X176.699 Y125.05 E14.71662
G1 X188.583 Y125.05 E15.11714
G1 X188.7 Y125.167 E15.12272
G1 X188.7 Y154.833 E16.12253
G1 X188.583 Y154.95 E16.1281
G1 X176.699 Y154.95 E16.52862
G1 X176.2 Y155.449 E16.5524
G1 X176.2 Y181.833 E17.4416
G1 X176.083 Y181.95 E17.44718
G1 X113.909 Y181.95 E19.54258
G1 X113.864 Y181.934 E19.54419
G1 X109.371 Y178.458 E19.73564
G1 X107.129 Y176.475 E19.83652
G1 X104.746 Y174.089 E19.95017
G1 X102.776 Y171.852 E20.05063
G1 X100.892 Y169.429 E20.15407
G1 X99.046 Y166.726 E20.26438
G1 X97.534 Y164.161 E20.36473
G1 X96.085 Y161.332 E20.47185
G1 X94.807 Y158.377 E20.58036
G1 X94.282 Y156.941 E20.63189
G1 X93.73 Y155.389 E20.68741
G1 X92.886 Y152.481 E20.78946
G1 X92.121 Y149.067 E20.90737
G1 X91.717 Y146.518 E20.99435
G1 X91.446 Y143.584 E21.09365
G1 X91.401 Y143.211 E21.10631
G1 X91.3 Y139.913 E21.21752
G1 X91.399 Y136.874 E21.31999
G1 X91.682 Y133.844 E21.42255
G1 X92.187 Y130.659 E21.53124
G1 X92.869 Y127.565 E21.63801
G1 X93.739 Y124.577 E21.7429
G1 X93.831 Y124.349 E21.75118
G1 X94.828 Y121.552 E21.85126
G1 X96.017 Y118.807 E21.95208
G1 X97.508 Y115.876 E22.0629
G1 X99.046 Y113.281 E22.16457
G1 X100.885 Y110.573 E22.27489
G1 X102.755 Y108.167 E22.37759
G1 X104.779 Y105.869 E22.48079
G1 F600 E21.48079
G0 F2625 X101.237 Y136.799
G1 F600 E22.48079
G1 F900 X100.594 Y136.865 E22.50258
G1 X99.978 Y137.061 E22.52436
G1 X99.42 Y137.371 E22.54588
G1 X98.926 Y137.796 E22.56784
G1 X98.529 Y138.312 E22.58978
G1 X98.241 Y138.9 E22.61185
G1 X98.081 Y139.534 E22.63389
G1 X98.052 Y140.158 E22.65494
G1 X98.151 Y140.801 E22.67686
G1 X98.361 Y141.383 E22.69772
G1 X98.704 Y141.943 E22.71985
G1 X99.144 Y142.413 E22.74155
G1 X99.677 Y142.79 E22.76355
G1 X100.28 Y143.051 E22.78569
G1 X100.908 Y143.183 E22.80732
G1 X101.57 Y143.185 E22.82963
G1 X102.195 Y143.058 E22.85113
G1 X102.799 Y142.804 E22.87321
G1 X103.336 Y142.432 E22.89523
G1 X103.779 Y141.965 E22.91692
G1 X104.128 Y141.407 E22.9391
G1 X104.344 Y140.823 E22.96009
G1 X104.448 Y140.176 E22.98217
G1 X104.416 Y139.509 E23.00468
G1 X104.248 Y138.869 E23.02698
G1 X103.958 Y138.292 E23.04874
G1 X103.557 Y137.778 E23.07071
G1 X103.058 Y137.357 E23.09272
G1 X102.493 Y137.048 E23.11442
G1 X101.876 Y136.86 E23.13616
G1 X101.237 Y136.799 E23.15779
G1 F600 E22.15779
G0 F2625 X178.46 Y138.427
G1 F600 E23.15779
G1 F900 X178.199 Y139.03 E23.17994
G1 X178.067 Y139.658 E23.20156
G1 X178.065 Y140.32 E23.22387
G1 X178.192 Y140.945 E23.24537
G1 X178.446 Y141.549 E23.26745
G1 X178.818 Y142.086 E23.28947
G1 X179.286 Y142.53 E23.31121
G1 X179.836 Y142.872 E23.33304
G1 X180.423 Y143.093 E23.35418
G1 X181.07 Y143.197 E23.37626
G1 X181.713 Y143.17 E23.39795
G1 X182.353 Y143.009 E23.42019
G1 X182.937 Y142.721 E23.44214
G1 X183.453 Y142.326 E23.46404
G1 X183.879 Y141.83 E23.48607
G1 X184.189 Y141.272 E23.50759
G1 X184.385 Y140.656 E23.52937
G1 X184.451 Y140.013 E23.55116
G1 X184.39 Y139.374 E23.57279
G1 X184.202 Y138.757 E23.59453
G1 X183.893 Y138.192 E23.61623
G1 X183.472 Y137.693 E23.63824
G1 X182.958 Y137.292 E23.66021
G1 X182.381 Y137.003 E23.68196
G1 X181.747 Y136.835 E23.70406
G1 X181.095 Y136.801 E23.72606
G1 X180.448 Y136.901 E23.74813
G1 X179.861 Y137.115 E23.76919
G1 X179.307 Y137.455 E23.79109
G1 X178.837 Y137.894 E23.81277
G1 X178.46 Y138.427 E23.83477
G1 F600 E22.83477
G0 F2625 X177.866 Y139.986
G1 F600 E23.83477
G1 F900 X104.638 Y139.986 E26.30272
G1 F600 E25.30272
G0 F2625 X103.323 Y137.319
G1 F600 E26.30272
G1 F900 X103.323 Y107.824 E27.29677
G1 F600 E26.29677
G0 F2625 X104.353 Y106.656
G1 F600 E27.29677
G1 F900 X176 Y106.656 E29.71143
G1 F600 E28.71143
G0 F2625 X176 Y103.323
G1 F600 E29.71143
G1 F900 X107.655 Y103.323 E32.01481
G1 F600 E31.01481
G0 F2625 X106.656 Y104.283
G1 F600 E32.01481
G1 F900 X106.656 Y175.717 E34.4223
G1 F600 E33.4223
G0 F2625 X107.627 Y176.649
G1 F600 E34.4223
G1 F900 X176 Y176.649 E36.72662
G1 F600 E35.72662
G0 F2625 X176 Y173.316
G1 F600 E36.72662
G1 F900 X104.33 Y173.316 E39.14206
G1 F600 E38.14206
G0 F2625 X103.323 Y172.17
G1 F600 E39.14206
G1 F900 X103.323 Y142.685 E40.13577
G1 F600 E39.13577
G0 F2625 X101.915 Y143.319
G1 F600 E40.13577
G1 F900 X180.567 Y143.319 E42.78652
G1 F600 E41.78652
G0 F2625 X181.944 Y143.319
G1 F600 E42.78652
G1 F900 X188.5 Y143.319 E43.00747
G1 F600 E42.00747
G0 F2625 X188.5 Y139.986
G1 F600 E43.00747
G1 F900 X184.649 Y139.986 E43.13726
G1 F600 E42.13726
G0 F2625 X183.315 Y137.317
G1 F600 E43.13726
G1 F900 X183.315 Y125.25 E43.54394
G1 F600 E42.54394
G0 F2625 X179.982 Y125.25
G1 F600 E43.54394
G1 F900 X179.982 Y136.859 E43.93519
G0 F2625 X180.74 Y136.653
G1 F900 X101.8 Y136.653 E46.59565
G1 F600 E45.59565
G0 F2625 X100.698 Y136.653
G1 F600 E46.59565
G1 F900 X91.62 Y136.653 E46.9016
G1 F600 E45.9016
G0 F2625 X91.501 Y139.986
G1 F600 E46.9016
G1 F900 X97.858 Y139.986 E47.11584
G1 F600 E46.11584
G0 F2625 X99.99 Y136.848
G1 F600 E47.11584
G1 F900 X99.99 Y112.247 E47.94495
G1 F600 E46.94495
G0 F2625 X99.26 Y113.322
G1 F600 E47.94495
G1 F900 X176 Y113.322 E50.53126
G1 F600 E49.53126
G0 F2625 X176 Y109.989
G1 F600 E50.53126
G1 F900 X101.592 Y109.989 E53.03898
G1 F600 E52.03898
G0 F2625 X97.337 Y116.655
G1 F600 E53.03898
G1 F900 X176 Y116.655 E55.6901
G1 F600 E54.6901
G0 F2625 X176 Y119.988
G1 F600 E55.6901
G1 F900 X95.722 Y119.988 E58.39565
G1 F600 E57.39565
G0 F2625 X96.657 Y117.99
G1 F600 E58.39565
G1 F900 X96.657 Y162.008 E59.87915
G1 F600 E58.87915
G0 F2625 X97.325 Y163.317
G1 F600 E59.87915
G1 F900 X176 Y163.317 E62.53068
G1 F600 E61.53068
G0 F2625 X176 Y159.984
G1 F600 E62.53068
G1 F900 X95.719 Y159.984 E65.23633
G1 F600 E64.23633
G0 F2625 X94.39 Y156.651
G1 F600 E65.23633
G1 F900 X176 Y156.651 E67.98677
G1 F600 E66.98677
G0 F2625 X176.649 Y154.75
G1 F600 E67.98677
G1 F900 X176.649 Y125.25 E68.98099
G1 F600 E67.98099
G0 F2625 X176 Y123.321
G1 F600 E68.98099
G1 F900 X94.409 Y123.321 E71.73079
G1 F600 E70.73079
G0 F2625 X93.343 Y126.654
G1 F600 E71.73079
G1 F900 X188.5 Y126.654 E74.93779
G1 F600 E73.93779
G0 F2625 X186.648 Y125.25
G1 F600 E74.93779
G1 F900 X186.648 Y154.75 E75.93201
G1 F600 E74.93201
G0 F2625 X188.5 Y153.318
G1 F600 E75.93201
G1 F900 X93.336 Y153.318 E79.13925
G0 F2625 X93.324 Y153.271
G1 F900 X93.324 Y126.719 E80.03411
G1 F600 E79.03411
G0 F2625 X92.539 Y129.987
G1 F600 E80.03411
G1 F900 X188.5 Y129.987 E83.26821
G1 F600 E82.26821
G0 F2625 X188.5 Y133.32
G1 F600 E83.26821
G1 F900 X91.967 Y133.32 E86.52159
G1 F600 E85.52159
G0 F2625 X91.614 Y143.319
G1 F600 E86.52159
G1 F900 X100.584 Y143.319 E86.8239
G0 F2625 X99.99 Y143.143
G1 F900 X99.99 Y167.754 E87.65334
G1 F600 E86.65334
G0 F2625 X99.234 Y166.65
G1 F600 E87.65334
G1 F900 X176 Y166.65 E90.24053
G1 F600 E89.24053
G0 F2625 X176 Y169.983
G1 F600 E90.24053
G1 F900 X101.574 Y169.983 E92.74885
G1 F600 E91.74885
G0 F2625 X109.989 Y178.683
G1 F600 E92.74885
G1 F900 X109.989 Y101.326 E95.35596
G1 F600 E94.35596
G0 F2625 X111.714 Y99.99
G1 F600 E95.35596
G1 F900 X176 Y99.99 E97.52254
G1 F600 E96.52254
G0 F2625 X173.316 Y98.25
G1 F600 E97.52254
G1 F900 X173.316 Y181.75 E100.33668
G1 F600 E99.33668
G0 F2625 X176 Y179.982
G1 F600 E100.33668
G1 F900 X111.666 Y179.982 E102.50488
G1 F600 E101.50488
G0 F2625 X113.322 Y181.261
G1 F600 E102.50488
G1 F900 X113.322 Y98.743 E105.28592
G1 F600 E104.28592
G0 F2625 X116.655 Y98.25
G1 F600 E105.28592
G1 F900 X116.655 Y181.75 E108.10006
G1 F600 E107.10006
G0 F2625 X119.988 Y181.75
G1 F600 E108.10006
G1 F900 X119.988 Y98.25 E110.9142
G1 F600 E109.9142
G0 F2625 X123.321 Y98.25
G1 F600 E110.9142
G1 F900 X123.321 Y181.75 E113.72834
G1 F600 E112.72834
G0 F2625 X126.654 Y181.75
G1 F600 E113.72834
G1 F900 X126.654 Y98.25 E116.54247
G1 F600 E115.54247
G0 F2625 X129.987 Y98.25
G1 F600 E116.54247
G1 F900 X129.987 Y181.75 E119.35661
G1 F600 E118.35661
G0 F2625 X133.32 Y181.75
G1 F600 E119.35661
G1 F900 X133.32 Y98.25 E122.17075
G1 F600 E121.17075
G0 F2625 X136.653 Y98.25
G1 F600 E122.17075
G1 F900 X136.653 Y181.75 E124.98489
G1 F600 E123.98489
G0 F2625 X139.986 Y181.75
G1 F600 E124.98489
G1 F900 X139.986 Y98.25 E127.79902
G1 F600 E126.79902
G0 F2625 X143.319 Y98.25
G1 F600 E127.79902
G1 F900 X143.319 Y181.75 E130.61316
G1 F600 E129.61316
G0 F2625 X146.652 Y181.75
G1 F600 E130.61316
G1 F900 X146.652 Y98.25 E133.4273
G1 F600 E132.4273
G0 F2625 X149.985 Y98.25
G1 F600 E133.4273
G1 F900 X149.985 Y181.75 E136.24144
G1 F600 E135.24144
G0 F2625 X153.318 Y181.75
G1 F600 E136.24144
G1 F900 X153.318 Y98.25 E139.05557
G1 F600 E138.05557
G0 F2625 X156.651 Y98.25
G1 F600 E139.05557
G1 F900 X156.651 Y181.75 E141.86971
G1 F600 E140.86971
G0 F2625 X159.984 Y181.75
G1 F600 E141.86971
G1 F900 X159.984 Y98.25 E144.68385
G1 F600 E143.68385
G0 F2625 X163.317 Y98.25
G1 F600 E144.68385
G1 F900 X163.317 Y181.75 E147.49799
G1 F600 E146.49799
G0 F2625 X166.65 Y181.75
G1 F600 E147.49799
G1 F900 X166.65 Y98.25 E150.31212
G1 F600 E149.31212
G0 F2625 X169.983 Y98.25
G1 F600 E150.31212
G1 F900 X169.983 Y181.75 E153.12626
G1 F600 E152.12626
G0 F2625 X179.982 Y154.75
G1 F600 E153.12626
G1 F900 X179.982 Y143.141 E153.51751
G1 F600 E152.51751
G0 F2625 X183.315 Y142.683
G1 F600 E153.51751
G1 F900 X183.315 Y154.75 E153.9242
G1 F600 E152.9242
G0 F2625 X188.5 Y149.985
G1 F600 E153.9242
G1 F900 X92.531 Y149.985 E157.15857
G1 F600 E156.15857
G0 F2625 X91.939 Y146.652
G1 F600 E157.15857
G1 F900 X188.5 Y146.652 E160.41289
G1 F600 E159.41289
G0 F2625 X188.5 Y136.653
G1 F600 E160.41289
G1 F900 X181.84 Y136.653 E160.63735
G1 F600 E159.63735
;MESH:
G0 F2625 X103.351 Y139.97
G0 X101.923 Y140.035
G0 X101.318 Y139.411
G0 X101.328 Y139.312
;TYPE:WALL-INNER
G1 F600 E160.63735
G1 F900 X101.46 Y139.341 E160.6419
G1 X101.599 Y139.401 E160.647
G1 X101.704 Y139.475 E160.65133
G1 X101.797 Y139.575 E160.65594
G1 X101.878 Y139.707 E160.66116
G1 X101.919 Y139.816 E160.66508
G1 X101.936 Y139.897 E160.66787
G1 X101.942 Y140.036 E160.67256
G1 X101.919 Y140.179 E160.67744
G1 X101.878 Y140.293 E160.68152
G1 X101.797 Y140.425 E160.68674
G1 X101.704 Y140.525 E160.69134
G1 X101.599 Y140.599 E160.69567
