;Generated by Cura LulzBot Edition GCodeWriter Version: 3.6.8
;FLAVOR:Marlin
;TIME:11168
;Filament used: 0.832778m, 3.4591m
;Layer height: 0.25
;Generated with Cura_SteamEngine 3.6.8
T0
M82 ;absolute extrusion mode
M221 S100
; This profile is designed specifically for the LulzBot TAZ Pro with Dual Extruder Tool Head
M73 P0                                    ; clear GLCD progress bar
M75			     	          ; start GLCD timer
M107                                      ; disable fans
G90                                       ; absolute positioning
M420 S0                                   ; disable previous leveling matrix
M140 S70  ; begin bed temping up
M104 S180 T0  ; soften filament
M104 S180 T1  ; soften filament
M140 S70  ; get bed heating up
G28                                       ; home
M117 Heating...                           ; LCD status message
M109 R180 T0  ; wait for temp
M109 R180 T1  ; wait for temp
T0                                        ; select this extruder first
M82                                       ; set extruder to absolute mode
G92 E0                                    ; set extruder to zero
G1 E-10 F100                              ; suck up XXmm of filament
G0 X50 F1000                              ; move over to switch extruders
T1                                        ; switch extruders
M82                                       ; set extruder to absolute mode
G92 E0                                    ; set extruder to zero
G1  E-10 F100                             ; suck up XXmm of filament
M104 S170 T0    ; set to wipe temp
M104 S170 T1    ; set to wipe temp
M106                                      ; turn on fans to speed cooling
T0                                        ; select first extruder for probing
G1 X-16 Y100 F2000                        ; move above wiper pad
M117 Cooling...                           ; LCD status message
M109 R170 T0    ; wait for T0 to reach temp
M109 R170 T1    ; wait for T1 to reach temp
M107                                      ; turn off fan
G1 Z 1.0                                 ; push nozzle into wiper
G1 X -17 Y100 F1000                       ; slow wipe
G1 X -17 Y90 F1000                        ; slow wipe
G1 X -16 Y86 F2000                        ; fast wipe
G1 X -18 Y80 F2000                        ; fast wipe
G1 X -16 Y74 F2000                        ; fast wipe
G1 X -18 Y70 F2000                        ; fast wipe
G1 X -17 Y68 F1000                        ; slow wipe
G1 X -17 Y60 F1000                        ; slow wipe
G1 X -15 Y60 F1000                        ; slow wipe
G1 X -15 Y46 F1000                        ; slow wipe
G1 X -18 Y46 F1000                        ; slow wipe
G1 X -18 Y60 F1000                        ; slow wipe
G1 X -15 Y60 F1000                        ; slow wipe
G1 X -15 Y46 F1000                        ; slow wipe
G1 X -18 Y46 F1000                        ; slow wipe
G1 X -18 Y60 F1000                        ; slow wipe
G1 X -15 Y60 F1000                        ; slow wipe
G1 X -15 Y46 F1000                        ; slow wipe
G1 X -18 Y46 F1000                        ; slow wipe
G1 X -18 Y60 F1000                        ; slow wipe
G1 X -17 Y60 F1000                        ; slow wipe
G1 X -17 Y42 F1000                        ; slow wipe
G1 X -16 Y40 F2000                        ; fast wipe
G1 X -18 Y38 F2000                        ; fast wipe
G1 X -16 Y36 F2000                        ; fast wipe
G1 X -18 Y34 F2000                        ; fast wipe
G1 X -17 Y30 F1000                        ; slow wipe
G1 X -17 Y19 F1000                        ; slow wipe
G1 X -17 Y19 Z20 F1000			  ; raise extruder
M106 S255                                 ; turn on fan to blow away fuzzies
G4 S5                                     ; wait 5 seconds
M107                                      ; turn off fan
G0 X50 F1000                              ; move over to switch extruders
T1                                        ; switch to second extruder
G1 X297.5 Y100  F5000                     ; move E2 above second wiper pad
G1 Z 1.0                                 ; push nozzle into wiper
G1 X 294.5 Y100 F1000                     ; slow wipe
G1 X 294.5 Y90 F1000                      ; slow wipe
G1 X 295.5 Y86 F2000                      ; fast wipe
G1 X 293.5 Y80 F2000                      ; fast wipe
G1 X 295.5 Y74 F2000                      ; fast wipe
G1 X 293.5 Y70 F2000                      ; fast wipe
G1 X 294.5 Y68 F1000                      ; slow wipe
G1 X 294.5 Y60 F1000                      ; slow wipe
G1 X 296 Y60 F1000                        ; slow wipe
G1 X 296 Y46 F1000                        ; slow wipe
G1 X 293 Y46 F1000                        ; slow wipe
G1 X 293 Y60 F1000                        ; slow wipe
G1 X 296 Y60 F1000                        ; slow wipe
G1 X 296 Y46 F1000                        ; slow wipe
G1 X 293 Y46 F1000                        ; slow wipe
G1 X 293 Y60 F1000                        ; slow wipe
G1 X 296 Y60 F1000                        ; slow wipe
G1 X 296 Y46 F1000                        ; slow wipe
G1 X 293 Y46 F1000                        ; slow wipe
G1 X 293 Y60 F1000                        ; slow wipe
G1 X 294.5 Y60 F1000                      ; slow wipe
G1 X 294.5 Y42 F1000                      ; slow wipe
G1 X 295.5 Y40 F2000                      ; fast wipe
G1 X 293.5 Y38 F2000                      ; fast wipe
G1 X 295.5 Y36 F2000                      ; fast wipe
G1 X 293.5 Y34 F2000                      ; fast wipe
G1 X 295.5 Y30 F1000                      ; slow wipe
G1 X 294.5 Y19 F1000                      ; slow wipe
G1 X 294.5 Y19 Z20 F1000                  ; raise extruder
M106 S255                                 ; turn on fan to blow away fuzzies
G4 S5                                     ; wait 5 seconds
M107                                      ; turn off fan
G0 X247 F1000                             ; move over to switch extruders
T0                                        ; switch to first extruder
M109 R160      ; heat to probe temp
M204 S100                                 ; set accel for probing
G29                                       ; probe sequence (for auto-leveling)
M420 S1                                   ; enable leveling matrix
M204 S500                                 ; set accel back to normal
M104 S215  T0  ; set extruder temp
M104 S215  T1  ; set extruder temp
G1 X100 Y-29 Z0.5 F3000                   ; move to open space
M400                                      ; clear buffer
M117 Heating...                           ; LCD status message
M109 R215  T0  ; set extruder temp and wait
M109 R215  T1  ; set extruder temp and wait
M117 Purging...                           ; LCD status message
T0                                        ; select this extruder first
G1 E0 F100		    	          ; undo retraction
G92 E-30				  ; set extruder negative amount to purge
G1 E0 F100				  ; purge XXmm of filament
G1 E-3 F200                               ; purge retraction
G1 Z0.45                                   ; clear bed (barely)
G1 X100 Y10 F4000                         ; move above bed to shear off filament
G1 X180 Y-29 Z0.45 F3000                   ; move to open space
T1                                        ; set extruder
G1  E0 F100                               ; undo retraction
G92 E-30                                  ; set extruder negative amount to purge
G1 E0 F100                                ; purge XXmm of filament
G1 E-3 F200                               ; purge retraction
G1 Z0.45                                   ; clear bed (barely)
G1 X180 Y10 F4000                         ; move above bed to shear off filament
T0                                        : set extruder
M190 S70  ; get bed temping up during first layer
G1 Z2 E0 F75                              ; raise head and 0 extruder
M82					  ; set to absolute mode
M400                                      ; clear buffer
M117 TAZ Printing...                      ; LCD status message

G92 E0
G1 F900 E-1
;LAYER_COUNT:152
;LAYER:0
M107
M104 T1 S160
G0 F4200 X98.145 Y103.619 Z0.4
;TYPE:SKIRT
G1 F900 E0
G1 F600 X103.457 Y103.543 E0.16655
G1 X108.592 Y103.192 E0.32792
G1 X108.987 Y103.179 E0.34031
G1 X116.497 Y103.181 E0.57575
G1 X117.112 Y103.214 E0.59506
G1 X123.825 Y103.938 E0.80674
G1 X129.209 Y104.186 E0.97571
G1 X129.884 Y104.257 E0.99699
G1 X130.545 Y104.407 E1.01824
G1 X131.184 Y104.634 E1.0395
G1 X131.791 Y104.934 E1.06073
G1 X132.36 Y105.304 E1.08201
G1 X132.88 Y105.738 E1.10324
G1 X133.503 Y106.425 E1.13232
G1 X136.37 Y110.154 E1.27978
G1 X139.851 Y114.222 E1.44764
G1 X143.406 Y117.943 E1.60898
G1 X143.845 Y118.46 E1.63024
G1 X144.205 Y118.999 E1.65056
G1 X150.898 Y130.375 E2.06436
G1 X151.207 Y130.979 E2.08563
G1 X151.442 Y131.614 E2.10685
G1 X151.601 Y132.274 E2.12814
G1 X151.682 Y132.947 E2.14939
G1 X151.692 Y133.291 E2.16018
G1 X151.689 Y172.583 E3.39202
G1 X151.649 Y173.26 E3.41328
G1 X151.53 Y173.928 E3.43455
G1 X151.332 Y174.576 E3.4558
G1 X151.06 Y175.197 E3.47705
G1 X150.889 Y175.509 E3.4882
G1 X145.374 Y184.837 E3.82793
G1 X144.995 Y185.4 E3.84921
G1 X144.34 Y186.121 E3.87975
G1 X141.084 Y189.15 E4.01917
G1 X137.356 Y192.977 E4.18667
G1 X133.302 Y197.663 E4.38093
G1 X132.829 Y198.149 E4.40219
G1 X132.302 Y198.575 E4.42343
G1 X131.728 Y198.937 E4.44471
G1 X131.116 Y199.229 E4.46597
G1 X130.474 Y199.446 E4.48721
G1 X129.811 Y199.587 E4.50846
G1 X129.192 Y199.646 E4.52796
G1 X125.381 Y199.805 E4.64754
G1 X119.997 Y200.267 E4.81695
G1 X117.309 Y200.614 E4.90192
G1 X116.551 Y200.661 E4.92573
G1 X108.555 Y200.631 E5.17642
G1 X108.186 Y200.618 E5.18799
G1 X103.472 Y200.297 E5.33612
G1 X98.16 Y200.221 E5.50268
G1 X92.755 Y200.452 E5.67228
G1 X90.076 Y200.654 E5.75651
G1 X89.633 Y200.67 E5.77041
G1 X84.235 Y200.66 E5.93964
G1 X83.567 Y200.62 E5.96062
G1 X79.229 Y200.104 E6.09758
G1 X73.858 Y199.729 E6.26637
G1 X71.41 Y199.659 E6.34315
G1 X70.735 Y199.599 E6.3644
G1 X70.071 Y199.461 E6.38566
G1 X69.428 Y199.246 E6.40692
G1 X68.815 Y198.956 E6.42818
G1 X68.025 Y198.435 E6.45784
G1 X62.897 Y194.412 E6.66218
G1 X62.632 Y194.191 E6.673
G1 X61.055 Y192.793 E6.73907
G1 X60.77 Y192.523 E6.75138
G1 X57.852 Y189.557 E6.88182
G1 X57.573 Y189.251 E6.8948
G1 X55.496 Y186.811 E6.99526
G1 X55.317 Y186.591 E7.00415
G1 X54.057 Y184.954 E7.06892
G1 X53.832 Y184.64 E7.08103
G1 X51.526 Y181.186 E7.21123
G1 X51.337 Y180.884 E7.2224
G1 X50.713 Y179.811 E7.26131
G1 X50.408 Y179.206 E7.28255
G1 X50.175 Y178.569 E7.30382
G1 X50.02 Y177.909 E7.32507
G1 X49.943 Y177.235 E7.34634
G1 X49.945 Y176.557 E7.3676
G1 X50.072 Y175.668 E7.39575
G1 X51.476 Y169.375 E7.59789
G1 X51.911 Y166.868 E7.67766
G1 X52.611 Y161.537 E7.84623
G1 X53.005 Y156.225 E8.01322
G1 X53.098 Y150.901 E8.18016
G1 X52.889 Y145.563 E8.34764
G1 X52.379 Y140.246 E8.5151
G1 X51.578 Y135.022 E8.68079
G1 X50.071 Y128.17 E8.90074
G1 X49.965 Y127.5 E8.92201
G1 X49.938 Y126.823 E8.94325
G1 X49.991 Y126.147 E8.96451
G1 X50.124 Y125.482 E8.98577
G1 X50.333 Y124.837 E9.00703
G1 X50.771 Y123.952 E9.03798
G1 X52.288 Y121.452 E9.12966
G1 X52.504 Y121.122 E9.14203
G1 X54.325 Y118.539 E9.24111
G1 X54.495 Y118.311 E9.25002
G1 X55.805 Y116.635 E9.31671
G1 X56.056 Y116.335 E9.32898
G1 X58.839 Y113.235 E9.45958
G1 X59.066 Y112.996 E9.46992
G1 X60.555 Y111.517 E9.53571
G1 X60.792 Y111.295 E9.54589
G1 X63.154 Y109.2 E9.64488
G1 X63.438 Y108.964 E9.65645
G1 X68.018 Y105.401 E9.83837
G1 X68.577 Y105.017 E9.85963
G1 X69.177 Y104.701 E9.88089
G1 X69.81 Y104.458 E9.90215
G1 X70.467 Y104.292 E9.9234
G1 X71.368 Y104.192 E9.95182
G1 X74.371 Y104.097 E10.04601
G1 X79.794 Y103.688 E10.21651
G1 X83.899 Y103.209 E10.34608
G1 X84.576 Y103.17 E10.36734
G1 X89.976 Y103.18 E10.53663
G1 X90.437 Y103.199 E10.5511
G1 X92.768 Y103.391 E10.62442
G1 X98.145 Y103.619 E10.79315
G0 F4200 X98.131 Y104.119
M104 T1 S220
G1 F600 X103.481 Y104.043 E10.96089
G1 X108.627 Y103.691 E11.1226
G1 X108.986 Y103.679 E11.13386
G1 X116.496 Y103.681 E11.36931
G1 X117.058 Y103.711 E11.38695
G1 X123.797 Y104.438 E11.59945
G1 X129.186 Y104.686 E11.76858
G1 X129.83 Y104.755 E11.78889
G1 X130.461 Y104.904 E11.80922
G1 X131.068 Y105.129 E11.82951
G1 X131.643 Y105.427 E11.84981
G1 X132.178 Y105.793 E11.87014
G1 X132.662 Y106.223 E11.89043
G1 X133.107 Y106.73 E11.91158
G1 X135.984 Y110.471 E12.05954
G1 X139.472 Y114.548 E12.22775
G1 X143.045 Y118.288 E12.38991
G1 X143.463 Y118.783 E12.41022
G1 X143.774 Y119.253 E12.42789
G1 X150.467 Y130.629 E12.84169
G1 X150.76 Y131.206 E12.86198
G1 X150.98 Y131.816 E12.88231
G1 X151.124 Y132.447 E12.9026
G1 X151.192 Y133.291 E12.92914
G1 X151.189 Y172.583 E14.16098
G1 X151.149 Y173.23 E14.18131
G1 X151.03 Y173.867 E14.20162
G1 X150.833 Y174.484 E14.22193
G1 X150.458 Y175.255 E14.24881
G1 X144.943 Y184.583 E14.58854
G1 X144.58 Y185.119 E14.60883
G1 X144 Y185.755 E14.63582
G1 X140.728 Y188.798 E14.7759
G1 X136.98 Y192.646 E14.94431
G1 X132.923 Y197.336 E15.13872
G1 X132.47 Y197.799 E15.15903
G1 X131.964 Y198.202 E15.17931
G1 X131.411 Y198.54 E15.19963
G1 X130.821 Y198.807 E15.21993
G1 X130.202 Y199 E15.24026
G1 X129.565 Y199.115 E15.26055
G1 X129.171 Y199.146 E15.27294
G1 X125.363 Y199.305 E15.39243
G1 X119.938 Y199.77 E15.56314
G1 X117.245 Y200.118 E15.64827
G1 X116.553 Y200.161 E15.67
G1 X108.557 Y200.131 E15.92069
G1 X108.22 Y200.119 E15.93126
G1 X103.494 Y199.797 E16.07977
G1 X98.146 Y199.721 E16.24745
G1 X92.727 Y199.952 E16.41749
G1 X90.039 Y200.155 E16.502
G1 X89.634 Y200.17 E16.51471
G1 X84.236 Y200.16 E16.68394
G1 X83.626 Y200.123 E16.7031
G1 X79.281 Y199.606 E16.84028
G1 X73.883 Y199.229 E17.00993
G1 X71.424 Y199.159 E17.08705
G1 X70.779 Y199.1 E17.10736
G1 X70.146 Y198.963 E17.12766
G1 X69.535 Y198.749 E17.14796
G1 X68.955 Y198.461 E17.16826
G1 X68.333 Y198.042 E17.19177
G1 X63.205 Y194.019 E17.39611
G1 X62.963 Y193.817 E17.40599
G1 X61.386 Y192.419 E17.47206
G1 X61.127 Y192.172 E17.48328
G1 X58.209 Y189.206 E17.61372
G1 X57.953 Y188.927 E17.6256
G1 X55.876 Y186.487 E17.72605
G1 X55.714 Y186.286 E17.73415
G1 X54.454 Y184.649 E17.79891
G1 X54.248 Y184.362 E17.80999
G1 X51.942 Y180.908 E17.94019
G1 X51.77 Y180.632 E17.95038
G1 X51.146 Y179.559 E17.9893
G1 X50.855 Y178.98 E18.00961
G1 X50.638 Y178.37 E18.02991
G1 X50.498 Y177.738 E18.05021
G1 X50.437 Y177.093 E18.07052
G1 X50.456 Y176.445 E18.09084
G1 X50.56 Y175.777 E18.11204
G1 X51.963 Y169.488 E18.31405
G1 X52.409 Y166.921 E18.39573
G1 X53.107 Y161.603 E18.56389
G1 X53.505 Y156.235 E18.73264
G1 X53.598 Y150.89 E18.90024
G1 X53.389 Y145.531 E19.06837
G1 X52.877 Y140.193 E19.23649
G1 X52.069 Y134.93 E19.40343
G1 X50.559 Y128.062 E19.62389
G1 X50.46 Y127.422 E19.64419
G1 X50.439 Y126.775 E19.66448
G1 X50.499 Y126.13 E19.68479
G1 X50.638 Y125.497 E19.70511
G1 X50.853 Y124.886 E19.72542
G1 X51.199 Y124.211 E19.7492
G1 X52.716 Y121.711 E19.84088
G1 X52.913 Y121.41 E19.85215
G1 X54.734 Y118.827 E19.95123
G1 X54.889 Y118.619 E19.95937
G1 X56.199 Y116.943 E20.02606
G1 X56.428 Y116.669 E20.03725
G1 X59.211 Y113.569 E20.16786
G1 X59.418 Y113.351 E20.17728
G1 X60.907 Y111.872 E20.24308
G1 X61.123 Y111.669 E20.25237
G1 X63.485 Y109.574 E20.35136
G1 X63.745 Y109.358 E20.36195
G1 X68.325 Y105.795 E20.54387
G1 X68.86 Y105.43 E20.56418
G1 X69.436 Y105.133 E20.58449
G1 X70.044 Y104.909 E20.60481
G1 X70.675 Y104.762 E20.62512
G1 X71.384 Y104.692 E20.64746
G1 X74.402 Y104.597 E20.74212
G1 X79.816 Y104.188 E20.91234
G1 X83.957 Y103.705 E21.04304
G1 X84.575 Y103.67 E21.06245
G1 X89.975 Y103.68 E21.23174
G1 X90.396 Y103.698 E21.24495
G1 X92.73 Y103.89 E21.31837
G1 X98.131 Y104.119 E21.48785
G1 F900 E20.48785
G1 F180 Z1.4
G0 F4200 X124.202 Y113.708 Z1.4
M104 S215
;TYPE:SUPPORT
G1 F180 Z0.4
G1 F900 E21.48785
G1 F600 X124.251 Y113.599 E21.4916
G1 X124.311 Y113.512 E21.49491
G1 X124.389 Y113.432 E21.49842
G1 X124.48 Y113.366 E21.50194
G1 X124.583 Y113.317 E21.50552
G1 X124.692 Y113.286 E21.50907
G1 X124.805 Y113.276 E21.51263
G1 X124.914 Y113.283 E21.51605
G1 X125.024 Y113.312 E21.51962
G1 X125.131 Y113.36 E21.52329
