;Generated by Cura LulzBot Edition GCodeWriter Version: 3.6.8
;FLAVOR:Marlin
;TIME:8442
;Filament used: 4.23849m
;Layer height: 0.25
;Generated with Cura_SteamEngine 3.6.8
M82 ;absolute extrusion mode
M221 S100
;This G-Code has been generated specifically for the LulzBot TAZ 6 with Aerosturder
M73 P0 ; clear GLCD progress bar
M75 ; start GLCD timer
G26 ; clear potential 'probe fail' condition
M107 ; disable fans
M420 S0 ; disable leveling matrix
G90 ; absolute positioning
M82 ; set extruder to absolute mode
G92 E0 ; set extruder position to 0
M140 S60 ; start bed heating up
G28 XY ; home X and Y
G1 X-19 Y258 F1000 ; move to safe homing position
M109 R140 ; soften filament before homing Z
G28 Z ; home Z
G1 E-15 F100 ; retract filament
M109 R140 ; wait for extruder to reach wiping temp
G1 X-15 Y100 F3000 ; move above wiper pad
G1 Z1 ; push nozzle into wiper
G1 X-17 Y95 F1000 ; slow wipe
G1 X-17 Y90 F1000 ; slow wipe
G1 X-17 Y85 F1000 ; slow wipe
G1 X-15 Y90 F1000 ; slow wipe
G1 X-17 Y80 F1000 ; slow wipe
G1 X-15 Y95 F1000 ; slow wipe
G1 X-17 Y75 F2000 ; fast wipe
G1 X-15 Y65 F2000 ; fast wipe
G1 X-17 Y70 F2000 ; fast wipe
G1 X-15 Y60 F2000 ; fast wipe
G1 X-17 Y55 F2000 ; fast wipe
G1 X-15 Y50 F2000 ; fast wipe
G1 X-17 Y40 F2000 ; fast wipe
G1 X-15 Y45 F2000 ; fast wipe
G1 X-17 Y35 F2000 ; fast wipe
G1 X-15 Y40 F2000 ; fast wipe
G1 X-17 Y70 F2000 ; fast wipe
G1 X-15 Y30 Z2 F2000 ; fast wipe
G1 X-17 Y35 F2000 ; fast wipe
G1 X-15 Y25 F2000 ; fast wipe
G1 X-17 Y30 F2000 ; fast wipe
G1 X-15 Y25 Z1.5 F1000 ; slow wipe
G1 X-17 Y23 F1000 ; slow wipe
G1 Z10 ; raise extruder
M109 R140 ; wait for extruder to reach probe temp
G1 X-9 Y-9 ; move above first probe point
M204 S100 ; set probing acceleration
G29 ; start auto-leveling sequence
M420 S1              ; enable leveling matrix
M425 Z			     ; use measured Z backlash for compensation
M425 Z F0		     ; turn off measured Z backlash compensation. (if activated in the quality settings, this command will automatically be ignored)
M204 S500 ; restore standard acceleration
G1 X0 Y0 Z15 F5000 ; move up off last probe point
G4 S1 ; pause
M400 ; wait for moves to finish
M117 Heating... ; progress indicator message on LCD
M109 R215 ; wait for extruder to reach printing temp
M190 S60 ; wait for bed to reach printing temp
G1 Z2 E0 F75 ; prime tiny bit of filament into the nozzle
M117 TAZ 6 Printing... ; progress indicator message on LCD


G92 E0
G1 F600 E-1
;LAYER_COUNT:152
;LAYER:0
M107
G0 F2625 X67.045 Y106.687 Z0.425
;TYPE:SKIRT
G1 F600 E0
G1 F900 X67.51 Y106.478 E0.01698
G1 X68.002 Y106.345 E0.03396
G1 X68.606 Y106.288 E0.05417
G1 X133.007 Y106.289 E2.19939
G1 X133.515 Y106.329 E2.21636
G1 X134.01 Y106.448 E2.23332
G1 X134.481 Y106.643 E2.2503
G1 X134.916 Y106.909 E2.26729
G1 X135.303 Y107.239 E2.28423
G1 X135.61 Y107.593 E2.29984
G1 X136.785 Y109.165 E2.36521
G1 X140.232 Y113.431 E2.5479
G1 X143.935 Y117.52 E2.73166
G1 X145.637 Y119.254 E2.8126
G1 X145.965 Y119.645 E2.8296
G1 X146.115 Y119.877 E2.8388
G1 X152.79 Y131.163 E3.27557
G1 X153.015 Y131.62 E3.29254
G1 X153.164 Y132.107 E3.3095
G1 X153.243 Y132.817 E3.3333
G1 X153.244 Y172.184 E4.64463
G1 X153.204 Y172.692 E4.6616
G1 X153.085 Y173.187 E4.67856
G1 X152.792 Y173.838 E4.70234
G1 X147.275 Y183.168 E5.0634
G1 X146.982 Y183.585 E5.08037
G1 X146.722 Y183.864 E5.09308
G1 X141.434 Y188.918 E5.33673
G1 X137.731 Y192.94 E5.51884
G1 X135.483 Y195.606 E5.63501
G1 X135.125 Y195.969 E5.65199
G1 X134.714 Y196.271 E5.66898
G1 X134.262 Y196.505 E5.68593
G1 X133.778 Y196.666 E5.70292
G1 X133.276 Y196.749 E5.71987
G1 X132.998 Y196.761 E5.72914
G1 X68.63 Y196.76 E7.87326
G1 X68.122 Y196.72 E7.89024
G1 X67.627 Y196.601 E7.90719
G1 X67.156 Y196.406 E7.92417
G1 X66.624 Y196.067 E7.94519
G1 X61.496 Y192.045 E8.16227
G1 X61.346 Y191.92 E8.16878
G1 X59.769 Y190.522 E8.23898
G1 X59.608 Y190.369 E8.24638
G1 X56.69 Y187.403 E8.38497
G1 X56.532 Y187.231 E8.39275
G1 X54.455 Y184.791 E8.49949
G1 X54.355 Y184.666 E8.50482
G1 X53.095 Y183.029 E8.57363
G1 X52.967 Y182.852 E8.58091
G1 X50.661 Y179.398 E8.71925
G1 X50.555 Y179.227 E8.72595
G1 X49.931 Y178.154 E8.7673
G1 X49.71 Y177.695 E8.78427
G1 X49.563 Y177.207 E8.80124
G1 X49.495 Y176.702 E8.81822
G1 X49.507 Y176.192 E8.83521
G1 X49.568 Y175.812 E8.84803
G1 X50.985 Y169.462 E9.06475
G1 X51.441 Y166.838 E9.15347
G1 X52.155 Y161.398 E9.33623
G1 X52.558 Y155.947 E9.5183
G1 X52.654 Y150.465 E9.70094
G1 X52.44 Y144.985 E9.88362
G1 X51.918 Y139.546 E10.06562
G1 X51.091 Y134.157 E10.24724
G1 X49.569 Y127.233 E10.48338
G1 X49.499 Y126.728 E10.50037
G1 X49.508 Y126.219 E10.51732
G1 X49.598 Y125.717 E10.53431
G1 X49.764 Y125.236 E10.55126
G1 X49.965 Y124.849 E10.56579
G1 X51.482 Y122.349 E10.6632
G1 X51.579 Y122.197 E10.6692
G1 X52.804 Y120.41 E10.74137
G1 X52.936 Y120.232 E10.74875
G1 X55.516 Y116.969 E10.88732
G1 X55.635 Y116.827 E10.89349
G1 X57.025 Y115.262 E10.96321
G1 X57.177 Y115.102 E10.97056
G1 X60.143 Y112.188 E11.10907
G1 X60.313 Y112.032 E11.11675
G1 X62.704 Y109.995 E11.22138
G1 X62.825 Y109.897 E11.22657
G1 X66.619 Y106.966 E11.38627
G1 X67.045 Y106.687 E11.40323
G1 F600 E10.40323
;MESH:
G0 F2625 X67.998 Y109.156
G0 X68.876 Y110.288
G0 X64.481 Y114.972
G0 X64.237 Y115.328
G0 X64.012 Y115.974
G0 X63.907 Y116.978
G0 X64.007 Y116.968
;TYPE:WALL-INNER
G1 F600 E11.40323
G1 F900 X64.122 Y117.37 E11.41716
G1 X64.302 Y117.746 E11.43104
G1 X64.546 Y118.086 E11.44498
G1 X64.846 Y118.378 E11.45893
G1 X65.191 Y118.615 E11.47287
G1 X65.575 Y118.787 E11.48689
G1 X65.98 Y118.89 E11.50081
G1 X66.396 Y118.921 E11.5147
G1 X66.814 Y118.88 E11.52869
G1 X67.216 Y118.766 E11.54261
G1 X67.593 Y118.585 E11.55654
G1 X67.933 Y118.341 E11.57048
G1 X68.225 Y118.041 E11.58443
G1 X68.462 Y117.696 E11.59837
G1 X68.634 Y117.314 E11.61232
G1 X68.737 Y116.908 E11.62628
G1 X68.768 Y116.491 E11.64021
G1 X68.727 Y116.074 E11.65416
G1 X68.613 Y115.671 E11.66811
G1 X68.431 Y115.293 E11.68209
G1 X68.188 Y114.956 E11.69593
G1 X67.889 Y114.662 E11.7099
G1 X67.541 Y114.425 E11.72392
G1 X67.16 Y114.255 E11.73782
G1 X66.757 Y114.15 E11.75169
G1 X66.338 Y114.119 E11.76569
G1 X65.92 Y114.16 E11.77968
G1 X65.518 Y114.275 E11.7936
G1 X65.141 Y114.455 E11.80752
G1 X64.8 Y114.7 E11.82151
G1 X64.509 Y115 E11.83543
G1 X64.272 Y115.345 E11.84937
G1 X64.101 Y115.727 E11.86331
G1 X63.997 Y116.131 E11.87721
G1 X63.966 Y116.549 E11.89117
G1 X64.007 Y116.968 E11.90519
G0 F2625 X63.907 Y116.978
G0 X63.091 Y127.026
G0 X63.249 Y127.865
G0 X63.599 Y128.455
G0 X64.299 Y129.176
G0 X64.355 Y129.095
G1 F900 X64.739 Y129.267 E11.91921
G1 X65.144 Y129.37 E11.93313
G1 X65.56 Y129.401 E11.94703
G1 X65.978 Y129.36 E11.96102
G1 X66.381 Y129.246 E11.97497
G1 X66.757 Y129.064 E11.98888
G1 X67.097 Y128.821 E12.0028
G1 X67.389 Y128.521 E12.01675
G1 X67.626 Y128.176 E12.03069
G1 X67.798 Y127.794 E12.04465
G1 X67.901 Y127.388 E12.0586
G1 X67.932 Y126.971 E12.07253
G1 X67.891 Y126.554 E12.08648
G1 X67.777 Y126.151 E12.10044
G1 X67.595 Y125.773 E12.11441
G1 X67.352 Y125.436 E12.12825
G1 X67.053 Y125.142 E12.14222
G1 X66.705 Y124.905 E12.15624
G1 X66.325 Y124.735 E12.17011
G1 X65.921 Y124.63 E12.18401
G1 X65.502 Y124.599 E12.19801
G1 X65.084 Y124.64 E12.212
G1 X64.682 Y124.755 E12.22593
G1 X64.305 Y124.935 E12.23984
G1 X63.965 Y125.18 E12.2538
G1 X63.673 Y125.48 E12.26775
G1 X63.436 Y125.825 E12.28169
G1 X63.265 Y126.207 E12.29563
G1 X63.253 Y126.252 E12.29718
G1 X63.161 Y126.611 E12.30953
G1 X63.13 Y127.029 E12.32349
G1 X63.171 Y127.448 E12.33751
G1 X63.253 Y127.735 E12.34746
G1 X63.286 Y127.85 E12.35144
G1 X63.466 Y128.226 E12.36533
G1 X63.711 Y128.567 E12.37931
G1 X64.011 Y128.858 E12.39324
G1 X64.355 Y129.095 E12.40715
G0 F2625 X64.299 Y129.176
G0 X63.829 Y131.288
G0 X63.91 Y131.344
G1 F900 X63.738 Y131.728 E12.42117
G1 X63.635 Y132.133 E12.43509
G1 X63.604 Y132.549 E12.44898
G1 X63.645 Y132.967 E12.46297
G1 X63.759 Y133.37 E12.47692
G1 X63.941 Y133.746 E12.49084
G1 X64.184 Y134.086 E12.50476
G1 X64.484 Y134.378 E12.5187
G1 X64.829 Y134.615 E12.53265
G1 X65.212 Y134.787 E12.54663
G1 X65.617 Y134.89 E12.56055
G1 X66.034 Y134.921 E12.57448
G1 X66.451 Y134.88 E12.58844
G1 X66.854 Y134.766 E12.60239
G1 X67.231 Y134.585 E12.61632
G1 X67.571 Y134.341 E12.63026
G1 X67.863 Y134.041 E12.64421
G1 X68.1 Y133.694 E12.6582
G1 X68.27 Y133.314 E12.67207
G1 X68.375 Y132.91 E12.68597
G1 X68.406 Y132.491 E12.69997
G1 X68.365 Y132.073 E12.71396
G1 X68.25 Y131.671 E12.72789
G1 X68.07 Y131.294 E12.7418
G1 X67.826 Y130.956 E12.75569
G1 X67.527 Y130.662 E12.76966
G1 X67.179 Y130.425 E12.78368
G1 X66.798 Y130.254 E12.79759
G1 X66.394 Y130.15 E12.81149
G1 X65.976 Y130.119 E12.82545
G1 X65.557 Y130.16 E12.83948
G1 X65.156 Y130.275 E12.85337
G1 X64.779 Y130.455 E12.86729
G1 X64.438 Y130.7 E12.88127
G1 X64.147 Y131 E12.8952
G1 X63.91 Y131.344 E12.90911
G0 F2625 X63.829 Y131.288
G0 X63.595 Y132.128
G0 X63.823 Y159.195
G0 X63.91 Y159.244
G1 F900 X63.738 Y159.628 E12.92313
G1 X63.635 Y160.033 E12.93705
G1 X63.604 Y160.449 E12.95094
G1 X63.645 Y160.867 E12.96493
G1 X63.759 Y161.27 E12.97888
G1 X63.941 Y161.646 E12.9928
G1 X64.184 Y161.986 E13.00672
G1 X64.484 Y162.278 E13.02066
G1 X64.829 Y162.515 E13.03461
G1 X65.212 Y162.687 E13.04859
G1 X65.617 Y162.79 E13.06251
G1 X66.034 Y162.821 E13.07644
G1 X66.451 Y162.78 E13.0904
G1 X66.854 Y162.666 E13.10435
G1 X67.231 Y162.485 E13.11828
G1 X67.571 Y162.241 E13.13222
G1 X67.863 Y161.941 E13.14617
G1 X68.1 Y161.594 E13.16016
G1 X68.27 Y161.214 E13.17403
G1 X68.375 Y160.81 E13.18793
G1 X68.406 Y160.391 E13.20193
G1 X68.365 Y159.973 E13.21592
G1 X68.25 Y159.571 E13.22985
G1 X68.07 Y159.194 E13.24376
G1 X67.826 Y158.856 E13.25765
G1 X67.527 Y158.562 E13.27162
G1 X67.179 Y158.325 E13.28564
G1 X66.798 Y158.154 E13.29955
G1 X66.394 Y158.05 E13.31345
G1 X65.976 Y158.019 E13.32741
G1 X65.557 Y158.06 E13.34144
G1 X65.156 Y158.175 E13.35533
G1 X64.779 Y158.355 E13.36925
G1 X64.438 Y158.6 E13.38323
G1 X64.147 Y158.9 E13.39716
G1 X63.91 Y159.244 E13.41107
G0 F2625 X63.823 Y159.195
G0 X64.41 Y158.571
G0 X65.146 Y158.136
G0 X65.979 Y157.98
G0 X66.811 Y158.117
G0 X67.555 Y158.535
G0 X72.89 Y163.271
G0 X73.58 Y163.674
G0 X74.217 Y163.786
G0 X75.164 Y163.734
G0 X75.138 Y163.638
G1 F900 X75.495 Y163.47 E13.42421
G1 X75.815 Y163.245 E13.43724
G1 X76.092 Y162.968 E13.45029
G1 X76.317 Y162.648 E13.46332
G1 X76.485 Y162.291 E13.47647
G1 X76.585 Y161.911 E13.48955
G1 X76.617 Y161.553 E13.50153
G1 X76.617 Y141.487 E14.16993
G1 X76.585 Y141.131 E14.18184
G1 X76.485 Y140.75 E14.19496
G1 X76.317 Y140.392 E14.20813
G1 X76.092 Y140.072 E14.22116
G1 X75.815 Y139.794 E14.23424
G1 X75.493 Y139.569 E14.24732
G1 X75.138 Y139.403 E14.26038
G1 X74.76 Y139.302 E14.27341
G1 X74.367 Y139.267 E14.28655
G1 X73.976 Y139.302 E14.29963
G1 X73.596 Y139.403 E14.31273
G1 X73.241 Y139.569 E14.32578
G1 X72.919 Y139.794 E14.33886
G1 X72.641 Y140.072 E14.35196
G1 X72.416 Y140.394 E14.36505
G1 X72.25 Y140.749 E14.3781
G1 X72.149 Y141.129 E14.3912
G1 X72.117 Y141.487 E14.40317
G1 X72.117 Y161.553 E15.07158
G1 X72.149 Y161.913 E15.08361
G1 X72.25 Y162.291 E15.09665
G1 X72.416 Y162.646 E15.1097
G1 X72.641 Y162.968 E15.12279
G1 X72.919 Y163.245 E15.13586
G1 X73.239 Y163.47 E15.14889
G1 X73.597 Y163.638 E15.16206
G1 X73.977 Y163.738 E15.17515
G1 X74.367 Y163.773 E15.18819
G1 X74.758 Y163.738 E15.20127
G1 X75.138 Y163.638 E15.21436
G0 F2625 X75.164 Y163.734
G0 X67.66 Y177.195
G0 X67.123 Y177.852
G0 X66.397 Y178.282
G0 X65.558 Y178.44
G0 X65.087 Y178.364
G0 X64.299 Y178.176
G0 X64.355 Y178.095
G1 F900 X64.739 Y178.267 E15.22838
G1 X65.144 Y178.37 E15.2423
G1 X65.56 Y178.401 E15.25619
G1 X65.978 Y178.36 E15.27018
G1 X66.381 Y178.246 E15.28413
G1 X66.757 Y178.064 E15.29805
G1 X67.097 Y177.821 E15.31197
G1 X67.389 Y177.521 E15.32591
G1 X67.626 Y177.176 E15.33986
G1 X67.798 Y176.794 E15.35381
G1 X67.901 Y176.388 E15.36776
G1 X67.932 Y175.971 E15.38169
G1 X67.891 Y175.554 E15.39565
G1 X67.777 Y175.151 E15.4096
G1 X67.595 Y174.773 E15.42358
G1 X67.352 Y174.436 E15.43741
G1 X67.053 Y174.142 E15.45138
G1 X66.705 Y173.905 E15.46541
G1 X66.325 Y173.735 E15.47927
G1 X65.921 Y173.63 E15.49318
G1 X65.502 Y173.599 E15.50717
G1 X65.084 Y173.64 E15.52116
G1 X64.682 Y173.755 E15.53509
G1 X64.305 Y173.935 E15.54901
G1 X63.965 Y174.18 E15.56297
G1 X63.673 Y174.48 E15.57691
G1 X63.436 Y174.825 E15.59086
G1 X63.265 Y175.207 E15.6048
G1 X63.253 Y175.252 E15.60635
G1 X63.161 Y175.611 E15.61869
G1 X63.13 Y176.029 E15.63266
G1 X63.171 Y176.448 E15.64668
G1 X63.253 Y176.735 E15.65662
G1 X63.286 Y176.85 E15.66061
G1 X63.466 Y177.226 E15.67449
G1 X63.711 Y177.567 E15.68848
G1 X64.011 Y177.858 E15.7024
G1 X64.355 Y178.095 E15.71632
G0 F2625 X64.299 Y178.176
G0 X64.907 Y187.978
G0 X65.007 Y187.968
G1 F900 X65.122 Y188.37 E15.73024
G1 X65.302 Y188.746 E15.74413
G1 X65.546 Y189.086 E15.75807
G1 X65.846 Y189.378 E15.77202
G1 X66.191 Y189.615 E15.78596
G1 X66.575 Y189.787 E15.79997
G1 X66.98 Y189.89 E15.81389
G1 X67.396 Y189.921 E15.82779
G1 X67.814 Y189.88 E15.84178
G1 X68.216 Y189.766 E15.8557
G1 X68.593 Y189.585 E15.86963
G1 X68.933 Y189.341 E15.88357
G1 X69.225 Y189.041 E15.89751
G1 X69.462 Y188.696 E15.91146
G1 X69.634 Y188.314 E15.92541
G1 X69.737 Y187.908 E15.93936
G1 X69.768 Y187.491 E15.95329
G1 X69.727 Y187.074 E15.96725
G1 X69.613 Y186.671 E15.9812
G1 X69.431 Y186.293 E15.99518
G1 X69.188 Y185.956 E16.00902
G1 X68.889 Y185.662 E16.02298
G1 X68.541 Y185.425 E16.03701
G1 X68.16 Y185.255 E16.05091
G1 X67.757 Y185.15 E16.06478
G1 X67.338 Y185.119 E16.07877
G1 X66.92 Y185.16 E16.09276
G1 X66.518 Y185.275 E16.10669
G1 X66.141 Y185.455 E16.12061
G1 X65.8 Y185.7 E16.13459
G1 X65.509 Y186 E16.14852
G1 X65.272 Y186.345 E16.16246
G1 X65.101 Y186.727 E16.1764
G1 X64.997 Y187.131 E16.1903
G1 X64.966 Y187.549 E16.20426
G1 X65.007 Y187.968 E16.21828
G0 F2625 X64.907 Y187.978
G0 X64.957 Y187.126
G0 X65.237 Y186.328
G0 X70.881 Y173.875
G0 X71.396 Y173.263
G0 X72.079 Y172.867
G0 X72.833 Y172.731
G0 X82.135 Y172.74
G0 X103.458 Y157.724
G0 X103.389 Y157.652
G1 F900 X103.881 Y157.167 E16.24129
G1 X104.333 Y156.646 E16.26427
G1 X104.74 Y156.086 E16.28733
G1 X105.096 Y155.495 E16.31031
G1 X105.405 Y154.877 E16.33333
G1 X105.659 Y154.233 E16.35639
G1 X105.858 Y153.572 E16.37938
G1 X106.002 Y152.897 E16.40237
G1 X106.089 Y152.211 E16.42541
G1 X106.117 Y151.52 E16.44844
G1 X106.089 Y150.83 E16.47145
G1 X106.002 Y150.143 E16.49451
G1 X105.858 Y149.468 E16.5175
G1 X105.659 Y148.808 E16.54047
G1 X105.405 Y148.164 E16.56353
G1 X105.096 Y147.544 E16.5866
G1 X104.739 Y146.955 E16.60954
G1 X104.333 Y146.396 E16.63256
G1 X103.881 Y145.873 E16.65558
G1 X103.389 Y145.389 E16.67857
G1 X102.855 Y144.948 E16.70164
G1 X102.288 Y144.554 E16.72464
G1 X101.69 Y144.209 E16.74764
G1 X101.064 Y143.914 E16.77069
G1 X100.417 Y143.673 E16.79369
G1 X99.751 Y143.487 E16.81672
G1 X99.072 Y143.358 E16.83974
G1 X98.385 Y143.286 E16.86275
G1 X97.695 Y143.272 E16.88574
G1 X97.005 Y143.314 E16.90877
G1 X96.321 Y143.415 E16.9318
G1 X95.648 Y143.573 E16.95483
G1 X94.991 Y143.788 E16.97786
G1 X94.355 Y144.055 E17.00083
G1 X93.742 Y144.374 E17.02385
G1 X93.159 Y144.745 E17.04687
G1 X92.607 Y145.162 E17.06991
G1 X92.094 Y145.626 E17.09295
G1 X91.622 Y146.129 E17.11593
G1 X91.192 Y146.671 E17.13898
G1 X90.81 Y147.246 E17.16197
G1 X90.477 Y147.851 E17.18498
G1 X90.196 Y148.483 E17.20802
G1 X89.968 Y149.135 E17.23102
G1 X89.796 Y149.805 E17.25406
G1 X89.681 Y150.486 E17.27707
G1 X89.624 Y151.175 E17.3001
G1 X89.624 Y151.865 E17.32308
G1 X89.681 Y152.553 E17.34608
G1 X89.796 Y153.236 E17.36915
G1 X89.968 Y153.905 E17.39216
G1 X90.196 Y154.557 E17.41517
G1 X90.477 Y155.189 E17.43821
G1 X90.81 Y155.794 E17.46121
G1 X91.192 Y156.37 E17.48423
G1 X91.622 Y156.912 E17.50728
G1 X92.095 Y157.415 E17.53028
G1 X92.607 Y157.877 E17.55325
G1 X93.159 Y158.296 E17.57634
G1 X93.742 Y158.666 E17.59934
G1 X94.354 Y158.985 E17.62233
G1 X94.991 Y159.253 E17.64535
G1 X95.648 Y159.467 E17.66836
G1 X96.321 Y159.625 E17.69139
G1 X97.005 Y159.726 E17.71442
G1 X97.695 Y159.769 E17.73745
G1 X98.385 Y159.754 E17.76044
G1 X99.072 Y159.683 E17.78345
G1 X99.752 Y159.553 E17.80651
G1 X100.417 Y159.367 E17.82951
