;Generated by Cura LulzBot Edition GCodeWriter Version: 3.6.8
;FLAVOR:Marlin
;TIME:12040
;Filament used: 4.08249m, 0.595885m
;Layer height: 0.25
;Generated with Cura_SteamEngine 3.6.8
T0
M82 ;absolute extrusion mode
M221 S100
; This profile is designed specifically for the LulzBot TAZ Pro with Dual Extruder Tool Head
M73 P0                                    ; clear GLCD progress bar
M75			     	          ; start GLCD timer
M107                                      ; disable fans
G90                                       ; absolute positioning
M420 S0                                   ; disable previous leveling matrix
M140 S70  ; begin bed temping up
M104 S180 T0  ; soften filament
M104 S180 T1  ; soften filament
M140 S70  ; get bed heating up
G28                                       ; home
M117 Heating...                           ; LCD status message
M109 R180 T0  ; wait for temp
M109 R180 T1  ; wait for temp
T0                                        ; select this extruder first
M82                                       ; set extruder to absolute mode
G92 E0                                    ; set extruder to zero
G1 E-10 F100                              ; suck up XXmm of filament
G0 X50 F1000                              ; move over to switch extruders
T1                                        ; switch extruders
M82                                       ; set extruder to absolute mode
G92 E0                                    ; set extruder to zero
G1  E-10 F100                             ; suck up XXmm of filament
M104 S170 T0    ; set to wipe temp
M104 S170 T1    ; set to wipe temp
M106                                      ; turn on fans to speed cooling
T0                                        ; select first extruder for probing
G1 X-16 Y100 F2000                        ; move above wiper pad
M117 Cooling...                           ; LCD status message
M109 R170 T0    ; wait for T0 to reach temp
M109 R170 T1    ; wait for T1 to reach temp
M107                                      ; turn off fan
G1 Z 1.0                                 ; push nozzle into wiper
G1 X -17 Y100 F1000                       ; slow wipe
G1 X -17 Y90 F1000                        ; slow wipe
G1 X -16 Y86 F2000                        ; fast wipe
G1 X -18 Y80 F2000                        ; fast wipe
G1 X -16 Y74 F2000                        ; fast wipe
G1 X -18 Y70 F2000                        ; fast wipe
G1 X -17 Y68 F1000                        ; slow wipe
G1 X -17 Y60 F1000                        ; slow wipe
G1 X -15 Y60 F1000                        ; slow wipe
G1 X -15 Y46 F1000                        ; slow wipe
G1 X -18 Y46 F1000                        ; slow wipe
G1 X -18 Y60 F1000                        ; slow wipe
G1 X -15 Y60 F1000                        ; slow wipe
G1 X -15 Y46 F1000                        ; slow wipe
G1 X -18 Y46 F1000                        ; slow wipe
G1 X -18 Y60 F1000                        ; slow wipe
G1 X -15 Y60 F1000                        ; slow wipe
G1 X -15 Y46 F1000                        ; slow wipe
G1 X -18 Y46 F1000                        ; slow wipe
G1 X -18 Y60 F1000                        ; slow wipe
G1 X -17 Y60 F1000                        ; slow wipe
G1 X -17 Y42 F1000                        ; slow wipe
G1 X -16 Y40 F2000                        ; fast wipe
G1 X -18 Y38 F2000                        ; fast wipe
G1 X -16 Y36 F2000                        ; fast wipe
G1 X -18 Y34 F2000                        ; fast wipe
G1 X -17 Y30 F1000                        ; slow wipe
G1 X -17 Y19 F1000                        ; slow wipe
G1 X -17 Y19 Z20 F1000			  ; raise extruder
M106 S255                                 ; turn on fan to blow away fuzzies
G4 S5                                     ; wait 5 seconds
M107                                      ; turn off fan
G0 X50 F1000                              ; move over to switch extruders
T1                                        ; switch to second extruder
G1 X297.5 Y100  F5000                     ; move E2 above second wiper pad
G1 Z 1.0                                 ; push nozzle into wiper
G1 X 294.5 Y100 F1000                     ; slow wipe
G1 X 294.5 Y90 F1000                      ; slow wipe
G1 X 295.5 Y86 F2000                      ; fast wipe
G1 X 293.5 Y80 F2000                      ; fast wipe
G1 X 295.5 Y74 F2000                      ; fast wipe
G1 X 293.5 Y70 F2000                      ; fast wipe
G1 X 294.5 Y68 F1000                      ; slow wipe
G1 X 294.5 Y60 F1000                      ; slow wipe
G1 X 296 Y60 F1000                        ; slow wipe
G1 X 296 Y46 F1000                        ; slow wipe
G1 X 293 Y46 F1000                        ; slow wipe
G1 X 293 Y60 F1000                        ; slow wipe
G1 X 296 Y60 F1000                        ; slow wipe
G1 X 296 Y46 F1000                        ; slow wipe
G1 X 293 Y46 F1000                        ; slow wipe
G1 X 293 Y60 F1000                        ; slow wipe
G1 X 296 Y60 F1000                        ; slow wipe
G1 X 296 Y46 F1000                        ; slow wipe
G1 X 293 Y46 F1000                        ; slow wipe
G1 X 293 Y60 F1000                        ; slow wipe
G1 X 294.5 Y60 F1000                      ; slow wipe
G1 X 294.5 Y42 F1000                      ; slow wipe
G1 X 295.5 Y40 F2000                      ; fast wipe
G1 X 293.5 Y38 F2000                      ; fast wipe
G1 X 295.5 Y36 F2000                      ; fast wipe
G1 X 293.5 Y34 F2000                      ; fast wipe
G1 X 295.5 Y30 F1000                      ; slow wipe
G1 X 294.5 Y19 F1000                      ; slow wipe
G1 X 294.5 Y19 Z20 F1000                  ; raise extruder
M106 S255                                 ; turn on fan to blow away fuzzies
G4 S5                                     ; wait 5 seconds
M107                                      ; turn off fan
G0 X247 F1000                             ; move over to switch extruders
T0                                        ; switch to first extruder
M109 R160      ; heat to probe temp
M204 S100                                 ; set accel for probing
G29                                       ; probe sequence (for auto-leveling)
M420 S1                                   ; enable leveling matrix
M204 S500                                 ; set accel back to normal
M104 S215  T0  ; set extruder temp
M104 S215  T1  ; set extruder temp
G1 X100 Y-29 Z0.5 F3000                   ; move to open space
M400                                      ; clear buffer
M117 Heating...                           ; LCD status message
M109 R215  T0  ; set extruder temp and wait
M109 R215  T1  ; set extruder temp and wait
M117 Purging...                           ; LCD status message
T0                                        ; select this extruder first
G1 E0 F100		    	          ; undo retraction
G92 E-30				  ; set extruder negative amount to purge
G1 E0 F100				  ; purge XXmm of filament
G1 E-3 F200                               ; purge retraction
G1 Z0.45                                   ; clear bed (barely)
G1 X100 Y10 F4000                         ; move above bed to shear off filament
G1 X180 Y-29 Z0.45 F3000                   ; move to open space
T1                                        ; set extruder
G1  E0 F100                               ; undo retraction
G92 E-30                                  ; set extruder negative amount to purge
G1 E0 F100                                ; purge XXmm of filament
G1 E-3 F200                               ; purge retraction
G1 Z0.45                                   ; clear bed (barely)
G1 X180 Y10 F4000                         ; move above bed to shear off filament
T0                                        : set extruder
M190 S70  ; get bed temping up during first layer
G1 Z2 E0 F75                              ; raise head and 0 extruder
M82					  ; set to absolute mode
M400                                      ; clear buffer
M117 TAZ Printing...                      ; LCD status message

G92 E0
G1 F900 E-1
;LAYER_COUNT:152
;LAYER:0
M107
M104 T1 S160
G0 F4200 X101.851 Y104.169 Z0.4
;TYPE:SKIRT
G1 F900 E0
G1 F600 X107.263 Y103.793 E0.17008
G1 X107.663 Y103.779 E0.18263
G1 X114.636 Y103.78 E0.40124
G1 X115.227 Y103.811 E0.41979
G1 X122.414 Y104.555 E0.64632
G1 X124.987 Y104.693 E0.7271
G1 X134.057 Y104.782 E1.01146
G1 X134.734 Y104.829 E1.03274
G1 X135.4 Y104.955 E1.05399
G1 X136.046 Y105.158 E1.07522
G1 X136.665 Y105.436 E1.09649
G1 X137.246 Y105.785 E1.11774
G1 X137.782 Y106.2 E1.13899
G1 X138.266 Y106.675 E1.16025
G1 X138.605 Y107.087 E1.17698
G1 X139.759 Y108.629 E1.23736
G1 X143.136 Y112.81 E1.40586
G1 X146.745 Y116.794 E1.57439
G1 X148.422 Y118.503 E1.64945
G1 X148.867 Y119.014 E1.6707
G1 X149.267 Y119.604 E1.69304
G1 X155.942 Y130.89 E2.10412
G1 X156.252 Y131.493 E2.12538
G1 X156.489 Y132.128 E2.14663
G1 X156.65 Y132.787 E2.1679
G1 X156.732 Y133.459 E2.18912
G1 X156.743 Y133.817 E2.20035
G1 X156.744 Y173.184 E3.43454
G1 X156.704 Y173.861 E3.4558
G1 X156.585 Y174.528 E3.47704
G1 X156.388 Y175.177 E3.49831
G1 X156.116 Y175.798 E3.51956
G1 X155.943 Y176.111 E3.53077
G1 X150.426 Y185.441 E3.87059
G1 X150.048 Y186.003 E3.89182
G1 X149.45 Y186.671 E3.91993
G1 X144.22 Y191.669 E4.14673
G1 X140.603 Y195.598 E4.31416
G1 X138.394 Y198.218 E4.42159
G1 X137.927 Y198.709 E4.44284
G1 X137.405 Y199.143 E4.46412
G1 X136.837 Y199.511 E4.48534
G1 X136.228 Y199.811 E4.50662
G1 X135.589 Y200.036 E4.52786
G1 X134.928 Y200.185 E4.5491
G1 X134.033 Y200.261 E4.57726
G1 X126.034 Y200.309 E4.82804
G1 X120.681 Y200.613 E4.99614
G1 X115.28 Y201.224 E5.16654
G1 X114.625 Y201.261 E5.18711
G1 X107.523 Y201.251 E5.40977
G1 X107.131 Y201.237 E5.42206
G1 X101.821 Y200.867 E5.58894
G1 X96.51 Y200.794 E5.75546
G1 X91.086 Y201.028 E5.92567
G1 X88.138 Y201.253 E6.01836
G1 X87.689 Y201.27 E6.03244
G1 X82.29 Y201.26 E6.20171
G1 X81.622 Y201.22 E6.22269
G1 X77.285 Y200.704 E6.35962
G1 X71.914 Y200.329 E6.52841
G1 X69.466 Y200.259 E6.60519
G1 X68.791 Y200.199 E6.62644
G1 X68.127 Y200.061 E6.6477
G1 X67.484 Y199.846 E6.66895
G1 X66.871 Y199.556 E6.69021
G1 X66.081 Y199.035 E6.71988
G1 X60.953 Y195.012 E6.92422
G1 X60.688 Y194.791 E6.93504
G1 X59.111 Y193.393 E7.00111
G1 X58.826 Y193.123 E7.01341
G1 X55.908 Y190.157 E7.14386
G1 X55.629 Y189.851 E7.15684
G1 X53.552 Y187.411 E7.2573
G1 X53.373 Y187.191 E7.26619
G1 X52.113 Y185.554 E7.33095
G1 X51.888 Y185.24 E7.34306
G1 X49.582 Y181.786 E7.47327
G1 X49.393 Y181.484 E7.48444
G1 X48.769 Y180.411 E7.52335
G1 X48.464 Y179.806 E7.54459
G1 X48.231 Y179.169 E7.56586
G1 X48.076 Y178.509 E7.58711
G1 X47.999 Y177.835 E7.60838
G1 X48.001 Y177.157 E7.62963
G1 X48.128 Y176.268 E7.65779
G1 X49.532 Y169.975 E7.85993
G1 X49.967 Y167.468 E7.9397
G1 X50.667 Y162.137 E8.10827
G1 X51.061 Y156.825 E8.27526
G1 X51.154 Y151.501 E8.4422
G1 X50.945 Y146.163 E8.60968
G1 X50.435 Y140.846 E8.77714
G1 X49.634 Y135.622 E8.94283
G1 X48.127 Y128.77 E9.16278
G1 X48.021 Y128.1 E9.18404
G1 X47.994 Y127.423 E9.20529
G1 X48.047 Y126.747 E9.22654
G1 X48.18 Y126.082 E9.24781
G1 X48.389 Y125.437 E9.26906
G1 X48.827 Y124.552 E9.30002
G1 X50.344 Y122.052 E9.3917
G1 X50.517 Y121.784 E9.4017
G1 X51.742 Y119.997 E9.46962
G1 X51.975 Y119.682 E9.48191
G1 X54.555 Y116.419 E9.61232
G1 X54.766 Y116.167 E9.62262
G1 X56.156 Y114.602 E9.68824
G1 X56.425 Y114.318 E9.70051
G1 X59.391 Y111.404 E9.83086
G1 X59.692 Y111.129 E9.84365
G1 X62.083 Y109.092 E9.94212
G1 X62.297 Y108.919 E9.95075
G1 X66.09 Y105.989 E10.10101
G1 X66.65 Y105.606 E10.12228
G1 X67.251 Y105.293 E10.14352
G1 X67.885 Y105.052 E10.16479
G1 X68.543 Y104.888 E10.18605
G1 X69.424 Y104.792 E10.21383
G1 X72.427 Y104.697 E10.30803
G1 X77.85 Y104.288 E10.47852
G1 X81.955 Y103.809 E10.60809
G1 X82.632 Y103.77 E10.62935
G1 X88.032 Y103.78 E10.79865
G1 X88.501 Y103.8 E10.81336
G1 X91.152 Y104.022 E10.89677
G1 X96.528 Y104.248 E11.06546
G1 X101.851 Y104.169 E11.23236
G0 F4200 X101.875 Y104.669
G1 F600 X107.298 Y104.292 E11.40278
G1 X107.663 Y104.279 E11.41423
G1 X114.636 Y104.28 E11.63284
G1 X115.175 Y104.308 E11.64977
G1 X122.395 Y105.055 E11.87733
G1 X124.955 Y105.193 E11.9577
G1 X134.052 Y105.282 E12.24292
G1 X134.698 Y105.329 E12.26322
G1 X135.334 Y105.454 E12.28354
G1 X135.949 Y105.657 E12.30385
G1 X136.535 Y105.934 E12.32417
G1 X137.082 Y106.281 E12.34448
G1 X137.582 Y106.693 E12.36479
G1 X138.204 Y107.387 E12.394
G1 X139.349 Y108.917 E12.45392
G1 X142.763 Y113.144 E12.62426
G1 X146.37 Y117.127 E12.79273
G1 X148.065 Y118.853 E12.86857
G1 X148.489 Y119.343 E12.88888
G1 X148.837 Y119.858 E12.90837
G1 X155.512 Y131.144 E13.31945
G1 X155.807 Y131.721 E13.33976
G1 X156.028 Y132.33 E13.36008
G1 X156.173 Y132.961 E13.38037
G1 X156.243 Y133.817 E13.4073
G1 X156.244 Y173.184 E14.64149
G1 X156.204 Y173.83 E14.66178
G1 X156.085 Y174.467 E14.6821
G1 X155.888 Y175.084 E14.7024
G1 X155.513 Y175.856 E14.72931
G1 X149.996 Y185.186 E15.06913
G1 X149.633 Y185.722 E15.08942
G1 X149.104 Y186.31 E15.11422
G1 X143.86 Y191.322 E15.34164
G1 X140.217 Y195.279 E15.51026
G1 X138.011 Y197.895 E15.61754
G1 X137.564 Y198.364 E15.63786
G1 X137.062 Y198.774 E15.65818
G1 X136.514 Y199.119 E15.67848
G1 X135.928 Y199.394 E15.69877
G1 X135.312 Y199.594 E15.71908
G1 X134.676 Y199.717 E15.73938
G1 X134.03 Y199.761 E15.75968
G1 X126.023 Y199.809 E16.01072
G1 X120.65 Y200.114 E16.17944
G1 X115.224 Y200.728 E16.35063
G1 X114.626 Y200.761 E16.36941
G1 X107.524 Y200.751 E16.59206
G1 X107.166 Y200.738 E16.60329
G1 X101.862 Y200.368 E16.76998
G1 X96.478 Y200.295 E16.93879
G1 X91.086 Y200.527 E17.10799
G1 X88.1 Y200.755 E17.20188
G1 X87.69 Y200.77 E17.21474
G1 X82.291 Y200.76 E17.384
G1 X81.681 Y200.723 E17.40316
G1 X77.337 Y200.206 E17.54031
G1 X71.939 Y199.829 E17.70996
G1 X69.48 Y199.759 E17.78708
G1 X68.835 Y199.7 E17.80739
G1 X68.202 Y199.563 E17.82769
G1 X67.591 Y199.349 E17.84799
G1 X67.011 Y199.061 E17.86829
G1 X66.389 Y198.642 E17.8918
G1 X61.261 Y194.619 E18.09614
G1 X61.019 Y194.417 E18.10602
G1 X59.442 Y193.019 E18.17209
G1 X59.183 Y192.772 E18.18331
G1 X56.265 Y189.806 E18.31376
G1 X56.009 Y189.527 E18.32563
G1 X53.932 Y187.087 E18.42608
G1 X53.77 Y186.886 E18.43418
G1 X52.51 Y185.249 E18.49894
G1 X52.304 Y184.962 E18.51002
G1 X49.998 Y181.508 E18.64022
G1 X49.826 Y181.232 E18.65041
G1 X49.202 Y180.159 E18.68933
G1 X48.911 Y179.58 E18.70964
G1 X48.694 Y178.97 E18.72994
G1 X48.554 Y178.338 E18.75024
G1 X48.493 Y177.693 E18.77055
G1 X48.512 Y177.045 E18.79087
G1 X48.616 Y176.377 E18.81207
G1 X50.019 Y170.088 E19.01408
G1 X50.465 Y167.521 E19.09576
G1 X51.163 Y162.203 E19.26392
G1 X51.561 Y156.835 E19.43267
G1 X51.654 Y151.49 E19.60027
G1 X51.445 Y146.131 E19.7684
G1 X50.933 Y140.793 E19.93652
G1 X50.125 Y135.53 E20.10346
G1 X48.615 Y128.662 E20.32392
G1 X48.516 Y128.022 E20.34422
G1 X48.495 Y127.375 E20.36452
G1 X48.555 Y126.73 E20.38482
G1 X48.694 Y126.097 E20.40514
G1 X48.909 Y125.486 E20.42545
G1 X49.255 Y124.811 E20.44923
G1 X50.772 Y122.311 E20.54091
G1 X50.93 Y122.067 E20.55002
G1 X52.155 Y120.28 E20.61794
G1 X52.367 Y119.992 E20.62916
G1 X54.947 Y116.729 E20.75957
G1 X55.14 Y116.499 E20.76898
G1 X56.53 Y114.934 E20.8346
G1 X56.776 Y114.675 E20.8458
G1 X59.742 Y111.761 E20.97616
G1 X60.016 Y111.51 E20.98781
G1 X62.407 Y109.473 E21.08628
G1 X62.603 Y109.314 E21.0942
G1 X66.396 Y106.384 E21.24446
G1 X66.932 Y106.021 E21.26475
G1 X67.508 Y105.726 E21.28504
G1 X68.117 Y105.504 E21.30536
G1 X68.748 Y105.359 E21.32566
G1 X69.44 Y105.292 E21.34746
G1 X72.458 Y105.197 E21.44212
G1 X77.872 Y104.788 E21.61234
G1 X82.013 Y104.305 E21.74304
G1 X82.631 Y104.27 E21.76245
G1 X88.031 Y104.28 E21.93174
G1 X88.459 Y104.298 E21.94517
G1 X91.137 Y104.522 E22.02943
G1 X96.514 Y104.748 E22.19815
G1 X101.875 Y104.669 E22.36624
G1 F900 E21.36624
G1 F180 Z1.4
G0 F4200 X129.258 Y114.308 Z1.4
;TYPE:SUPPORT
G1 F180 Z0.4
G1 F900 E22.36624
G1 F600 X129.307 Y114.199 E22.36999
G1 X129.367 Y114.112 E22.3733
G1 X129.445 Y114.032 E22.3768
G1 X129.536 Y113.966 E22.38033
G1 X129.639 Y113.917 E22.3839
