;Generated by Cura LulzBot Edition GCodeWriter Version: 3.6.8
;FLAVOR:Marlin
;TIME:4420
;Filament used: 2.07066m
;Layer height: 0.25
;Generated with Cura_SteamEngine 3.6.8
M82 ;absolute extrusion mode
M221 S100
;This G-Code has been generated specifically for the LulzBot TAZ 6 with Aerosturder
M73 P0 ; clear GLCD progress bar
M75 ; start GLCD timer
G26 ; clear potential 'probe fail' condition
M107 ; disable fans
M420 S0 ; disable leveling matrix
G90 ; absolute positioning
M82 ; set extruder to absolute mode
G92 E0 ; set extruder position to 0
M140 S60 ; start bed heating up
G28 XY ; home X and Y
G1 X-19 Y258 F1000 ; move to safe homing position
M109 R140 ; soften filament before homing Z
G28 Z ; home Z
G1 E-15 F100 ; retract filament
M109 R140 ; wait for extruder to reach wiping temp
G1 X-15 Y100 F3000 ; move above wiper pad
G1 Z1 ; push nozzle into wiper
G1 X-17 Y95 F1000 ; slow wipe
G1 X-17 Y90 F1000 ; slow wipe
G1 X-17 Y85 F1000 ; slow wipe
G1 X-15 Y90 F1000 ; slow wipe
G1 X-17 Y80 F1000 ; slow wipe
G1 X-15 Y95 F1000 ; slow wipe
G1 X-17 Y75 F2000 ; fast wipe
G1 X-15 Y65 F2000 ; fast wipe
G1 X-17 Y70 F2000 ; fast wipe
G1 X-15 Y60 F2000 ; fast wipe
G1 X-17 Y55 F2000 ; fast wipe
G1 X-15 Y50 F2000 ; fast wipe
G1 X-17 Y40 F2000 ; fast wipe
G1 X-15 Y45 F2000 ; fast wipe
G1 X-17 Y35 F2000 ; fast wipe
G1 X-15 Y40 F2000 ; fast wipe
G1 X-17 Y70 F2000 ; fast wipe
G1 X-15 Y30 Z2 F2000 ; fast wipe
G1 X-17 Y35 F2000 ; fast wipe
G1 X-15 Y25 F2000 ; fast wipe
G1 X-17 Y30 F2000 ; fast wipe
G1 X-15 Y25 Z1.5 F1000 ; slow wipe
G1 X-17 Y23 F1000 ; slow wipe
G1 Z10 ; raise extruder
M109 R140 ; wait for extruder to reach probe temp
G1 X-9 Y-9 ; move above first probe point
M204 S100 ; set probing acceleration
G29 ; start auto-leveling sequence
M420 S1              ; enable leveling matrix
M425 Z			     ; use measured Z backlash for compensation
M425 Z F0		     ; turn off measured Z backlash compensation. (if activated in the quality settings, this command will automatically be ignored)
M204 S500 ; restore standard acceleration
G1 X0 Y0 Z15 F5000 ; move up off last probe point
G4 S1 ; pause
M400 ; wait for moves to finish
M117 Heating... ; progress indicator message on LCD
M109 R215 ; wait for extruder to reach printing temp
M190 S60 ; wait for bed to reach printing temp
G1 Z2 E0 F75 ; prime tiny bit of filament into the nozzle
M117 TAZ 6 Printing... ; progress indicator message on LCD


G92 E0
G1 F600 E-1
;LAYER_COUNT:24
;LAYER:0
M107
G0 F2625 X98.755 Y100.685 Z0.425
;TYPE:SKIRT
G1 F600 E0
G1 F900 X98.926 Y100.528 E0.00773
G1 X101.332 Y98.478 E0.11302
G1 X101.453 Y98.38 E0.11821
G1 X105.252 Y95.446 E0.2781
G1 X105.679 Y95.167 E0.29509
G1 X106.144 Y94.958 E0.31208
G1 X106.635 Y94.825 E0.32902
G1 X107.239 Y94.768 E0.34923
G1 X171.632 Y94.76 E2.49418
G1 X172.14 Y94.8 E2.51116
G1 X172.635 Y94.919 E2.52812
G1 X173.106 Y95.113 E2.54508
G1 X173.54 Y95.379 E2.56204
G1 X173.928 Y95.71 E2.57903
G1 X174.356 Y96.238 E2.60167
G1 X176.501 Y99.536 E2.73272
G1 X179.693 Y103.979 E2.91495
G1 X183.145 Y108.25 E3.09788
G1 X187.309 Y112.82 E3.30382
G1 X187.622 Y113.222 E3.32079
G1 X187.777 Y113.484 E3.33093
G1 X189.678 Y117.063 E3.46592
G1 X189.787 Y117.289 E3.47428
G1 X191.034 Y120.15 E3.57824
G1 X191.107 Y120.333 E3.5848
G1 X191.675 Y121.886 E3.63989
G1 X191.812 Y122.376 E3.65683
G1 X191.873 Y123.002 E3.67779
G1 X191.878 Y156.97 E4.80927
G1 X191.838 Y157.477 E4.82621
G1 X191.692 Y158.054 E4.84604
G1 X191.235 Y159.346 E4.89169
G1 X191.141 Y159.582 E4.90015
G1 X189.435 Y163.419 E5.04003
G1 X189.327 Y163.64 E5.04822
G1 X187.77 Y166.532 E5.15763
G1 X187.494 Y166.96 E5.17459
G1 X187.299 Y167.192 E5.18469
G1 X183.728 Y171.072 E5.36034
G1 X180.246 Y175.298 E5.54274
G1 X177.001 Y179.724 E5.72555
G1 X174.353 Y183.769 E5.88659
G1 X174.042 Y184.172 E5.90355
G1 X173.671 Y184.522 E5.92054
G1 X173.25 Y184.809 E5.93751
G1 X172.789 Y185.027 E5.9545
G1 X172.3 Y185.17 E5.97147
G1 X171.634 Y185.239 E5.99377
G1 X107.263 Y185.24 E8.13799
G1 X106.755 Y185.2 E8.15497
G1 X106.26 Y185.081 E8.17192
G1 X105.789 Y184.886 E8.18891
G1 X105.257 Y184.547 E8.20992
G1 X100.114 Y180.513 E8.42765
G1 X99.962 Y180.386 E8.43424
G1 X98.377 Y178.978 E8.50486
G1 X98.217 Y178.826 E8.51222
G1 X95.305 Y175.862 E8.65062
G1 X95.148 Y175.69 E8.65838
G1 X93.097 Y173.28 E8.7638
G1 X92.996 Y173.156 E8.76912
G1 X91.708 Y171.482 E8.83948
G1 X91.579 Y171.302 E8.84686
G1 X89.249 Y167.804 E8.98686
G1 X89.121 Y167.594 E8.99505
G1 X88.544 Y166.567 E9.03429
G1 X88.33 Y166.105 E9.05125
G1 X88.191 Y165.614 E9.06825
G1 X88.13 Y165.108 E9.08522
G1 X88.149 Y164.599 E9.10219
G1 X88.215 Y164.224 E9.11488
G1 X89.055 Y160.688 E9.23594
G1 X89.612 Y157.97 E9.32836
G1 X90.072 Y155.327 E9.41772
G1 X90.786 Y149.888 E9.60045
G1 X91.191 Y144.435 E9.78259
G1 X91.287 Y138.953 E9.96523
G1 X91.074 Y133.475 E10.14784
G1 X90.552 Y128.035 E10.32988
G1 X89.725 Y122.645 E10.51152
G1 X88.202 Y115.713 E10.74794
G1 X88.132 Y115.208 E10.76492
G1 X88.141 Y114.698 E10.78191
G1 X88.231 Y114.197 E10.79887
G1 X88.397 Y113.715 E10.81585
G1 X88.6 Y113.326 E10.83046
G1 X90.157 Y110.767 E10.93024
G1 X90.253 Y110.618 E10.93615
G1 X91.423 Y108.912 E11.00506
G1 X91.551 Y108.737 E11.01228
G1 X94.117 Y105.484 E11.15029
G1 X94.238 Y105.34 E11.15656
G1 X95.636 Y103.764 E11.22673
G1 X95.788 Y103.604 E11.23408
G1 X98.755 Y100.685 E11.37273
G1 F600 E10.37273
;MESH:
G0 F2625 X100.461 Y102.621
G0 X101.397 Y103.682
G0 X103.758 Y102.828
G0 X103.799 Y102.918
;TYPE:WALL-INNER
G1 F600 E11.37273
G1 F900 X103.455 Y103.16 E11.38674
G1 X103.16 Y103.455 E11.40063
G1 X102.918 Y103.799 E11.41464
G1 X102.742 Y104.179 E11.42859
G1 X102.634 Y104.581 E11.44246
G1 X102.597 Y105 E11.45647
G1 X102.634 Y105.419 E11.47048
G1 X102.742 Y105.821 E11.48435
G1 X102.918 Y106.201 E11.4983
G1 X103.16 Y106.545 E11.51231
G1 X103.455 Y106.84 E11.5262
G1 X103.799 Y107.082 E11.54021
G1 X104.179 Y107.258 E11.55416
G1 X104.581 Y107.366 E11.56803
G1 X105 Y107.403 E11.58204
G1 X105.419 Y107.366 E11.59605
G1 X105.821 Y107.258 E11.60992
G1 X106.201 Y107.082 E11.62387
G1 X106.545 Y106.84 E11.63788
G1 X106.84 Y106.545 E11.65177
G1 X107.082 Y106.201 E11.66578
G1 X107.258 Y105.821 E11.67973
G1 X107.366 Y105.419 E11.6936
G1 X107.403 Y105 E11.70761
G1 X107.366 Y104.581 E11.72162
G1 X107.258 Y104.179 E11.73549
G1 X107.082 Y103.799 E11.74944
G1 X106.84 Y103.455 E11.76345
G1 X106.545 Y103.16 E11.77734
G1 X106.201 Y102.918 E11.79135
G1 X105.821 Y102.742 E11.8053
G1 X105.419 Y102.634 E11.81917
G1 X105 Y102.597 E11.83318
G1 X104.581 Y102.634 E11.84719
G1 X104.179 Y102.742 E11.86106
G1 X103.799 Y102.918 E11.87501
G0 F2625 X103.758 Y102.828
G0 X104.219 Y102.697
G0 X112.25 Y100.983
G0 X112.319 Y101.052
G1 F900 X112.039 Y101.382 E11.88942
G1 X111.814 Y101.75 E11.90379
G1 X111.649 Y102.147 E11.91811
G1 X111.547 Y102.568 E11.93254
G1 X111.514 Y102.999 E11.94694
G1 X111.547 Y103.429 E11.96131
G1 X111.649 Y103.851 E11.97577
G1 X111.814 Y104.249 E11.99012
G1 X112.039 Y104.615 E12.00443
G1 X112.318 Y104.944 E12.0188
G1 X112.649 Y105.226 E12.03328
G1 X113.016 Y105.451 E12.04762
G1 X113.416 Y105.617 E12.06205
G1 X113.836 Y105.717 E12.07643
G1 X114.266 Y105.752 E12.0908
G1 X114.696 Y105.717 E12.10517
G1 X115.116 Y105.617 E12.11955
G1 X115.516 Y105.451 E12.13398
G1 X115.883 Y105.226 E12.14832
G1 X116.212 Y104.945 E12.16273
G1 X116.493 Y104.616 E12.17714
G1 X116.718 Y104.249 E12.19148
G1 X116.884 Y103.849 E12.20591
G1 X116.984 Y103.428 E12.22032
G1 X117.019 Y102.999 E12.23466
G1 X116.984 Y102.569 E12.24903
G1 X116.884 Y102.149 E12.26341
G1 X116.718 Y101.749 E12.27784
G1 X116.493 Y101.382 E12.29218
G1 X116.211 Y101.051 E12.30666
G1 X115.882 Y100.772 E12.32103
G1 X115.516 Y100.547 E12.33534
G1 X115.118 Y100.382 E12.3497
G1 X114.697 Y100.28 E12.36412
G1 X114.266 Y100.247 E12.37852
G1 X113.835 Y100.28 E12.39292
G1 X113.414 Y100.382 E12.40735
G1 X113.017 Y100.547 E12.42167
G1 X112.649 Y100.772 E12.43604
G1 X112.319 Y101.052 E12.45046
G0 F2625 X112.25 Y100.983
G0 X112.995 Y100.514
G0 X113.831 Y100.24
G0 X118.446 Y100.179
G0 X118.516 Y100.249
G1 F900 X118.516 Y105.749 E12.63366
G1 X146.516 Y105.749 E13.56635
G1 X146.516 Y100.249 E13.74956
G1 X118.516 Y100.249 E14.68225
G0 F2625 X118.446 Y100.179
G0 X118.488 Y105.777
G0 X132.605 Y108.18
G0 X132.675 Y108.25
G1 F900 X132.675 Y111.75 E14.79884
G1 X110.75 Y111.75 E15.52917
G1 X110.75 Y120.25 E15.8123
G1 X122.25 Y120.25 E16.19537
G1 X132.675 Y120.25 E16.54263
G1 X132.675 Y123.75 E16.65922
G1 X135.056 Y123.75 E16.73853
G1 X135.372 Y123.75 E16.74906
G1 X135.73 Y123.75 E16.76098
G1 X136.11 Y123.75 E16.77364
G1 X136.467 Y123.75 E16.78553
G1 X136.11 Y123.782 E16.78595
G1 X135.73 Y123.882 E16.78835
G1 X135.372 Y124.05 E16.79456
G1 X135.114 Y124.231 E16.80305
G1 X135.052 Y124.275 E16.80558
G1 X134.775 Y124.552 E16.81863
G1 X134.55 Y124.872 E16.83166
G1 X134.382 Y125.23 E16.84484
G1 X134.282 Y125.61 E16.85793
G1 X134.247 Y126 E16.87097
G1 X134.282 Y126.39 E16.88401
G1 X134.382 Y126.77 E16.8971
G1 X134.55 Y127.128 E16.91027
G1 X134.775 Y127.448 E16.9233
G1 X135.052 Y127.725 E16.93635
G1 X135.372 Y127.95 E16.94938
G1 X135.73 Y128.118 E16.96256
G1 X136.11 Y128.218 E16.97565
G1 X136.5 Y128.253 E16.98869
G1 X136.89 Y128.218 E17.00173
G1 X137.27 Y128.118 E17.01482
G1 X137.628 Y127.95 E17.02799
G1 X137.948 Y127.725 E17.04102
G1 X138.225 Y127.448 E17.05407
G1 X138.45 Y127.128 E17.0671
G1 X138.618 Y126.77 E17.08028
G1 X138.718 Y126.39 E17.09337
G1 X138.753 Y126 E17.10641
G1 X138.718 Y125.61 E17.11945
G1 X138.618 Y125.23 E17.13254
G1 X138.45 Y124.872 E17.14571
G1 X138.225 Y124.552 E17.15874
G1 X137.948 Y124.275 E17.17179
G1 X137.886 Y124.231 E17.17433
G1 X137.628 Y124.05 E17.18482
G1 X137.27 Y123.882 E17.198
G1 X136.89 Y123.782 E17.21109
G1 X136.533 Y123.75 E17.22303
G1 X136.89 Y123.75 E17.22341
G1 X137.27 Y123.75 E17.2254
G1 X137.628 Y123.75 E17.23037
G1 X137.944 Y123.75 E17.23889
G1 X140.175 Y123.75 E17.31321
G1 X140.175 Y120.25 E17.4298
G1 X153.842 Y120.25 E17.88505
G1 X153.842 Y118.064 E17.95787
G1 X153.842 Y117.982 E17.9606
G1 X153.842 Y117.74 E17.96866
G1 X153.842 Y117.689 E17.97036
G1 X153.893 Y117.74
G1 X154.237 Y117.982 E17.97889
G1 X154.311 Y118.016 E17.98136
G1 X154.617 Y118.158 E17.9926
G1 X155.019 Y118.266 E18.00646
G1 X155.438 Y118.303 E18.02047
G1 X155.855 Y118.266 E18.03442
G1 X156.26 Y118.158 E18.04838
G1 X156.639 Y117.981 E18.06231
G1 X156.981 Y117.741 E18.07623
G1 X157.278 Y117.446 E18.09018
G1 X157.52 Y117.1 E18.10424
G1 X157.696 Y116.721 E18.11816
G1 X157.804 Y116.319 E18.13203
G1 X157.841 Y115.9 E18.14604
G1 X157.804 Y115.481 E18.16005
G1 X157.696 Y115.079 E18.17391
G1 X157.52 Y114.7 E18.18783
G1 X157.278 Y114.354 E18.2019
G1 X156.981 Y114.059 E18.21584
G1 X156.639 Y113.819 E18.22976
G1 X156.26 Y113.642 E18.24369
G1 X155.855 Y113.534 E18.25765
G1 X155.438 Y113.497 E18.2716
G1 X155.019 Y113.534 E18.28561
G1 X154.617 Y113.642 E18.29948
G1 X154.311 Y113.784 E18.31071
G1 X154.237 Y113.818 E18.31343
G1 X153.893 Y114.06 E18.32744
G1 X153.842 Y114.111 E18.32984
G1 X153.842 Y114.06
G1 X153.842 Y113.818 E18.33243
G1 X153.842 Y113.736 E18.33492
G1 X153.842 Y111.75 E18.40107
G1 X140.175 Y111.75 E18.85633
G1 X140.175 Y108.25 E18.97291
G1 X132.675 Y108.25 E19.22274
G0 F2625 X132.605 Y108.18
G0 X146.544 Y105.777
G0 X148.281 Y101.729
G0 X148.791 Y101.026
G0 X149.494 Y100.515
G0 X150.33 Y100.242
G0 X151.202 Y100.242
G0 X152.035 Y100.514
G0 X152.436 Y100.805
G0 X153.078 Y101.331
G0 X152.993 Y101.381
G1 F900 X152.711 Y101.054 E19.23712
G1 X152.383 Y100.773 E19.25151
G1 X152.016 Y100.548 E19.26585
G1 X151.616 Y100.382 E19.28028
G1 X151.196 Y100.282 E19.29466
G1 X150.766 Y100.247 E19.30903
G1 X150.336 Y100.282 E19.3234
G1 X149.916 Y100.382 E19.33778
G1 X149.516 Y100.548 E19.35221
G1 X149.148 Y100.773 E19.36658
G1 X148.819 Y101.054 E19.38099
G1 X148.539 Y101.382 E19.39535
G1 X148.314 Y101.751 E19.40975
G1 X148.149 Y102.148 E19.42407
G1 X148.047 Y102.569 E19.4385
G1 X148.014 Y103 E19.4529
G1 X148.047 Y103.431 E19.4673
G1 X148.149 Y103.852 E19.48173
G1 X148.314 Y104.249 E19.49605
G1 X148.539 Y104.618 E19.51044
G1 X148.819 Y104.946 E19.52481
G1 X149.148 Y105.227 E19.53922
G1 X149.516 Y105.452 E19.55359
G1 X149.916 Y105.618 E19.56802
G1 X150.336 Y105.718 E19.5824
G1 X150.766 Y105.753 E19.59677
G1 X151.196 Y105.718 E19.61114
G1 X151.616 Y105.618 E19.62552
G1 X152.016 Y105.452 E19.63995
G1 X152.383 Y105.227 E19.65429
G1 X152.711 Y104.946 E19.66867
G1 X152.993 Y104.619 E19.68306
G1 X153.218 Y104.249 E19.69748
G1 X153.384 Y103.85 E19.71188
G1 X153.484 Y103.43 E19.72626
G1 X153.519 Y103 E19.74063
G1 X153.484 Y102.57 E19.755
G1 X153.384 Y102.15 E19.76938
G1 X153.218 Y101.751 E19.78378
G1 X152.993 Y101.381 E19.7982
G0 F2625 X153.078 Y101.331
G0 X162.68 Y107.13
G0 X162.75 Y107.2
G1 F900 X162.75 Y110.7 E19.91479
G1 X170.25 Y110.7 E20.16461
G1 X170.25 Y107.2 E20.2812
G1 X162.75 Y107.2 E20.53103
G0 F2625 X162.68 Y107.13
G0 X162.722 Y110.728
G0 X164.513 Y114.657
G0 X164.417 Y114.684
G1 F900 X164.236 Y114.306 E20.54499
G1 X163.996 Y113.966 E20.55885
G1 X163.697 Y113.67 E20.57287
G1 X163.352 Y113.433 E20.58681
G1 X162.972 Y113.257 E20.60076
G1 X162.567 Y113.152 E20.6147
G1 X162.149 Y113.118 E20.62867
G1 X161.733 Y113.157 E20.64258
G1 X161.329 Y113.267 E20.65653
G1 X160.95 Y113.448 E20.67052
G1 X160.611 Y113.688 E20.68436
G1 X160.315 Y113.987 E20.69837
G1 X160.077 Y114.332 E20.71233
G1 X159.902 Y114.711 E20.72624
G1 X159.796 Y115.117 E20.74022
G1 X159.762 Y115.535 E20.75419
G1 X159.801 Y115.952 E20.76814
G1 X159.912 Y116.354 E20.78203
G1 X160.091 Y116.734 E20.79602
G1 X160.334 Y117.074 E20.80994
G1 X160.631 Y117.369 E20.82388
G1 X160.976 Y117.607 E20.83785
G1 X161.357 Y117.782 E20.85181
G1 X161.761 Y117.888 E20.86573
G1 X162.179 Y117.922 E20.87969
G1 X162.597 Y117.883 E20.89368
G1 X162.998 Y117.772 E20.90754
G1 X163.377 Y117.593 E20.9215
G1 X163.719 Y117.35 E20.93548
G1 X164.013 Y117.052 E20.94942
G1 X164.251 Y116.709 E20.96333
G1 X164.427 Y116.327 E20.97734
G1 X164.532 Y115.922 E20.99127
G1 X164.566 Y115.505 E21.00521
G1 X164.527 Y115.088 E21.01916
G1 X164.417 Y114.684 E21.03311
G0 F2625 X164.513 Y114.657
G0 X164.606 Y115.503
G0 X164.464 Y116.339
G0 X164.125 Y116.934
G0 X157.68 Y125.43
G0 X157.75 Y125.5
G1 F900 X157.75 Y154.5 E21.99911
G1 X173.25 Y154.5 E22.51542
G1 X173.25 Y125.5 E23.48142
G1 X157.75 Y125.5 E23.99773
G0 F2625 X157.68 Y125.43
G0 X176.355 Y117.792
G0 X176.992 Y117.68
G0 X177.948 Y117.734
G0 X177.914 Y117.828
G1 F900 X177.532 Y117.728 E24.01088
G1 X177.142 Y117.693 E24.02393
G1 X176.752 Y117.728 E24.03697
G1 X176.372 Y117.828 E24.05006
G1 X176.014 Y117.996 E24.06323
G1 X175.694 Y118.221 E24.07626
G1 X175.416 Y118.498 E24.08933
G1 X175.191 Y118.82 E24.10242
G1 X175.025 Y119.175 E24.11547
G1 X174.924 Y119.553 E24.12851
G1 X174.889 Y119.946 E24.14165
G1 X174.924 Y120.337 E24.15473
G1 X175.025 Y120.717 E24.16782
G1 X175.191 Y121.072 E24.18088
G1 X175.416 Y121.394 E24.19396
G1 X175.694 Y121.672 E24.20706
G1 X176.016 Y121.897 E24.22014
G1 X176.371 Y122.063 E24.2332
G1 X176.751 Y122.164 E24.2463
G1 X177.142 Y122.199 E24.25937
G1 X177.534 Y122.164 E24.27248
G1 X177.914 Y122.063 E24.28558
G1 X178.268 Y121.897 E24.2986
G1 X178.59 Y121.672 E24.31169
G1 X178.869 Y121.394 E24.32481
G1 X179.094 Y121.072 E24.33789
G1 X179.26 Y120.717 E24.35095
G1 X179.361 Y120.336 E24.36408
G1 X179.395 Y119.946 E24.37712
G1 X179.361 Y119.555 E24.39019
G1 X179.26 Y119.175 E24.40329
G1 X179.094 Y118.82 E24.41634
G1 X178.869 Y118.498 E24.42943
G1 X178.591 Y118.22 E24.44252
G1 X178.27 Y117.996 E24.45556
G1 X177.914 Y117.828 E24.46867
G0 F2625 X177.948 Y117.734
G0 X178.325 Y117.991
G0 X183.43 Y122.18
G0 X183.5 Y122.25
G1 F900 X183.5 Y135.75 E24.91836
G1 X187.5 Y135.75 E25.05161
G1 X187.5 Y123.143 E25.47155
G1 X187.5 Y122.25 E25.5013
G1 X187.433 Y122.25 E25.50353
G1 X187.336 Y122.25 E25.50676
G1 X183.5 Y122.25 E25.63454
G0 F2625 X183.43 Y122.18
G0 X183.472 Y135.778
G0 X184.661 Y137.804
G0 X184.703 Y137.893
G1 F900 X184.35 Y138.065 E25.64762
G1 X184.033 Y138.293 E25.66062
G1 X183.758 Y138.573 E25.6737
G1 X183.537 Y138.898 E25.68679
G1 X183.374 Y139.256 E25.69989
G1 X183.278 Y139.638 E25.71301
