;Generated by Cura LulzBot Edition GCodeWriter Version: 3.6.8
;FLAVOR:Marlin
;TIME:8435
;Filament used: 4.98882m
;Layer height: 0.25
;Generated with Cura_SteamEngine 3.6.8
M82 ;absolute extrusion mode
M221 S100
;This G-Code has been generated specifically for the LulzBot TAZ 6 with Aerosturder
M73 P0 ; clear GLCD progress bar
M75 ; start GLCD timer
G26 ; clear potential 'probe fail' condition
M107 ; disable fans
M420 S0 ; disable leveling matrix
G90 ; absolute positioning
M82 ; set extruder to absolute mode
G92 E0 ; set extruder position to 0
M140 S60 ; start bed heating up
G28 XY ; home X and Y
G1 X-19 Y258 F1000 ; move to safe homing position
M109 R140 ; soften filament before homing Z
G28 Z ; home Z
G1 E-15 F100 ; retract filament
M109 R140 ; wait for extruder to reach wiping temp
G1 X-15 Y100 F3000 ; move above wiper pad
G1 Z1 ; push nozzle into wiper
G1 X-17 Y95 F1000 ; slow wipe
G1 X-17 Y90 F1000 ; slow wipe
G1 X-17 Y85 F1000 ; slow wipe
G1 X-15 Y90 F1000 ; slow wipe
G1 X-17 Y80 F1000 ; slow wipe
G1 X-15 Y95 F1000 ; slow wipe
G1 X-17 Y75 F2000 ; fast wipe
G1 X-15 Y65 F2000 ; fast wipe
G1 X-17 Y70 F2000 ; fast wipe
G1 X-15 Y60 F2000 ; fast wipe
G1 X-17 Y55 F2000 ; fast wipe
G1 X-15 Y50 F2000 ; fast wipe
G1 X-17 Y40 F2000 ; fast wipe
G1 X-15 Y45 F2000 ; fast wipe
G1 X-17 Y35 F2000 ; fast wipe
G1 X-15 Y40 F2000 ; fast wipe
G1 X-17 Y70 F2000 ; fast wipe
G1 X-15 Y30 Z2 F2000 ; fast wipe
G1 X-17 Y35 F2000 ; fast wipe
G1 X-15 Y25 F2000 ; fast wipe
G1 X-17 Y30 F2000 ; fast wipe
G1 X-15 Y25 Z1.5 F1000 ; slow wipe
G1 X-17 Y23 F1000 ; slow wipe
G1 Z10 ; raise extruder
M109 R140 ; wait for extruder to reach probe temp
G1 X-9 Y-9 ; move above first probe point
M204 S100 ; set probing acceleration
G29 ; start auto-leveling sequence
M420 S1              ; enable leveling matrix
M425 Z			     ; use measured Z backlash for compensation
M425 Z F0		     ; turn off measured Z backlash compensation. (if activated in the quality settings, this command will automatically be ignored)
M204 S500 ; restore standard acceleration
G1 X0 Y0 Z15 F5000 ; move up off last probe point
G4 S1 ; pause
M400 ; wait for moves to finish
M117 Heating... ; progress indicator message on LCD
M109 R215 ; wait for extruder to reach printing temp
M190 S60 ; wait for bed to reach printing temp
G1 Z2 E0 F75 ; prime tiny bit of filament into the nozzle
M117 TAZ 6 Printing... ; progress indicator message on LCD


G92 E0
G1 F600 E-1
;LAYER_COUNT:116
;LAYER:0
M107
G0 F2625 X112.751 Y102.985 Z0.425
;TYPE:SKIRT
G1 F600 E0
G1 F900 X112.879 Y102.85 E0.0062
G1 X114.387 Y101.353 E0.07698
G1 X114.52 Y101.228 E0.08306
G1 X116.858 Y99.154 E0.18716
G1 X117.02 Y99.02 E0.19417
G1 X121.606 Y95.453 E0.3877
G1 X122.031 Y95.172 E0.40467
G1 X122.495 Y94.962 E0.42163
G1 X122.986 Y94.827 E0.43859
G1 X123.601 Y94.768 E0.45917
G1 X178.991 Y94.76 E2.30424
G1 X179.498 Y94.8 E2.32118
G1 X179.994 Y94.919 E2.33817
G1 X180.465 Y95.113 E2.35514
G1 X180.899 Y95.379 E2.37209
G1 X181.287 Y95.71 E2.38908
G1 X181.618 Y96.097 E2.40604
G1 X181.885 Y96.531 E2.42302
G1 X182.081 Y97.002 E2.44001
G1 X182.2 Y97.497 E2.45697
G1 X182.241 Y98.01 E2.47411
G1 X182.241 Y181.991 E5.27155
G1 X182.201 Y182.499 E5.28852
G1 X182.082 Y182.994 E5.30548
G1 X181.887 Y183.465 E5.32246
G1 X181.621 Y183.9 E5.33945
G1 X181.291 Y184.287 E5.35639
G1 X180.904 Y184.619 E5.37337
G1 X180.469 Y184.885 E5.39036
G1 X179.999 Y185.081 E5.40732
G1 X179.504 Y185.2 E5.42428
G1 X178.991 Y185.241 E5.44142
G1 X123.625 Y185.24 E7.28568
G1 X123.117 Y185.2 E7.30266
G1 X122.622 Y185.081 E7.31961
G1 X122.151 Y184.886 E7.33659
G1 X121.619 Y184.547 E7.35761
G1 X116.486 Y180.521 E7.57491
G1 X116.334 Y180.394 E7.58151
G1 X114.741 Y178.979 E7.65248
G1 X114.582 Y178.828 E7.65979
G1 X111.687 Y175.885 E7.7973
G1 X111.53 Y175.713 E7.80506
G1 X109.464 Y173.287 E7.9112
G1 X109.362 Y173.161 E7.9166
G1 X108.073 Y171.485 E7.98703
G1 X107.945 Y171.308 E7.9943
G1 X105.647 Y167.863 E8.13225
G1 X105.547 Y167.703 E8.13853
G1 X104.464 Y165.856 E8.20985
G1 X104.36 Y165.664 E8.21713
G1 X102.522 Y161.982 E8.35421
G1 X102.426 Y161.77 E8.36196
G1 X101.219 Y158.846 E8.46733
G1 X101.161 Y158.695 E8.47272
G1 X100.442 Y156.674 E8.54417
G1 X100.375 Y156.463 E8.55155
G1 X99.248 Y152.446 E8.69052
G1 X99.193 Y152.22 E8.69827
G1 X98.565 Y149.155 E8.80249
G1 X98.537 Y149 E8.80773
G1 X98.217 Y146.934 E8.87737
G1 X98.191 Y146.714 E8.88475
G1 X97.833 Y142.523 E9.02486
G1 X97.822 Y142.336 E9.0311
G1 X97.764 Y140.25 E9.10062
G1 X97.766 Y140.029 E9.10798
G1 X97.934 Y135.859 E9.24699
G1 X97.947 Y135.673 E9.25321
G1 X98.15 Y133.602 E9.32252
G1 X98.179 Y133.383 E9.32988
G1 X98.873 Y129.234 E9.47001
G1 X98.919 Y129.008 E9.47769
G1 X99.642 Y126.012 E9.58035
G1 X99.683 Y125.858 E9.58566
G1 X100.287 Y123.801 E9.65707
G1 X100.357 Y123.59 E9.66448
G1 X101.8 Y119.688 E9.80306
G1 X101.87 Y119.512 E9.80937
G1 X102.73 Y117.546 E9.88085
G1 X102.826 Y117.348 E9.88818
G1 X104.747 Y113.66 E10.02669
G1 X104.839 Y113.495 E10.03298
G1 X105.921 Y111.683 E10.10328
G1 X106.039 Y111.499 E10.11056
G1 X108.404 Y108.082 E10.24899
G1 X108.515 Y107.931 E10.25523
G1 X109.825 Y106.255 E10.32609
G1 X109.968 Y106.085 E10.33349
G1 X112.751 Y102.985 E10.47226
G1 F600 E9.47226
;MESH:
G0 F2625 X116.297 Y103.089
G0 X117.311 Y104.103
G0 X167.198 Y100.467
G0 X167.988 Y100.659
G0 X168.378 Y100.903
G0 X169.012 Y101.348
G0 X168.935 Y101.411
;TYPE:WALL-INNER
G1 F600 E10.47226
G1 F900 X168.653 Y101.122 E10.48571
G1 X168.332 Y100.881 E10.49908
G1 X167.973 Y100.695 E10.51255
G1 X167.591 Y100.568 E10.52596
G1 X167.195 Y100.506 E10.53931
G1 X166.792 Y100.506 E10.55273
G1 X166.393 Y100.572 E10.56621
G1 X166.012 Y100.701 E10.5796
G1 X165.657 Y100.888 E10.59297
G1 X165.336 Y101.13 E10.60636
G1 X165.056 Y101.423 E10.61986
G1 X164.829 Y101.755 E10.63326
G1 X164.658 Y102.12 E10.64668
G1 X164.546 Y102.506 E10.66007
G1 X164.499 Y102.908 E10.67355
G1 X164.517 Y103.309 E10.68692
G1 X164.597 Y103.703 E10.70032
G1 X164.743 Y104.08 E10.71378
G1 X164.945 Y104.428 E10.72719
G1 X165.201 Y104.738 E10.74058
G1 X165.502 Y105.004 E10.75396
G1 X165.843 Y105.22 E10.76741
G1 X166.215 Y105.375 E10.78083
G1 X166.604 Y105.471 E10.79418
G1 X167.008 Y105.503 E10.80768
G1 X167.409 Y105.468 E10.82108
G1 X167.798 Y105.372 E10.83443
G1 X168.168 Y105.214 E10.84783
G1 X168.511 Y104.995 E10.86139
G1 X168.809 Y104.727 E10.87474
G1 X169.063 Y104.416 E10.88811
G1 X169.264 Y104.065 E10.90159
G1 X169.405 Y103.689 E10.91496
G1 X169.484 Y103.296 E10.92832
G1 X169.501 Y102.895 E10.94169
G1 X169.451 Y102.491 E10.95525
G1 X169.336 Y102.104 E10.96869
G1 X169.164 Y101.744 E10.98198
G1 X168.935 Y101.411 E10.99545
G0 F2625 X169.012 Y101.348
G0 X169.373 Y102.09
G0 X169.54 Y102.894
G0 X169.53 Y177.243
G0 X169.322 Y178.033
G0 X168.876 Y178.714
G0 X168.235 Y179.22
G0 X167.802 Y179.376
G0 X167.063 Y179.602
G0 X167.061 Y179.503
G1 F900 X167.462 Y179.459 E11.00888
G1 X167.85 Y179.354 E11.02227
G1 X168.216 Y179.186 E11.03569
G1 X168.553 Y178.963 E11.04915
G1 X168.847 Y178.688 E11.06256
G1 X169.094 Y178.37 E11.07597
G1 X169.286 Y178.017 E11.08936
G1 X169.42 Y177.638 E11.10275
G1 X169.491 Y177.24 E11.11621
G1 X169.496 Y176.838 E11.12961
G1 X169.439 Y176.44 E11.143
G1 X169.317 Y176.055 E11.15645
G1 X169.136 Y175.696 E11.16984
G1 X168.898 Y175.37 E11.18329
G1 X168.612 Y175.086 E11.19671
G1 X168.286 Y174.854 E11.21004
G1 X167.923 Y174.674 E11.22354
G1 X167.538 Y174.557 E11.23694
G1 X167.142 Y174.502 E11.25026
G1 X166.739 Y174.511 E11.26369
G1 X166.342 Y174.586 E11.27715
G1 X165.965 Y174.722 E11.2905
G1 X165.61 Y174.918 E11.304
G1 X165.295 Y175.17 E11.31744
G1 X165.024 Y175.465 E11.33078
G1 X164.803 Y175.803 E11.34424
G1 X164.639 Y176.171 E11.35766
G1 X164.537 Y176.56 E11.37105
G1 X164.497 Y176.959 E11.38441
G1 X164.524 Y177.363 E11.3979
G1 X164.615 Y177.756 E11.41133
G1 X164.766 Y178.127 E11.42468
G1 X164.976 Y178.473 E11.43816
G1 X165.24 Y178.777 E11.45157
G1 X165.546 Y179.036 E11.46493
G1 X165.891 Y179.244 E11.47834
G1 X166.268 Y179.393 E11.49185
G1 X166.659 Y179.478 E11.50518
G1 X167.061 Y179.503 E11.51859
G0 F2625 X167.063 Y179.602
G0 X178.18 Y181.18
G0 X178.25 Y181.25
G1 F900 X123.865 Y181.25 E13.33018
G1 X119.607 Y177.948 E13.50966
G1 X117.298 Y175.911 E13.61223
G1 X115.089 Y173.702 E13.71629
G1 X113.052 Y171.393 E13.81886
G1 X111.158 Y168.951 E13.9218
G1 X109.41 Y166.377 E14.02544
G1 X107.848 Y163.738 E14.12759
G1 X106.434 Y160.961 E14.2314
G1 X105.205 Y158.121 E14.33448
G1 X104.162 Y155.224 E14.43704
G1 X103.3 Y152.254 E14.54005
G1 X102.622 Y149.222 E14.64354
G1 X102.138 Y146.167 E14.74658
G1 X101.849 Y143.094 E14.84939
G1 X101.751 Y140 E14.95251
G1 X101.849 Y136.899 E15.05585
G1 X102.138 Y133.833 E15.15843
G1 X102.622 Y130.778 E15.26147
G1 X103.301 Y127.741 E15.36513
G1 X104.164 Y124.77 E15.46818
G1 X105.205 Y121.878 E15.57057
G1 X106.434 Y119.04 E15.67359
G1 X107.851 Y116.259 E15.77755
G1 X109.41 Y113.623 E15.87957
G1 X111.161 Y111.045 E15.98338
G1 X113.052 Y108.607 E16.08615
G1 X115.089 Y106.298 E16.18872
G1 X117.298 Y104.089 E16.29278
G1 X119.607 Y102.052 E16.39535
G1 X123.865 Y98.75 E16.57483
G1 X178.25 Y98.75 E18.38642
G1 X178.25 Y181.25 E21.13452
G0 F2625 X178.18 Y181.18
G0 X167.013 Y179.6
G0 X167.049 Y179.001
;TYPE:WALL-OUTER
G1 F900 X167.369 Y178.966 E21.14524
G1 X167.68 Y178.882 E21.15598
G1 X167.973 Y178.748 E21.16671
G1 X168.242 Y178.57 E21.17745
G1 X168.476 Y178.35 E21.18815
G1 X168.674 Y178.095 E21.1989
G1 X168.828 Y177.813 E21.20961
G1 X168.935 Y177.51 E21.22031
G1 X168.992 Y177.192 E21.23107
G1 X168.996 Y176.871 E21.24177
G1 X168.95 Y176.552 E21.2525
G1 X168.852 Y176.244 E21.26327
G1 X168.708 Y175.957 E21.27396
G1 X168.518 Y175.697 E21.28469
G1 X168.289 Y175.47 E21.29543
G1 X168.028 Y175.284 E21.30611
G1 X167.738 Y175.14 E21.31689
G1 X167.431 Y175.047 E21.32758
G1 X167.113 Y175.003 E21.33827
G1 X166.791 Y175.01 E21.349
G1 X166.474 Y175.07 E21.35975
G1 X166.172 Y175.179 E21.37044
G1 X165.889 Y175.335 E21.38121
G1 X165.637 Y175.536 E21.39194
G1 X165.42 Y175.773 E21.40265
G1 X165.243 Y176.043 E21.4134
G1 X165.112 Y176.337 E21.42412
G1 X165.031 Y176.648 E21.43483
G1 X164.999 Y176.968 E21.44554
G1 X165.02 Y177.29 E21.45629
G1 X165.093 Y177.604 E21.46703
G1 X165.214 Y177.902 E21.47774
G1 X165.381 Y178.177 E21.48846
G1 X165.592 Y178.42 E21.49918
G1 X165.838 Y178.628 E21.50991
G1 X166.114 Y178.794 E21.52064
G1 X166.414 Y178.913 E21.53139
G1 X166.728 Y178.981 E21.54209
G1 X167.049 Y179.001 E21.5528
G0 F2625 X167.298 Y178.974
G0 X167.362 Y179.571
G0 X168.235 Y179.22
G0 X168.876 Y178.714
G0 X169.322 Y178.033
G0 X169.53 Y177.243
G0 X165.844 Y105.328
G0 X166.075 Y104.775
G1 F900 X166.372 Y104.899 E21.56352
G1 X166.684 Y104.976 E21.57423
G1 X167.006 Y105.001 E21.58499
G1 X167.327 Y104.973 E21.59572
G1 X167.639 Y104.896 E21.60643
G1 X167.934 Y104.77 E21.61711
G1 X168.207 Y104.596 E21.62789
G1 X168.446 Y104.381 E21.6386
G1 X168.65 Y104.132 E21.64933
G1 X168.81 Y103.852 E21.66007
G1 X168.923 Y103.551 E21.67078
G1 X168.986 Y103.236 E21.68148
G1 X169 Y102.915 E21.69218
G1 X168.96 Y102.594 E21.70296
G1 X168.868 Y102.284 E21.71373
G1 X168.73 Y101.995 E21.7244
G1 X168.547 Y101.73 E21.73512
G1 X168.322 Y101.499 E21.74586
G1 X168.065 Y101.306 E21.75657
G1 X167.778 Y101.157 E21.76734
G1 X167.473 Y101.056 E21.77804
G1 X167.156 Y101.006 E21.78873
G1 X166.833 Y101.006 E21.79949
G1 X166.515 Y101.059 E21.81023
G1 X166.21 Y101.162 E21.82096
G1 X165.926 Y101.312 E21.83165
G1 X165.669 Y101.505 E21.84236
G1 X165.446 Y101.739 E21.85313
G1 X165.264 Y102.004 E21.86384
G1 X165.127 Y102.296 E21.87458
G1 X165.038 Y102.605 E21.88529
G1 X165 Y102.926 E21.89606
G1 X165.015 Y103.247 E21.90676
G1 X165.079 Y103.562 E21.91747
G1 X165.195 Y103.863 E21.92822
G1 X165.357 Y104.141 E21.93893
G1 X165.562 Y104.39 E21.94968
G1 X165.803 Y104.603 E21.96039
G1 X166.075 Y104.775 E21.97111
G0 F2625 X166.306 Y104.871
G0 X166.075 Y105.424
G0 X119.67 Y102.129
G0 X119.282 Y101.672
G1 F900 X123.694 Y98.25 E22.1571
G1 X178.75 Y98.25 E23.99104
G1 X178.75 Y181.75 E26.77245
G1 X123.694 Y181.75 E28.60639
G1 X119.282 Y178.328 E28.79237
G1 X116.95 Y176.271 E28.89596
G1 X114.729 Y174.05 E29.00058
G1 X112.672 Y171.718 E29.10416
G1 X110.747 Y169.236 E29.20879
G1 X108.991 Y166.651 E29.31289
G1 X107.406 Y163.972 E29.41657
G1 X105.982 Y161.176 E29.52109
G1 X104.746 Y158.32 E29.62476
G1 X103.685 Y155.375 E29.72903
G1 X102.814 Y152.374 E29.83312
G1 X102.13 Y149.314 E29.93756
G1 X101.641 Y146.228 E30.04164
G1 X101.349 Y143.125 E30.14546
G1 X101.25 Y140 E30.24961
G1 X101.349 Y136.868 E30.35399
G1 X101.641 Y133.772 E30.45757
G1 X102.13 Y130.686 E30.56165
G1 X102.815 Y127.621 E30.66627
G1 X103.687 Y124.619 E30.7704
G1 X104.746 Y121.679 E30.87449
G1 X105.982 Y118.824 E30.97812
G1 X107.408 Y116.025 E31.08276
G1 X108.991 Y113.349 E31.18632
G1 X110.747 Y110.764 E31.29042
G1 X112.672 Y108.282 E31.39505
G1 X114.729 Y105.95 E31.49863
G1 X116.95 Y103.729 E31.60326
G1 X119.282 Y101.672 E31.70684
G0 F2625 X119.479 Y101.519
G0 X119.845 Y101.994
G0 X119.912 Y102.436
;TYPE:SKIN
G1 F900 X124.034 Y99.24 E31.88058
G1 X177.76 Y99.24 E33.67021
G1 X177.76 Y180.76 E36.38567
G1 X124.034 Y180.76 E38.17531
G1 X119.912 Y177.564 E38.34905
G1 X117.642 Y175.561 E38.44989
G1 X115.436 Y173.355 E38.55381
G1 X113.436 Y171.087 E38.65454
G1 X111.553 Y168.66 E38.75686
G1 X109.816 Y166.102 E38.85986
G1 X108.276 Y163.5 E38.96057
G1 X106.871 Y160.739 E39.06377
G1 X105.666 Y157.953 E39.16488
G1 X104.626 Y155.067 E39.26706
G1 X103.776 Y152.137 E39.36869
G1 X103.103 Y149.127 E39.47143
G1 X102.622 Y146.09 E39.57385
G1 X102.339 Y143.066 E39.67502
G1 X102.241 Y140 E39.7772
G1 X102.339 Y136.915 E39.88002
G1 X102.624 Y133.895 E39.98106
G1 X103.103 Y130.871 E40.08305
G1 X103.779 Y127.848 E40.18623
G1 X104.63 Y124.921 E40.28777
G1 X105.666 Y122.044 E40.38963
G1 X106.871 Y119.262 E40.49061
G1 X108.281 Y116.494 E40.59409
G1 X109.816 Y113.898 E40.69455
G1 X111.558 Y111.333 E40.79783
G1 X113.436 Y108.913 E40.89987
G1 X115.436 Y106.645 E41.0006
G1 X117.645 Y104.436 E41.10466
G1 X119.912 Y102.436 E41.20536
G0 F2625 X164.007 Y102.89
G1 F900 X164.029 Y103.369 E41.22133
G1 X164.125 Y103.842 E41.23741
G1 X164.3 Y104.293 E41.25352
G1 X164.541 Y104.709 E41.26954
G1 X164.848 Y105.079 E41.28555
G1 X165.206 Y105.397 E41.3015
G1 X165.616 Y105.657 E41.31767
G1 X166.062 Y105.842 E41.33376
G1 X166.525 Y105.957 E41.34965
G1 X167.01 Y105.995 E41.36585
G1 X167.489 Y105.952 E41.38187
G1 X167.954 Y105.838 E41.39782
G1 X168.397 Y105.649 E41.41387
G1 X168.809 Y105.387 E41.43013
G1 X169.164 Y105.066 E41.44607
G1 X169.468 Y104.695 E41.46205
G1 X169.709 Y104.274 E41.47821
G1 X169.877 Y103.824 E41.49421
G1 X169.972 Y103.355 E41.51015
G1 X169.993 Y102.875 E41.52615
G1 X169.933 Y102.391 E41.5424
G1 X169.795 Y101.927 E41.55852
G1 X169.589 Y101.499 E41.57435
G1 X169.315 Y101.099 E41.5905
G1 X168.977 Y100.753 E41.60661
G1 X168.593 Y100.465 E41.6226
G1 X168.165 Y100.242 E41.63867
G1 X167.707 Y100.09 E41.65475
G1 X167.233 Y100.016 E41.67073
G1 X166.751 Y100.016 E41.68678
G1 X166.273 Y100.095 E41.70292
G1 X165.818 Y100.25 E41.71893
G1 X165.394 Y100.473 E41.73489
G1 X165.009 Y100.763 E41.75095
G1 X164.674 Y101.113 E41.76708
G1 X164.402 Y101.512 E41.78317
G1 X164.198 Y101.947 E41.79917
G1 X164.064 Y102.408 E41.81517
G1 X164.007 Y102.89 E41.83133
G0 F2625 X165.336 Y174.509
G1 F900 X164.96 Y174.811 E41.8474
G1 X164.636 Y175.163 E41.86333
G1 X164.372 Y175.568 E41.87944
G1 X164.175 Y176.008 E41.8955
G1 X164.053 Y176.473 E41.91151
G1 X164.005 Y176.951 E41.92751
G1 X164.038 Y177.435 E41.94367
G1 X164.146 Y177.905 E41.95974
G1 X164.327 Y178.348 E41.97568
G1 X164.578 Y178.763 E41.99183
G1 X164.895 Y179.126 E42.00789
G1 X165.26 Y179.436 E42.02384
G1 X165.673 Y179.685 E42.0399
G1 X166.125 Y179.863 E42.05608
G1 X166.591 Y179.964 E42.07197
G1 X167.073 Y179.995 E42.08805
G1 X167.554 Y179.942 E42.10417
G1 X168.017 Y179.816 E42.12016
G1 X168.455 Y179.615 E42.13621
G1 X168.857 Y179.349 E42.15227
G1 X169.21 Y179.019 E42.16836
G1 X169.505 Y178.639 E42.18439
G1 X169.735 Y178.217 E42.2004
G1 X169.896 Y177.764 E42.21641
G1 X169.981 Y177.287 E42.23255
G1 X169.986 Y176.806 E42.24857
G1 X169.919 Y176.33 E42.26459
