;Generated by Cura LulzBot Edition GCodeWriter Version: 3.6.20
;FLAVOR:Marlin
;TIME:6156
;Filament used: 3.51833m
;Layer height: 0.25
;Generated with Cura_SteamEngine 3.6.20
M82 ;absolute extrusion mode
;This G-Code has been generated specifically for the LulzBot TAZ 6 with Aerosturder
M73 P0 ; clear GLCD progress bar
M75 ; start GLCD timer
G26 ; clear potential 'probe fail' condition
M107 ; disable fans
M420 S0 ; disable leveling matrix
G90 ; absolute positioning
M82 ; set extruder to absolute mode
G92 E0 ; set extruder position to 0
M140 S60.0 ; start bed heating up
G28 XY ; home X and Y
G1 X-19 Y258 F1000 ; move to safe homing position
M109 R140 ; soften filament before homing Z
G28 Z ; home Z
G1 E-15 F100 ; retract filament
M109 R140 ; wait for extruder to reach wiping temp
G1 X-15 Y100 F3000 ; move above wiper pad
G1 Z1 ; push nozzle into wiper
G1 X-17 Y95 F1000 ; slow wipe
G1 X-17 Y90 F1000 ; slow wipe
G1 X-17 Y85 F1000 ; slow wipe
G1 X-15 Y90 F1000 ; slow wipe
G1 X-17 Y80 F1000 ; slow wipe
G1 X-15 Y95 F1000 ; slow wipe
G1 X-17 Y75 F2000 ; fast wipe
G1 X-15 Y65 F2000 ; fast wipe
G1 X-17 Y70 F2000 ; fast wipe
G1 X-15 Y60 F2000 ; fast wipe
G1 X-17 Y55 F2000 ; fast wipe
G1 X-15 Y50 F2000 ; fast wipe
G1 X-17 Y40 F2000 ; fast wipe
G1 X-15 Y45 F2000 ; fast wipe
G1 X-17 Y35 F2000 ; fast wipe
G1 X-15 Y40 F2000 ; fast wipe
G1 X-17 Y70 F2000 ; fast wipe
G1 X-15 Y30 Z2 F2000 ; fast wipe
G1 X-17 Y35 F2000 ; fast wipe
G1 X-15 Y25 F2000 ; fast wipe
G1 X-17 Y30 F2000 ; fast wipe
G1 X-15 Y25 Z1.5 F1000 ; slow wipe
G1 X-17 Y23 F1000 ; slow wipe
G1 Z10 ; raise extruder
M109 R140 ; wait for extruder to reach probe temp
G1 X-9 Y-9 ; move above first probe point
M204 S100 ; set probing acceleration
G29          ; start auto-leveling sequence
M420 S1      ; enable leveling matrix
M425 Z       ; use measured Z backlash for compensation
M425 Z F0    ; turn off measured Z backlash compensation. (if activated in the quality settings, this command will automatically be ignored)
M204 S500 ; restore standard acceleration
G1 X0 Y0 Z15 F5000 ; move up off last probe point
G4 S1 ; pause
M400 ; wait for moves to finish
M117 Heating... ; progress indicator message on LCD
M109 R220  ; wait for extruder to reach printing temp
M190 R60.0 ; wait for bed to reach printing temp
G1 Z2 E0 F75 ; prime tiny bit of filament into the nozzle
M117 TAZ 6 Printing... ; progress indicator message on LCD

M221 S100 T0
G92 E0
G1 F600 E-1
;LAYER_COUNT:80
;LAYER:0
M107
G0 F2625 X102.914 Y102.796 Z0.425
;TYPE:SKIRT
G1 F600 E0
G1 F900 X104.706 Y101.022 E0.08399
G1 X104.834 Y100.902 E0.08984
G1 X106.88 Y99.085 E0.18099
G1 X107.048 Y98.945 E0.18827
G1 X111.789 Y95.274 E0.388
G1 X112.215 Y94.995 E0.40497
G1 X112.68 Y94.786 E0.42195
G1 X113.171 Y94.651 E0.43891
G1 X113.777 Y94.594 E0.45919
G1 X176.179 Y94.56 E2.53782
G1 X176.687 Y94.6 E2.55479
G1 X177.183 Y94.718 E2.57178
G1 X177.654 Y94.913 E2.58876
G1 X178.088 Y95.179 E2.60571
G1 X178.381 Y95.418 E2.61831
G1 X178.468 Y95.498 E2.62225
G1 X178.611 Y95.637 E2.62889
G1 X178.786 Y95.819 E2.6373
G1 X179.109 Y96.213 E2.65427
G1 X179.367 Y96.653 E2.67126
G1 X179.546 Y97.106 E2.68749
G1 X180.543 Y100.307 E2.79916
G1 X182.406 Y105.46 E2.98169
G1 X184.556 Y110.5 E3.16421
G1 X186.985 Y115.402 E3.34644
G1 X189.694 Y120.171 E3.52914
G1 X191.689 Y123.333 E3.65368
G1 X191.926 Y123.784 E3.67065
G1 X192.09 Y124.266 E3.68761
G1 X192.176 Y124.768 E3.70457
G1 X192.19 Y125.067 E3.71455
G1 X192.19 Y154.934 E4.70943
G1 X192.15 Y155.442 E4.7264
G1 X192.031 Y155.937 E4.74336
G1 X191.836 Y156.408 E4.76034
G1 X191.681 Y156.68 E4.77077
G1 X190.074 Y159.202 E4.87038
G1 X187.322 Y163.97 E5.05376
G1 X184.855 Y168.862 E5.23626
G1 X182.663 Y173.898 E5.41922
G1 X181.679 Y176.45 E5.51033
G1 X180.77 Y179.024 E5.60126
G1 X179.446 Y183.037 E5.74202
G1 X179.249 Y183.506 E5.75896
G1 X178.981 Y183.94 E5.77595
G1 X178.632 Y184.342 E5.79369
G1 X178.456 Y184.514 E5.80188
G1 X178.064 Y184.841 E5.81889
G1 X177.627 Y185.102 E5.83584
G1 X177.154 Y185.292 E5.85282
G1 X176.657 Y185.405 E5.8698
G1 X176.182 Y185.44 E5.88567
G1 X113.76 Y185.405 E7.96497
G1 X113.252 Y185.365 E7.98194
G1 X112.757 Y185.246 E7.9989
G1 X112.286 Y185.051 E8.01588
G1 X111.785 Y184.734 E8.03563
G1 X107.884 Y181.743 E8.19937
G1 X107.734 Y181.621 E8.20581
G1 X104.93 Y179.193 E8.32936
G1 X104.737 Y179.012 E8.33818
G1 X101.694 Y175.909 E8.48295
G1 X101.538 Y175.738 E8.49066
G1 X99.612 Y173.472 E8.58972
G1 X99.516 Y173.354 E8.59479
G1 X98.187 Y171.634 E8.66719
G1 X98.058 Y171.454 E8.67457
G1 X95.674 Y167.891 E8.81737
G1 X95.56 Y167.708 E8.82455
G1 X94.339 Y165.591 E8.90596
G1 X94.238 Y165.402 E8.9131
G1 X92.534 Y161.939 E9.04166
G1 X92.444 Y161.74 E9.04893
G1 X91.247 Y158.828 E9.15381
G1 X91.19 Y158.678 E9.15915
G1 X90.508 Y156.755 E9.22712
G1 X90.443 Y156.552 E9.23422
G1 X89.337 Y152.636 E9.36976
G1 X89.281 Y152.407 E9.37762
G1 X88.577 Y148.978 E9.49422
G1 X88.537 Y148.734 E9.50246
G1 X87.995 Y144.468 E9.6457
G1 X87.972 Y144.187 E9.65509
G1 X87.815 Y140.232 E9.78694
G1 X87.815 Y139.97 E9.79567
G1 X87.985 Y135.831 E9.93365
G1 X87.998 Y135.644 E9.9399
G1 X88.194 Y133.663 E10.00621
G1 X88.222 Y133.451 E10.01333
G1 X88.917 Y129.265 E10.15468
G1 X88.964 Y129.035 E10.1625
G1 X89.726 Y125.877 E10.27071
G1 X89.769 Y125.716 E10.27626
G1 X90.392 Y123.613 E10.34932
G1 X90.46 Y123.407 E10.35655
G1 X91.883 Y119.566 E10.49299
G1 X91.953 Y119.393 E10.49921
G1 X92.805 Y117.445 E10.57003
G1 X92.902 Y117.243 E10.5775
G1 X94.834 Y113.543 E10.71653
G1 X94.929 Y113.373 E10.72302
G1 X96.088 Y111.444 E10.79798
G1 X96.203 Y111.267 E10.80501
G1 X98.552 Y107.878 E10.94237
G1 X98.66 Y107.731 E10.94845
G1 X99.838 Y106.22 E11.01227
G1 X99.985 Y106.045 E11.01988
G1 X102.784 Y102.933 E11.1593
G1 X102.914 Y102.796 E11.16559
G1 F600 E10.16559
G0 F2625 X104.761 Y105.897
;TYPE:SUPPORT
G1 F600 E11.16559
G1 F900 X107.146 Y103.511 E11.27797
G1 X109.333 Y101.578 E11.3752
G1 X113.851 Y98.075 E11.56563
G1 X113.923 Y98.05 E11.56817
G1 X176.083 Y98.05 E13.63874
G1 X176.2 Y98.167 E13.64425
G1 X176.2 Y124.551 E14.52311
G1 X176.699 Y125.05 E14.54662
G1 X188.583 Y125.05 E14.94248
G1 X188.7 Y125.167 E14.94799
G1 X188.7 Y154.833 E15.93618
G1 X188.583 Y154.95 E15.94169
G1 X176.699 Y154.95 E16.33755
G1 X176.2 Y155.449 E16.36105
G1 X176.2 Y181.833 E17.23991
G1 X176.083 Y181.95 E17.24543
G1 X113.904 Y181.95 E19.31663
G1 X113.84 Y181.928 E19.31889
G1 X109.464 Y178.54 E19.50323
G1 X107.115 Y176.464 E19.60766
G1 X104.785 Y174.132 E19.71747
G1 X104.714 Y174.042 E19.72129
G1 X102.749 Y171.809 E19.82037
G1 X100.85 Y169.371 E19.92331
G1 X99.027 Y166.695 E20.03116
G1 X97.486 Y164.089 E20.13201
G1 X97.194 Y163.487 E20.1543
G1 X96.848 Y162.827 E20.17912
G1 X96.046 Y161.252 E20.23799
G1 X94.8 Y158.374 E20.34246
G1 X93.754 Y155.464 E20.44547
G1 X92.885 Y152.477 E20.54909
G1 X92.155 Y149.237 E20.65972
G1 X91.699 Y146.296 E20.75886
G1 X91.603 Y145.474 E20.78642
G1 X91.403 Y143.336 E20.85795
G1 X91.3 Y139.967 E20.97023
G1 X91.4 Y136.847 E21.07421
G1 X91.43 Y136.61 E21.08217
G1 X91.685 Y133.841 E21.17479
G1 X92.195 Y130.63 E21.28309
G1 X92.86 Y127.619 E21.38581
G1 X93.768 Y124.505 E21.49386
G1 X93.852 Y124.291 E21.50151
G1 X94.821 Y121.577 E21.59751
G1 X96.051 Y118.736 E21.70063
G1 X97.444 Y115.991 E21.80317
G1 X99.102 Y113.205 E21.91116
G1 X100.89 Y110.567 E22.01732
G1 X102.749 Y108.166 E22.11846
G1 X104.761 Y105.897 E22.21948
G1 F600 E21.21948
G0 F2625 X101.238 Y136.811
G1 F600 E22.21948
G1 F900 X100.605 Y136.874 E22.24067
G1 X99.97 Y137.075 E22.26286
G1 X99.416 Y137.39 E22.28409
G1 X98.925 Y137.813 E22.30567
G1 X98.532 Y138.329 E22.32728
G1 X98.254 Y138.902 E22.34849
G1 X98.092 Y139.536 E22.37029
G1 X98.065 Y140.179 E22.39173
G1 X98.166 Y140.815 E22.41318
G1 X98.392 Y141.423 E22.43479
G1 X98.743 Y141.971 E22.45646
G1 X99.178 Y142.426 E22.47743
G1 X99.714 Y142.798 E22.49916
G1 X100.303 Y143.046 E22.52045
G1 X100.935 Y143.175 E22.54194
G1 X101.59 Y143.172 E22.56376
G1 X102.223 Y143.038 E22.58531
G1 X102.81 Y142.784 E22.60662
G1 X103.339 Y142.411 E22.62818
G1 X103.775 Y141.952 E22.64926
G1 X104.122 Y141.395 E22.67112
G1 X104.341 Y140.789 E22.69259
G1 X104.437 Y140.152 E22.71405
G1 X104.403 Y139.505 E22.73563
G1 X104.236 Y138.877 E22.75727
G1 X103.954 Y138.305 E22.77852
G1 X103.555 Y137.792 E22.80017
G1 X103.062 Y137.374 E22.8217
G1 X102.497 Y137.059 E22.84324
G1 X101.863 Y136.868 E22.8653
G1 X101.238 Y136.811 E22.8862
G1 F600 E21.8862
G0 F2625 X178.466 Y138.44
G1 F600 E22.8862
G1 F900 X178.212 Y139.027 E22.90751
G1 X178.078 Y139.66 E22.92906
G1 X178.075 Y140.315 E22.95088
G1 X178.204 Y140.947 E22.97237
G1 X178.452 Y141.536 E22.99366
G1 X178.824 Y142.072 E23.01539
G1 X179.279 Y142.507 E23.03636
G1 X179.827 Y142.858 E23.05803
G1 X180.435 Y143.084 E23.07964
G1 X181.071 Y143.185 E23.10109
G1 X181.714 Y143.158 E23.12253
G1 X182.348 Y142.996 E23.14433
G1 X182.921 Y142.718 E23.16554
G1 X183.437 Y142.325 E23.18715
G1 X183.86 Y141.834 E23.20873
G1 X184.175 Y141.28 E23.22996
G1 X184.376 Y140.645 E23.25215
G1 X184.439 Y140.012 E23.27334
G1 X184.382 Y139.387 E23.29424
G1 X184.191 Y138.753 E23.3163
G1 X183.876 Y138.188 E23.33785
G1 X183.458 Y137.695 E23.35938
G1 X182.945 Y137.296 E23.38103
G1 X182.373 Y137.014 E23.40227
G1 X181.745 Y136.847 E23.42392
G1 X181.098 Y136.813 E23.4455
G1 X180.461 Y136.909 E23.46696
G1 X179.855 Y137.128 E23.48842
G1 X179.298 Y137.475 E23.51028
G1 X178.839 Y137.911 E23.53137
G1 X178.466 Y138.44 E23.55293
G1 F600 E22.55293
G0 F2625 X177.876 Y140
G1 F600 E23.55293
G1 F900 X104.628 Y140 E25.99285
G1 F600 E24.99285
G0 F2625 X102.512 Y141.648
G0 X100 Y143.136
G1 F600 E25.99285
G1 F900 X100 Y167.766 E26.81328
G1 F600 E25.81328
G0 F2625 X101.592 Y170
G1 F600 E26.81328
G1 F900 X176 Y170 E29.29184
G1 F600 E28.29184
G0 F2625 X176 Y165
G1 F600 E29.29184
G1 F900 X98.255 Y165 E31.88155
G1 F600 E30.88155
G0 F2625 X95.72 Y160
G1 F600 E31.88155
G1 F900 X176 Y160 E34.55571
G1 F600 E33.55571
G0 F2625 X176.365 Y155
G1 F600 E34.55571
G1 F900 X93.825 Y155 E37.30514
G1 F600 E36.30514
G0 F2625 X95 Y158.333
G1 F600 E37.30514
G1 F900 X95 Y121.668 E38.52647
G1 F600 E37.52647
G0 F2625 X95.721 Y120
G1 F600 E38.52647
G1 F900 X176 Y120 E41.20059
G1 F600 E40.20059
G0 F2625 X176 Y115
G1 F600 E41.20059
G1 F900 X98.267 Y115 E43.78991
G1 F600 E42.78991
G0 F2625 X100 Y112.236
G1 F600 E43.78991
G1 F900 X100 Y136.857 E44.61004
G1 F600 E43.61004
G0 F2625 X97.871 Y140
G1 F600 E44.61004
G1 F900 X91.499 Y140 E44.82229
G1 F600 E43.82229
G0 F2625 X91.758 Y145
G1 F600 E44.82229
G1 F900 X188.5 Y145 E48.0448
G1 F600 E47.0448
G0 F2625 X188.5 Y140
G1 F600 E48.0448
G1 F900 X184.638 Y140 E48.17345
G1 F600 E47.17345
G0 F2625 X182.578 Y141.61
G0 X180 Y143.136
G1 F600 E48.17345
G1 F900 X180 Y154.75 E48.56032
G1 F600 E47.56032
G0 F2625 X185 Y154.75
G1 F600 E48.56032
G1 F900 X185 Y125.25 E49.54297
G1 F600 E48.54297
G0 F2625 X180 Y125.25
G1 F600 E49.54297
G1 F900 X180 Y136.863 E49.9298
G1 F600 E48.9298
G0 F2625 X188.5 Y135
G1 F600 E49.9298
G1 F900 X91.778 Y135 E53.15165
G1 F600 E52.15165
G0 F2625 X92.538 Y130
G1 F600 E53.15165
G1 F900 X188.5 Y130 E56.34818
G1 F600 E55.34818
G0 F2625 X176.366 Y125
G1 F600 E56.34818
G1 F900 X93.832 Y125 E59.09742
G1 F600 E58.09742
G0 F2625 X101.582 Y110
G1 F600 E59.09742
G1 F900 X176 Y110 E61.57631
G1 F600 E60.57631
G0 F2625 X176 Y105
G1 F600 E61.57631
G1 F900 X105.942 Y105 E63.90996
G1 F600 E62.90996
G0 F2625 X105 Y105.941
G1 F600 E63.90996
G1 F900 X105 Y174.063 E66.17913
G1 F600 E65.17913
G0 F2625 X105.935 Y175
G1 F600 E66.17913
G1 F900 X176 Y175 E68.51302
G1 F600 E67.51302
G0 F2625 X176 Y180
G1 F600 E68.51302
G1 F900 X111.675 Y180 E70.65571
G1 F600 E69.65571
G0 F2625 X110 Y178.702
G1 F600 E70.65571
G1 F900 X110 Y101.313 E73.23357
G1 F600 E72.23357
G0 F2625 X111.695 Y100
G1 F600 E73.23357
G1 F900 X176 Y100 E75.37559
G1 F600 E74.37559
G0 F2625 X175 Y98.25
G1 F600 E75.37559
G1 F900 X175 Y181.75 E78.157
G1 F600 E77.157
G0 F2625 X170 Y181.75
G1 F600 E78.157
G1 F900 X170 Y98.25 E80.93842
G1 F600 E79.93842
G0 F2625 X165 Y98.25
G1 F600 E80.93842
G1 F900 X165 Y181.75 E83.71983
G1 F600 E82.71983
G0 F2625 X160 Y181.75
G1 F600 E83.71983
G1 F900 X160 Y98.25 E86.50125
G1 F600 E85.50125
G0 F2625 X155 Y98.25
G1 F600 E86.50125
G1 F900 X155 Y181.75 E89.28266
G1 F600 E88.28266
G0 F2625 X150 Y181.75
G1 F600 E89.28266
G1 F900 X150 Y98.25 E92.06408
G1 F600 E91.06408
G0 F2625 X145 Y98.25
G1 F600 E92.06408
G1 F900 X145 Y181.75 E94.84549
G1 F600 E93.84549
G0 F2625 X140 Y181.75
G1 F600 E94.84549
G1 F900 X140 Y98.25 E97.62691
G1 F600 E96.62691
G0 F2625 X135 Y98.25
G1 F600 E97.62691
G1 F900 X135 Y181.75 E100.40832
G1 F600 E99.40832
G0 F2625 X130 Y181.75
G1 F600 E100.40832
G1 F900 X130 Y98.25 E103.18974
G1 F600 E102.18974
G0 F2625 X125 Y98.25
G1 F600 E103.18974
G1 F900 X125 Y181.75 E105.97115
G1 F600 E104.97115
G0 F2625 X120 Y181.75
G1 F600 E105.97115
G1 F900 X120 Y98.25 E108.75257
G1 F600 E107.75257
G0 F2625 X115 Y98.25
G1 F600 E108.75257
G1 F900 X115 Y181.75 E111.53399
G1 F600 E110.53399
G0 F2625 X92.531 Y150
G1 F600 E111.53399
G1 F900 X188.5 Y150 E114.73075
G1 F600 E113.73075
;MESH:
G0 F2625 X103.315 Y140.311
G0 X101.904 Y140.101
G0 X101.31 Y139.422
G0 X101.319 Y139.323
;TYPE:WALL-INNER
G1 F600 E114.73075
G1 F900 X101.459 Y139.351 E114.7355
G1 X101.577 Y139.402 E114.73978
G1 X101.697 Y139.486 E114.74466
G1 X101.786 Y139.58 E114.74898
G1 X101.859 Y139.694 E114.75349
G1 X101.91 Y139.833 E114.75842
G1 X101.93 Y139.966 E114.7629
G1 X101.923 Y140.104 E114.7675
G1 X101.886 Y140.242 E114.77226
G1 X101.832 Y140.354 E114.7764
G1 X101.745 Y140.469 E114.7812
G1 X101.634 Y140.563 E114.78605
G1 X101.521 Y140.626 E114.79036
G1 X101.389 Y140.667 E114.79496
G1 X101.25 Y140.681 E114.79962
G1 X101.111 Y140.667 E114.80427
G1 X100.979 Y140.626 E114.80887
G1 X100.866 Y140.563 E114.81318
G1 X100.755 Y140.469 E114.81803
G1 X100.668 Y140.354 E114.82283
G1 X100.614 Y140.242 E114.82697
G1 X100.577 Y140.104 E114.83173
G1 X100.57 Y139.966 E114.83634
G1 X100.59 Y139.833 E114.84082
G1 X100.641 Y139.694 E114.84575
G1 X100.714 Y139.58 E114.85026
G1 X100.803 Y139.486 E114.85457
G1 X100.923 Y139.402 E114.85945
G1 X101.041 Y139.351 E114.86373
G1 X101.181 Y139.323 E114.86849
G1 X101.319 Y139.323 E114.87308
G0 F2625 X101.374 Y138.825
;TYPE:WALL-OUTER
G1 F900 X101.484 Y138.841 E114.87679
G1 X101.609 Y138.874 E114.88109
G1 X101.72 Y138.914 E114.88502
G1 X101.822 Y138.965 E114.88882
G1 X101.923 Y139.028 E114.89279
G1 X102.022 Y139.105 E114.89696
G1 X102.108 Y139.186 E114.9009
G1 X102.181 Y139.272 E114.90466
G1 X102.255 Y139.378 E114.90896
G1 X102.311 Y139.478 E114.91278
G1 X102.357 Y139.587 E114.91672
G1 X102.393 Y139.701 E114.9207
G1 X102.419 Y139.823 E114.92486
G1 X102.43 Y139.94 E114.92877
G1 X102.43 Y140.06 E114.93277
G1 X102.419 Y140.177 E114.93669
G1 X102.393 Y140.299 E114.94084
G1 X102.357 Y140.413 E114.94482
G1 X102.311 Y140.522 E114.94876
G1 X102.255 Y140.622 E114.95258
G1 X102.181 Y140.728 E114.95689
G1 X102.108 Y140.814 E114.96065
G1 X102.022 Y140.895 E114.96458
G1 X101.923 Y140.972 E114.96876
G1 X101.822 Y141.035 E114.97272
G1 X101.72 Y141.086 E114.97652
G1 X101.609 Y141.126 E114.98045
G1 X101.484 Y141.159 E114.98476
G1 X101.374 Y141.175 E114.98846
G1 X101.25 Y141.181 E114.9926
G1 X101.126 Y141.175 E114.99673
G1 X101.016 Y141.159 E115.00044
G1 X100.891 Y141.126 E115.00474
G1 X100.78 Y141.086 E115.00867
G1 X100.678 Y141.035 E115.01247
G1 X100.577 Y140.972 E115.01644
G1 X100.478 Y140.895 E115.02061
G1 X100.392 Y140.814 E115.02455
G1 X100.319 Y140.728 E115.02831
G1 X100.245 Y140.622 E115.03261
G1 X100.189 Y140.522 E115.03643
G1 X100.143 Y140.413 E115.04037
G1 X100.107 Y140.299 E115.04435
G1 X100.081 Y140.177 E115.04851
G1 X100.07 Y140.06 E115.05242
G1 X100.07 Y139.94 E115.05642
G1 X100.081 Y139.823 E115.06034
G1 X100.107 Y139.701 E115.06449
G1 X100.143 Y139.587 E115.06847
G1 X100.189 Y139.478 E115.07241
G1 X100.245 Y139.378 E115.07623
G1 X100.319 Y139.272 E115.08054
G1 X100.392 Y139.186 E115.08429
G1 X100.478 Y139.105 E115.08823
G1 X100.577 Y139.028 E115.09241
G1 X100.678 Y138.965 E115.09637
G1 X100.78 Y138.914 E115.10017
G1 X100.891 Y138.874 E115.1041
G1 X101.016 Y138.841 E115.10841
