;Generated by Cura LulzBot Edition GCodeWriter Version: 3.6.23
;FLAVOR:Marlin
;TIME:854
;Filament used: 0.234778m, 0.0252911m
;Layer height: 0.25
;Generated with Cura_SteamEngine 3.6.23
T0
M82 ;absolute extrusion mode
; This profile is designed specifically for the LulzBot TAZ Pro with Dual Extruder Tool Head
M73 P0                                    ; clear GLCD progress bar
M75			     	          ; start GLCD timer
M107                                      ; disable fans
G90                                       ; absolute positioning
M420 S0                                   ; disable previous leveling matrix
M140 S70.0  ; begin bed temping up
M104 S180 T0  ; soften filament
M104 S180 T1  ; soften filament
G28                                       ; home
M117 Heating...                           ; LCD status message
M109 R180 T0  ; wait for temp
M109 R180 T1  ; wait for temp
T0                                        ; select this extruder first
M82                                       ; set extruder to absolute mode
G92 E0                                    ; set extruder to zero
G1 E-10 F100                              ; retract 10mm of filament on first extruder
G0 X50 F1000                              ; move over to switch extruders
T1                                        ; switch extruders
M82                                       ; set extruder to absolute mode
G92 E0                                    ; set extruder to zero
G1  E-10 F100                             ; retract 10mm of filament on second extruder
M104 S170 T0    ; set to wipe temp
M104 S170 T1    ; set to wipe temp
M106                                      ; turn on fans to speed cooling
T0                                        ; select first extruder for probing
G1 X-16.5 Y100 F2000                      ; move above wiper pad
M117 Cooling...                           ; LCD status message
M109 R170 T0    ; wait for T0 to reach temp
M109 R170 T1    ; wait for T1 to reach temp
M107                                      ; turn off fan
G1 Z 1.0                                  ; push nozzle into wiper
G1 X -16.5 Y100 F1000                     ; slow wipe
G1 X -16.5 Y90 F1000                      ; slow wipe
G1 X -15.5 Y86 F2000                      ; fast wipe
G1 X -17.5 Y80 F2000                      ; fast wipe
G1 X -15.5 Y74 F2000                      ; fast wipe
G1 X -17.5 Y70 F2000                      ; fast wipe
G1 X -16.5 Y68 F1000                      ; slow wipe
G1 X -16.5 Y60 F1000                      ; slow wipe
G1 X -14.5 Y60 F1000                      ; slow wipe
G1 X -14.5 Y46 F1000                      ; slow wipe
G1 X -17.5 Y46 F1000                      ; slow wipe
G1 X -17.5 Y60 F1000                      ; slow wipe
G1 X -14.5 Y60 F1000                      ; slow wipe
G1 X -14.5 Y46 F1000                      ; slow wipe
G1 X -17.5 Y46 F1000                      ; slow wipe
G1 X -17.5 Y60 F1000                      ; slow wipe
G1 X -14.5 Y60 F1000                      ; slow wipe
G1 X -14.5 Y46 F1000                      ; slow wipe
G1 X -17.5 Y46 F1000                      ; slow wipe
G1 X -17.5 Y60 F1000                      ; slow wipe
G1 X -16.5 Y60 F1000                      ; slow wipe
G1 X -16.5 Y42 F1000                      ; slow wipe
G1 X -15.5 Y40 F2000                      ; fast wipe
G1 X -17.5 Y38 F2000                      ; fast wipe
G1 X -15.5 Y36 F2000                      ; fast wipe
G1 X -17.5 Y34 F2000                      ; fast wipe
G1 X -16.5 Y30 F1000                      ; slow wipe
G1 X -16.5 Y19 F1000                      ; slow wipe
G1 X -16.5 Y19 Z20 F1000                  ; raise extruder
M106 S255                                 ; turn on fan to blow away fuzzies
G4 S5                                     ; wait 5 seconds
M107                                      ; turn off fan
G0 X50 F1000                              ; move over to switch extruders
T1                                        ; switch to second extruder
G1 X296.5 Y100  F5000                     ; move E2 above second wiper pad
G1 Z 1.0                                  ; push nozzle into wiper
G1 X 296.5 Y100 F1000                     ; slow wipe
G1 X 296.5 Y90 F1000                      ; slow wipe
G1 X 297.5 Y86 F2000                      ; fast wipe
G1 X 295.5 Y80 F2000                      ; fast wipe
G1 X 297.5 Y74 F2000                      ; fast wipe
G1 X 295.5 Y70 F2000                      ; fast wipe
G1 X 296.5 Y68 F1000                      ; slow wipe
G1 X 296.5 Y60 F1000                      ; slow wipe
G1 X 298 Y60 F1000                        ; slow wipe
G1 X 298 Y46 F1000                        ; slow wipe
G1 X 295 Y46 F1000                        ; slow wipe
G1 X 295 Y60 F1000                        ; slow wipe
G1 X 298 Y60 F1000                        ; slow wipe
G1 X 298 Y46 F1000                        ; slow wipe
G1 X 295 Y46 F1000                        ; slow wipe
G1 X 295 Y60 F1000                        ; slow wipe
G1 X 298 Y60 F1000                        ; slow wipe
G1 X 298 Y46 F1000                        ; slow wipe
G1 X 295 Y46 F1000                        ; slow wipe
G1 X 295 Y60 F1000                        ; slow wipe
G1 X 296.5 Y60 F1000                      ; slow wipe
G1 X 296.5 Y42 F1000                      ; slow wipe
G1 X 297.5 Y40 F2000                      ; fast wipe
G1 X 295.5 Y38 F2000                      ; fast wipe
G1 X 297.5 Y36 F2000                      ; fast wipe
G1 X 295.5 Y34 F2000                      ; fast wipe
G1 X 297.5 Y30 F1000                      ; slow wipe
G1 X 296.5 Y19 F1000                      ; slow wipe
G1 X 296.5 Y19 Z20 F1000                  ; raise extruder
M106 S255                                 ; turn on fan to blow away fuzzies
G4 S5                                     ; wait 5 seconds
M107                                      ; turn off fan
G0 X247 F1000                             ; move over to switch extruders
T0                                        ; switch to first extruder
M109 R160      ; heat to probe temp
M204 S100                                 ; set accel for probing
G29                                       ; probe sequence (for auto-leveling)
M420 S1                                   ; enable leveling matrix
M204 S500                                 ; set accel back to normal
M104 S220  T0  ; set extruder temp
M104 S220  T1  ; set extruder temp
G1 X100 Y-29 Z0.5 F3000                   ; move to open space
M400                                      ; clear buffer
M117 Heating...                           ; LCD status message
M109 R220  T0  ; set extruder temp and wait
M109 R220  T1  ; set extruder temp and wait
M117 Purging...                           ; LCD status message
T0                                        ; select this extruder first
G1 E0 F100		    	          ; undo retraction
G92 E-30				  ; set extruder negative amount to purge
G1 E0 F100				  ; purge XXmm of filament
G1 E-3 F200                               ; purge retraction
G1 Z0.45                                  ; clear bed (barely)
G1 X100 Y10 F4000                         ; move above bed to shear off filament
M106 S255                                 ; turn on fan
G4 S7                                     ; wait 7 seconds
M107                                      ; turn off fan
G1 X180 Y-29 Z0.45 F3000                  ; move to open space
T1                                        ; set extruder
G1 E0 F100                                ; undo retraction
G92 E-30                                  ; set extruder negative amount to purge
G1 E0 F100                                ; purge XXmm of filament
G1 E-4 F200                               ; purge retraction
G1 Z0.35                                  ; clear bed (barely)
G1 X180 Y10 F4000                         ; move above bed to shear off filament
T0                                        : set extruder
M190 R70.0  ; get bed temping up during first layer
G1 Z2 E0 F75                              ; raise head and 0 extruder
M82					  ; set to absolute mode
M400                                      ; clear buffer
M117 TAZ Printing...                      ; LCD status message

M221 S100 T0
M221 S100 T1
G92 E0
G1 F900 E-1
;LAYER_COUNT:21
;LAYER:0
M107
M104 T1 S180
G0 F4200 X129.582 Y113.03 Z0.4
;TYPE:SKIRT
G1 F900 E0
G1 F600 X129.854 Y112.409 E0.02125
G1 X130.198 Y111.825 E0.0425
G1 X130.607 Y111.284 E0.06377
G1 X131.078 Y110.796 E0.08503
G1 X131.602 Y110.367 E0.10626
G1 X132.174 Y110.002 E0.12753
G1 X132.784 Y109.707 E0.14878
G1 X133.425 Y109.486 E0.17003
G1 X134.088 Y109.342 E0.1913
G1 X135.078 Y109.274 E0.22241
G1 X139.985 Y109.361 E0.37628
G1 X146.21 Y109.265 E0.57146
G1 X146.331 Y109.264 E0.57525
G1 X151.478 Y109.293 E0.73662
G1 X152.155 Y109.337 E0.75789
G1 X152.822 Y109.46 E0.77915
G1 X153.469 Y109.661 E0.80039
G1 X154.089 Y109.936 E0.82166
G1 X154.671 Y110.283 E0.8429
G1 X155.209 Y110.695 E0.86414
G1 X155.695 Y111.169 E0.88543
G1 X156.121 Y111.696 E0.90667
G1 X156.483 Y112.269 E0.92792
G1 X156.831 Y113.028 E0.9541
G1 X157.616 Y115.126 E1.02433
G1 X160.231 Y121.282 E1.23401
G1 X160.459 Y121.92 E1.25525
G1 X160.61 Y122.581 E1.27651
G1 X160.689 Y123.524 E1.30618
G1 X160.699 Y133.793 E1.62812
G1 X160.698 Y133.909 E1.63176
G1 X160.554 Y141.453 E1.86831
G1 X160.683 Y145.21 E1.98617
G1 X160.686 Y145.405 E1.99228
G1 X160.689 Y156.502 E2.34018
G1 X160.649 Y157.179 E2.36144
G1 X160.53 Y157.847 E2.38272
G1 X160.333 Y158.495 E2.40395
G1 X160.181 Y158.868 E2.41658
G1 X159.188 Y161.071 E2.49234
G1 X156.784 Y167.125 E2.69655
G1 X156.497 Y167.739 E2.7178
G1 X156.14 Y168.315 E2.73904
G1 X155.718 Y168.845 E2.76028
G1 X155.236 Y169.322 E2.78154
G1 X154.701 Y169.739 E2.80281
G1 X154.121 Y170.09 E2.82406
G1 X153.504 Y170.37 E2.84531
G1 X152.858 Y170.576 E2.86656
G1 X152.192 Y170.704 E2.88782
G1 X151.416 Y170.753 E2.9122
G1 X139.067 Y170.702 E3.29936
G1 X135.049 Y170.754 E3.42534
G1 X134.372 Y170.722 E3.44658
G1 X133.703 Y170.612 E3.46784
G1 X133.052 Y170.423 E3.48909
G1 X132.427 Y170.159 E3.51036
G1 X131.838 Y169.823 E3.53162
G1 X131.293 Y169.42 E3.55287
G1 X130.799 Y168.956 E3.57412
G1 X130.363 Y168.437 E3.59537
G1 X129.991 Y167.871 E3.6166
G1 X129.688 Y167.264 E3.63787
G1 X129.459 Y166.626 E3.65912
G1 X129.306 Y165.966 E3.68037
G1 X129.225 Y165.004 E3.71063
G1 X129.226 Y115.023 E5.27758
G1 X129.266 Y114.346 E5.29884
G1 X129.385 Y113.679 E5.32009
G1 X129.582 Y113.03 E5.34135
G0 F4200 X130.082 Y113.123
G1 F600 X130.353 Y112.534 E5.36168
G1 X130.695 Y111.984 E5.38198
G1 X131.102 Y111.48 E5.40229
G1 X131.568 Y111.03 E5.4226
G1 X132.085 Y110.64 E5.4429
G1 X132.647 Y110.318 E5.46321
G1 X133.244 Y110.067 E5.48351
G1 X133.868 Y109.891 E5.50384
G1 X134.508 Y109.794 E5.52413
G1 X135.07 Y109.774 E5.54176
G1 X139.985 Y109.862 E5.69588
G1 X146.218 Y109.765 E5.89131
G1 X146.329 Y109.764 E5.89479
G1 X151.476 Y109.793 E6.05616
G1 X152.122 Y109.837 E6.07646
G1 X152.758 Y109.96 E6.09676
G1 X153.374 Y110.16 E6.11707
G1 X153.961 Y110.434 E6.13738
G1 X154.509 Y110.779 E6.15768
G1 X155.011 Y111.189 E6.178
G1 X155.458 Y111.657 E6.19829
G1 X155.845 Y112.177 E6.21861
G1 X156.164 Y112.741 E6.23893
G1 X156.363 Y113.203 E6.2547
G1 X157.152 Y115.311 E6.32526
G1 X159.771 Y121.477 E6.53529
G1 X159.987 Y122.088 E6.5556
G1 X160.126 Y122.721 E6.57592
G1 X160.189 Y123.525 E6.6012
G1 X160.199 Y133.794 E6.92315
G1 X160.198 Y133.899 E6.92644
G1 X160.054 Y141.46 E7.16353
G1 X160.183 Y145.227 E7.2817
G1 X160.186 Y145.406 E7.28731
G1 X160.189 Y156.503 E7.63521
G1 X160.149 Y157.149 E7.6555
G1 X160.03 Y157.786 E7.67582
G1 X159.725 Y158.662 E7.7049
G1 X158.726 Y160.877 E7.78108
G1 X156.319 Y166.94 E7.98559
G1 X156.044 Y167.526 E8.00588
G1 X155.698 Y168.074 E8.0262
G1 X155.287 Y168.575 E8.04652
G1 X154.818 Y169.022 E8.06683
G1 X154.298 Y169.407 E8.08711
G1 X153.733 Y169.726 E8.10745
G1 X153.134 Y169.972 E8.12775
G1 X152.51 Y170.143 E8.14804
G1 X151.868 Y170.235 E8.16837
G1 X151.418 Y170.253 E8.18249
G1 X139.063 Y170.202 E8.56984
G1 X135.043 Y170.254 E8.69588
G1 X134.396 Y170.222 E8.71619
G1 X133.757 Y170.111 E8.73652
G1 X133.138 Y169.922 E8.75681
G1 X132.546 Y169.658 E8.77713
G1 X131.991 Y169.324 E8.79744
G1 X131.482 Y168.923 E8.81775
G1 X131.026 Y168.463 E8.83806
G1 X130.63 Y167.951 E8.85835
G1 X130.3 Y167.393 E8.87868
G1 X130.042 Y166.799 E8.89898
G1 X129.858 Y166.178 E8.91929
G1 X129.752 Y165.539 E8.93959
G1 X129.725 Y165.004 E8.95639
G1 X129.726 Y115.023 E10.52334
G1 X129.766 Y114.376 E10.54366
G1 X129.885 Y113.74 E10.56394
G1 X130.082 Y113.123 E10.58425
G1 F900 E9.58425
G1 F180 Z1.4
;MESH:
G0 F4200 X147.202 Y117.256 Z1.4
;TYPE:WALL-INNER
G1 F180 Z0.4
G1 F900 E10.58425
G1 F600 X147.202 Y117.757 E10.59996
G1 X147.202 Y145.256 E11.46208
G1 X144.702 Y145.256 E11.54045
G1 X144.702 Y152.294 E11.7611
G1 X144.702 Y152.388 E11.76405
G1 X144.702 Y152.555 E11.76928
G1 X144.702 Y152.774 E11.77615
G1 X144.497 Y152.555 E11.77952
G1 X144.301 Y152.388 E11.78519
G1 X144.224 Y152.335 E11.78787
G1 X144.088 Y152.241 E11.79305
G1 X143.862 Y152.112 E11.80121
G1 X143.626 Y152.005 E11.80933
G1 X143.381 Y151.915 E11.81751
G1 X143.124 Y151.845 E11.82587
G1 X142.862 Y151.795 E11.83423
G1 X142.601 Y151.766 E11.84246
G1 X142.335 Y151.756 E11.85081
G1 X142.069 Y151.766 E11.85915
G1 X141.808 Y151.795 E11.86738
G1 X141.546 Y151.845 E11.87575
G1 X141.291 Y151.915 E11.88404
G1 X141.045 Y152.004 E11.89224
G1 X140.807 Y152.113 E11.90045
G1 X140.582 Y152.241 E11.90856
G1 X140.371 Y152.387 E11.9166
G1 X140.173 Y152.554 E11.92473
G1 X139.994 Y152.74 E11.93282
G1 X139.838 Y152.94 E11.94077
G1 X139.703 Y153.157 E11.94878
G1 X139.595 Y153.39 E11.95683
G1 X139.516 Y153.632 E11.96481
G1 X139.467 Y153.883 E11.97283
G1 X139.451 Y154.139 E11.98087
G1 X139.467 Y154.395 E11.98892
G1 X139.516 Y154.647 E11.99696
G1 X139.595 Y154.889 E12.00494
G1 X139.703 Y155.12 E12.01294
G1 X139.837 Y155.338 E12.02096
G1 X139.995 Y155.54 E12.029
G1 X140.175 Y155.725 E12.03709
G1 X140.371 Y155.89 E12.04513
G1 X140.582 Y156.038 E12.05321
G1 X140.807 Y156.165 E12.06131
G1 X141.044 Y156.275 E12.0695
G1 X141.294 Y156.364 E12.07782
G1 X141.546 Y156.434 E12.08602
G1 X141.806 Y156.483 E12.09431
G1 X142.069 Y156.513 E12.10261
G1 X142.335 Y156.523 E12.11096
G1 X142.601 Y156.513 E12.1193
G1 X142.864 Y156.483 E12.1276
G1 X143.124 Y156.434 E12.13589
G1 X143.379 Y156.364 E12.14418
G1 X143.626 Y156.274 E12.15243
G1 X143.862 Y156.166 E12.16056
G1 X144.088 Y156.038 E12.16871
G1 X144.224 Y155.943 E12.17391
G1 X144.3 Y155.89 E12.17681
G1 X144.497 Y155.725 E12.18487
G1 X144.702 Y155.506 E12.19427
G1 X144.702 Y155.725 E12.19512
G1 X144.702 Y155.89 E12.19676
G1 X144.702 Y155.983 E12.19942
G1 X144.702 Y162.271 E12.39656
G1 X136.208 Y162.271 E12.66285
G1 X136.204 Y164.264 E12.72534
G1 X135.716 Y164.264 E12.74064
G1 X135.716 Y162.271 E12.80187
G1 X135.716 Y145.773 E13.3191
G1 X138.719 Y145.773 E13.41324
G1 X138.719 Y122.256 E14.15052
G1 X135.716 Y122.256 E14.24467
G1 X135.716 Y117.757 E14.38572
G1 X135.716 Y115.764 E14.4482
G1 X136.202 Y115.764 E14.46344
G1 X136.202 Y117.757 E14.52417
G1 X146.719 Y117.757 E14.85389
G1 X146.719 Y117.256 E14.86906
G1 X146.719 Y115.764 E14.91583
G1 X150.697 Y115.764 E15.04055
G1 X150.697 Y117.256 E15.08732
G1 X147.202 Y117.256 E15.1969
G1 F900 E14.1969
G1 F180 Z1.4
G0 F4200 X154.199 Y133.756 Z1.4
G1 F180 Z0.4
G1 F900 E15.1969
G1 F600 X150.719 Y133.756 E15.306
G1 X150.719 Y124.273 E15.6033
G1 X154.199 Y124.273 E15.7124
G1 X154.199 Y133.756 E16.0097
G1 F900 E15.0097
G1 F180 Z1.4
G0 F4200 X154.199 Y155.756 Z1.4
G1 F180 Z0.4
G1 F900 E16.0097
G1 F600 X150.719 Y155.756 E16.1188
G1 X150.719 Y146.273 E16.4161
G1 X154.199 Y146.273 E16.5252
G1 X154.199 Y155.756 E16.8225
G1 F900 E15.8225
G1 F180 Z1.4
G0 F4200 X150.697 Y164.264 Z1.4
G1 F180 Z0.4
G1 F900 E16.8225
G1 F600 X146.719 Y164.264 E16.94722
G1 X146.719 Y162.773 E16.99396
G1 X150.697 Y162.773 E17.11868
G1 X150.697 Y164.264 E17.16542
G1 F900 E16.16542
G1 F180 Z1.4
G0 F4200 X144.72 Y154.139 Z1.4
;TYPE:WALL-OUTER
G1 F180 Z0.4
G1 F900 E17.16542
