;Generated by Cura LulzBot Edition GCodeWriter Version: 3.6.23
;FLAVOR:Marlin
;TIME:1048
;Filament used: 0.255168m
;Layer height: 0.14
;Generated with Cura_SteamEngine 3.6.23
M82 ;absolute extrusion mode
;This G-Code has been generated specifically for the LulzBot TAZ 6 with Aerosturder
M73 P0 ; clear GLCD progress bar
M75 ; start GLCD timer
G26 ; clear potential 'probe fail' condition
M107 ; disable fans
M420 S0 ; disable leveling matrix
G90 ; absolute positioning
M82 ; set extruder to absolute mode
G92 E0 ; set extruder position to 0
M140 S60.0 ; start bed heating up
G28 XY ; home X and Y
G1 X-19 Y258 F1000 ; move to safe homing position
M109 R140 ; soften filament before homing Z
G28 Z ; home Z
G1 E-15 F100 ; retract filament
M109 R140 ; wait for extruder to reach wiping temp
G1 X-15 Y100 F3000 ; move above wiper pad
G1 Z1 ; push nozzle into wiper
G1 X-17 Y95 F1000 ; slow wipe
G1 X-17 Y90 F1000 ; slow wipe
G1 X-17 Y85 F1000 ; slow wipe
G1 X-15 Y90 F1000 ; slow wipe
G1 X-17 Y80 F1000 ; slow wipe
G1 X-15 Y95 F1000 ; slow wipe
G1 X-17 Y75 F2000 ; fast wipe
G1 X-15 Y65 F2000 ; fast wipe
G1 X-17 Y70 F2000 ; fast wipe
G1 X-15 Y60 F2000 ; fast wipe
G1 X-17 Y55 F2000 ; fast wipe
G1 X-15 Y50 F2000 ; fast wipe
G1 X-17 Y40 F2000 ; fast wipe
G1 X-15 Y45 F2000 ; fast wipe
G1 X-17 Y35 F2000 ; fast wipe
G1 X-15 Y40 F2000 ; fast wipe
G1 X-17 Y70 F2000 ; fast wipe
G1 X-15 Y30 Z2 F2000 ; fast wipe
G1 X-17 Y35 F2000 ; fast wipe
G1 X-15 Y25 F2000 ; fast wipe
G1 X-17 Y30 F2000 ; fast wipe
G1 X-15 Y25 Z1.5 F1000 ; slow wipe
G1 X-17 Y23 F1000 ; slow wipe
G1 Z10 ; raise extruder
M109 R140 ; wait for extruder to reach probe temp
G1 X-9 Y-9 ; move above first probe point
M204 S100 ; set probing acceleration
G29          ; start auto-leveling sequence
M420 S1      ; enable leveling matrix
M425 Z       ; use measured Z backlash for compensation
M425 Z F0    ; turn off measured Z backlash compensation. (if activated in the quality settings, this command will automatically be ignored)
M204 S500 ; restore standard acceleration
G1 X0 Y0 Z15 F5000 ; move up off last probe point
G4 S1 ; pause
M400 ; wait for moves to finish
M117 Heating... ; progress indicator message on LCD
M109 R220  ; wait for extruder to reach printing temp
M190 R60.0 ; wait for bed to reach printing temp
G1 Z2 E0 F75 ; prime tiny bit of filament into the nozzle
M117 TAZ 6 Printing... ; progress indicator message on LCD

M221 S100 T0
G92 E0
G1 F600 E-1.5
;LAYER_COUNT:36
;LAYER:0
M107
G0 F2625 X127.225 Y112.507 Z0.425
;TYPE:SKIRT
G1 F600 E0
G1 F900 X127.619 Y112.127 E0.01823
G1 X128.064 Y111.808 E0.03647
G1 X128.551 Y111.558 E0.05471
G1 X129.069 Y111.381 E0.07294
G1 X129.607 Y111.282 E0.09116
G1 X130.085 Y111.26 E0.1071
G1 X134.993 Y111.347 E0.27062
G1 X141.283 Y111.25 E0.48016
G1 X141.362 Y111.25 E0.48279
G1 X146.509 Y111.279 E0.65424
G1 X147.055 Y111.322 E0.67249
G1 X147.588 Y111.444 E0.6907
G1 X148.099 Y111.642 E0.70896
G1 X148.574 Y111.913 E0.72717
G1 X149.006 Y112.25 E0.74542
G1 X149.383 Y112.646 E0.76364
G1 X149.7 Y113.093 E0.78189
G1 X150.001 Y113.716 E0.80494
G1 X150.781 Y115.802 E0.87912
G1 X153.434 Y122.05 E1.10523
G1 X153.61 Y122.568 E1.12345
G1 X153.71 Y123.107 E1.14171
G1 X153.732 Y123.512 E1.15523
G1 X153.742 Y133.781 E1.49729
G1 X153.741 Y133.857 E1.49982
G1 X153.596 Y141.451 E1.75283
G1 X153.727 Y145.264 E1.87991
G1 X153.729 Y145.392 E1.88418
G1 X153.732 Y156.489 E2.25382
G1 X153.692 Y157.035 E2.27206
G1 X153.573 Y157.569 E2.29028
G1 X153.401 Y158.03 E2.30667
G1 X152.364 Y160.333 E2.39081
G1 X150.314 Y165.432 E2.57387
G1 X150.31 Y165.448 E2.57442
G1 X149.994 Y166.298 E2.60462
G1 X149.766 Y166.795 E2.62284
G1 X149.469 Y167.255 E2.64108
G1 X149.107 Y167.666 E2.65932
G1 X148.69 Y168.02 E2.67754
G1 X148.225 Y168.31 E2.6958
G1 X147.724 Y168.528 E2.714
G1 X147.195 Y168.672 E2.73226
G1 X146.45 Y168.741 E2.75718
G1 X135.185 Y168.652 E3.13243
G1 X133.507 Y168.7 E3.18835
G1 X133.444 Y168.702 E3.19045
G1 X130.06 Y168.741 E3.30318
G1 X129.514 Y168.707 E3.3214
G1 X128.978 Y168.594 E3.33965
G1 X128.465 Y168.405 E3.35786
G1 X127.984 Y168.142 E3.37612
G1 X127.547 Y167.813 E3.39434
G1 X127.163 Y167.423 E3.41258
G1 X126.839 Y166.982 E3.4308
G1 X126.583 Y166.498 E3.44904
G1 X126.4 Y165.982 E3.46728
G1 X126.295 Y165.445 E3.48551
G1 X126.267 Y164.991 E3.50066
G1 X126.268 Y115.009 E5.16558
G1 X126.308 Y114.463 E5.18381
G1 X126.427 Y113.929 E5.20204
G1 X126.622 Y113.418 E5.22025
G1 X126.89 Y112.94 E5.23851
G1 X127.225 Y112.507 E5.25674
G0 F2625 X127.718 Y112.713
G1 F900 X128.105 Y112.381 E5.27373
G1 X128.54 Y112.115 E5.29071
G1 X129.01 Y111.919 E5.30768
G1 X129.505 Y111.8 E5.32464
G1 X130.076 Y111.76 E5.3437
G1 X134.992 Y111.848 E5.50748
G1 X141.291 Y111.75 E5.71733
G1 X141.359 Y111.75 E5.71959
G1 X146.506 Y111.779 E5.89105
G1 X147.014 Y111.822 E5.90803
G1 X147.509 Y111.943 E5.925
G1 X147.978 Y112.141 E5.94196
G1 X148.412 Y112.409 E5.95895
G1 X148.797 Y112.742 E5.97591
G1 X149.126 Y113.131 E5.99288
G1 X149.391 Y113.567 E6.00987
G1 X149.532 Y113.891 E6.02164
G1 X150.319 Y115.995 E6.09647
G1 X152.973 Y122.246 E6.32268
G1 X153.135 Y122.729 E6.33965
G1 X153.22 Y123.231 E6.35661
G1 X153.232 Y123.513 E6.36602
G1 X153.242 Y133.782 E6.70808
G1 X153.241 Y133.847 E6.71024
G1 X153.096 Y141.459 E6.96385
G1 X153.227 Y145.282 E7.09127
G1 X153.229 Y145.392 E7.09493
G1 X153.232 Y156.489 E7.46458
G1 X153.192 Y156.997 E7.48155
G1 X153.073 Y157.493 E7.49854
G1 X152.945 Y157.824 E7.51037
G1 X151.905 Y160.135 E7.59478
G1 X149.845 Y165.258 E7.77871
G1 X149.841 Y165.274 E7.77926
G1 X149.525 Y166.124 E7.80947
G1 X149.311 Y166.586 E7.82643
G1 X149.027 Y167.009 E7.8434
G1 X148.68 Y167.382 E7.86037
G1 X148.279 Y167.697 E7.87735
G1 X147.834 Y167.945 E7.89432
G1 X147.356 Y168.12 E7.91128
G1 X146.856 Y168.219 E7.92826
G1 X146.453 Y168.241 E7.9417
G1 X135.203 Y168.153 E8.31646
G1 X133.493 Y168.201 E8.37344
G1 X133.438 Y168.202 E8.37527
G1 X130.054 Y168.241 E8.488
G1 X129.546 Y168.207 E8.50496
G1 X129.049 Y168.094 E8.52194
G1 X128.576 Y167.904 E8.53892
G1 X128.139 Y167.643 E8.55587
G1 X127.747 Y167.317 E8.57286
G1 X127.412 Y166.934 E8.58981
G1 X127.14 Y166.503 E8.60678
G1 X126.939 Y166.034 E8.62378
G1 X126.814 Y165.541 E8.64072
G1 X126.767 Y164.991 E8.65911
G1 X126.768 Y115.009 E10.32403
G1 X126.808 Y114.501 E10.341
G1 X126.927 Y114.006 E10.35796
G1 X127.122 Y113.535 E10.37494
G1 X127.388 Y113.1 E10.39192
G1 X127.718 Y112.713 E10.40887
G1 F600 E8.90887
;MESH:
G0 F2625 X129.343 Y117.757
G0 X131.23 Y117.757
G0 X141.789 Y117.771
G0 X142.174 Y117.172
G0 X142.244 Y117.242
;TYPE:WALL-INNER
G1 F600 E10.40887
G1 F900 X142.244 Y117.743 E10.42555
G1 X142.244 Y145.242 E11.34156
G1 X139.744 Y145.242 E11.42483
G1 X139.744 Y152.279 E11.65924
G1 X139.744 Y152.374 E11.6624
G1 X139.744 Y152.54 E11.66793
G1 X139.744 Y152.756 E11.67513
G1 X139.54 Y152.54 E11.6787
G1 X139.344 Y152.374 E11.6847
G1 X139.266 Y152.32 E11.68758
G1 X139.13 Y152.226 E11.69309
G1 X138.906 Y152.099 E11.70167
G1 X138.669 Y151.989 E11.71037
G1 X138.419 Y151.9 E11.71921
G1 X138.167 Y151.83 E11.72792
G1 X137.908 Y151.782 E11.7367
G1 X137.643 Y151.75 E11.74559
G1 X137.378 Y151.742 E11.75442
G1 X137.113 Y151.75 E11.76325
G1 X136.848 Y151.782 E11.77214
G1 X136.589 Y151.83 E11.78091
G1 X136.337 Y151.9 E11.78963
G1 X136.087 Y151.989 E11.79847
G1 X135.85 Y152.099 E11.80717
G1 X135.626 Y152.226 E11.81575
G1 X135.412 Y152.374 E11.82441
G1 X135.216 Y152.54 E11.83297
G1 X135.039 Y152.722 E11.84143
G1 X134.879 Y152.926 E11.85006
G1 X134.746 Y153.143 E11.85854
G1 X134.638 Y153.372 E11.86697
G1 X134.556 Y153.619 E11.87564
G1 X134.51 Y153.869 E11.88411
G1 X134.492 Y154.125 E11.89266
G1 X134.51 Y154.381 E11.90121
G1 X134.556 Y154.631 E11.90968
G1 X134.638 Y154.878 E11.91834
G1 X134.746 Y155.107 E11.92678
G1 X134.879 Y155.324 E11.93526
G1 X135.039 Y155.528 E11.94389
G1 X135.216 Y155.71 E11.95235
G1 X135.412 Y155.876 E11.96091
G1 X135.626 Y156.024 E11.96957
G1 X135.85 Y156.151 E11.97815
G1 X136.087 Y156.261 E11.98685
G1 X136.337 Y156.35 E11.99569
G1 X136.589 Y156.42 E12.0044
G1 X136.849 Y156.469 E12.01322
G1 X137.112 Y156.499 E12.02204
G1 X137.378 Y156.509 E12.0309
G1 X137.644 Y156.499 E12.03977
G1 X137.907 Y156.469 E12.04859
G1 X138.167 Y156.42 E12.0574
G1 X138.419 Y156.35 E12.06611
G1 X138.669 Y156.261 E12.07495
G1 X138.906 Y156.151 E12.08365
G1 X139.13 Y156.024 E12.09223
G1 X139.266 Y155.93 E12.09774
G1 X139.344 Y155.876 E12.1009
G1 X139.54 Y155.71 E12.10945
G1 X139.744 Y155.494 E12.11935
G1 X139.744 Y155.71 E12.12022
G1 X139.744 Y155.876 E12.122
G1 X139.744 Y155.971 E12.12488
G1 X139.744 Y162.257 E12.33427
G1 X131.244 Y162.257 E12.61741
G1 X131.244 Y164.25 E12.68379
G1 X130.758 Y164.25 E12.69998
G1 X130.758 Y162.257 E12.76451
G1 X130.758 Y145.759 E13.31407
G1 X133.761 Y145.759 E13.4141
G1 X133.761 Y122.242 E14.19746
G1 X130.758 Y122.242 E14.29749
G1 X130.758 Y117.743 E14.44735
G1 X130.758 Y115.75 E14.51374
G1 X131.244 Y115.75 E14.52993
G1 X131.244 Y117.743 E14.59446
G1 X141.761 Y117.743 E14.94478
G1 X141.761 Y117.242 E14.9609
G1 X141.761 Y115.75 E15.0106
G1 X145.739 Y115.75 E15.14311
G1 X145.739 Y117.242 E15.19281
G1 X142.244 Y117.242 E15.30923
G0 F2625 X142.174 Y117.172
G0 X145.274 Y117.214
G0 X145.69 Y122.5
G0 X149.172 Y133.672
G0 X149.242 Y133.742
G1 F900 X145.761 Y133.742 E15.42518
G1 X145.761 Y124.259 E15.74106
G1 X149.242 Y124.259 E15.85702
G1 X149.242 Y133.742 E16.1729
G0 F2625 X149.172 Y133.672
G0 X146.226 Y133.714
G0 X146.226 Y146.287
G0 X149.172 Y155.672
G0 X149.242 Y155.742
G1 F900 X145.761 Y155.742 E16.28885
G1 X145.761 Y146.259 E16.60474
G1 X149.242 Y146.259 E16.72069
G1 X149.242 Y155.742 E17.03657
G0 F2625 X149.172 Y155.672
G0 X146.226 Y155.714
G0 X145.763 Y161.588
G0 X145.669 Y164.18
G0 X145.739 Y164.25
G1 F900 X141.761 Y164.25 E17.16908
G1 X141.761 Y162.759 E17.21875
G1 X145.739 Y162.759 E17.35125
G1 X145.739 Y164.25 E17.40092
G0 F2625 X145.669 Y164.18
G0 X142.274 Y162.787
G0 X141.243 Y162.787
G0 X141.243 Y162.272
G0 X139.716 Y162.272
G0 X139.73 Y155.531
G0 X139.366 Y155.909
G0 X138.688 Y156.296
G0 X137.902 Y156.509
G0 X137.101 Y156.537
G0 X136.329 Y156.389
G0 X135.612 Y156.062
G0 X135.011 Y155.556
G0 X134.643 Y154.957
G0 X134.394 Y154.081
G0 X134.993 Y154.125
;TYPE:WALL-OUTER
G1 F900 X135.007 Y154.317 E17.40733
G1 X135.042 Y154.507 E17.41377
G1 X135.103 Y154.692 E17.42026
G1 X135.187 Y154.869 E17.42678
G1 X135.29 Y155.038 E17.43338
G1 X135.416 Y155.198 E17.44016
G1 X135.558 Y155.344 E17.44694
G1 X135.717 Y155.479 E17.45389
G1 X135.892 Y155.6 E17.46098
G1 X136.079 Y155.706 E17.46814
G1 X136.277 Y155.798 E17.47541
G1 X136.487 Y155.873 E17.48284
G1 X136.702 Y155.932 E17.49027
G1 X136.924 Y155.974 E17.49779
G1 X137.15 Y156 E17.50537
G1 X137.378 Y156.009 E17.51297
G1 X137.606 Y156 E17.52057
G1 X137.832 Y155.974 E17.52815
G1 X138.054 Y155.932 E17.53567
G1 X138.269 Y155.873 E17.5431
G1 X138.479 Y155.798 E17.55053
G1 X138.677 Y155.706 E17.5578
G1 X138.864 Y155.6 E17.56496
G1 X139.039 Y155.479 E17.57205
G1 X139.198 Y155.344 E17.579
G1 X139.34 Y155.198 E17.58578
G1 X139.466 Y155.038 E17.59256
G1 X139.569 Y154.869 E17.59916
G1 X139.653 Y154.692 E17.60568
G1 X139.714 Y154.507 E17.61217
G1 X139.745 Y154.347 E17.6176
G1 X139.75 Y154.316 E17.61865
G1 X139.761 Y154.125 E17.62502
G1 X139.75 Y153.934 E17.63139
G1 X139.745 Y153.903 E17.63244
G1 X139.714 Y153.743 E17.63787
G1 X139.653 Y153.558 E17.64436
G1 X139.569 Y153.381 E17.65088
G1 X139.466 Y153.212 E17.65748
G1 X139.34 Y153.052 E17.66426
G1 X139.198 Y152.906 E17.67104
G1 X139.039 Y152.771 E17.67799
G1 X138.864 Y152.65 E17.68508
G1 X138.677 Y152.544 E17.69224
G1 X138.479 Y152.452 E17.69951
G1 X138.269 Y152.377 E17.70694
G1 X138.054 Y152.318 E17.71437
G1 X137.832 Y152.276 E17.72189
G1 X137.606 Y152.249 E17.72947
G1 X137.378 Y152.242 E17.73707
G1 X137.15 Y152.249 E17.74467
G1 X136.924 Y152.276 E17.75225
G1 X136.702 Y152.318 E17.75978
G1 X136.487 Y152.377 E17.7672
G1 X136.277 Y152.452 E17.77463
G1 X136.079 Y152.544 E17.7819
G1 X135.892 Y152.65 E17.78906
G1 X135.717 Y152.771 E17.79615
G1 X135.558 Y152.906 E17.8031
G1 X135.416 Y153.052 E17.80988
G1 X135.29 Y153.212 E17.81667
G1 X135.187 Y153.381 E17.82326
G1 X135.103 Y153.558 E17.82979
G1 X135.042 Y153.743 E17.83628
G1 X135.007 Y153.933 E17.84271
G1 X134.993 Y154.125 E17.84912
G0 F2625 X135.007 Y154.317
G0 X135.017 Y154.374
G0 X134.427 Y154.479
G0 X134.518 Y153.608
G0 X134.784 Y153.039
G0 X139.644 Y145.742
G0 X140.244 Y145.742
G1 F900 X140.244 Y153.902 E18.12094
G1 X140.244 Y153.934 E18.122
G1 X140.244 Y154.125 E18.12821
G1 X140.244 Y154.316 E18.13443
G1 X140.244 Y154.348 E18.13549
G1 X140.244 Y162.259 E18.39901
G1 X141.261 Y162.259 E18.43288
G1 X142.261 Y162.259 E18.46619
G1 X142.261 Y145.742 E19.01638
G1 X140.244 Y145.742 E19.08357
G0 F2625 X140.244 Y145.992
G0 X139.644 Y145.992
G0 X142.216 Y117.214
G0 X145.274 Y117.214
G0 X146.154 Y123.759
G0 X146.239 Y123.759
G1 F900 X149.742 Y123.759 E19.20025
G1 X149.742 Y134.242 E19.54945
G1 X146.239 Y134.242 E19.66613
G1 X146.239 Y145.759 E20.04977
G1 X149.742 Y145.759 E20.16645
G1 X149.742 Y156.242 E20.51565
G1 X146.239 Y156.242 E20.63233
G1 X146.239 Y164.75 E20.91574
G1 X141.261 Y164.75 E21.08156
G1 X141.261 Y162.757 E21.14794
G1 X140.244 Y162.757 E21.18168
G1 X131.744 Y162.757 E21.46482
G1 X131.744 Y164.75 E21.53121
G1 X130.258 Y164.75 E21.58071
G1 X130.258 Y145.259 E22.22996
G1 X130.258 Y122.742 E22.98001
G1 X130.258 Y115.25 E23.22957
G1 X131.744 Y115.25 E23.27907
G1 X131.744 Y117.243 E23.34546
G1 X141.261 Y117.243 E23.66247
G1 X141.261 Y115.25 E23.72886
G1 X146.239 Y115.25 E23.89468
G1 X146.239 Y123.759 E24.17812
G0 F2625 X146.489 Y123.759
G0 X146.154 Y123.759
G0 X145.274 Y117.214
G0 X142.744 Y117.142
G0 X142.744 Y117.742
G1 F900 X142.744 Y145.742 E25.11081
G1 X142.744 Y162.259 E25.64229
G1 X145.261 Y162.259 E25.72613
G1 X145.261 Y117.742 E27.20901
G1 X142.744 Y117.742 E27.29285
G0 F2625 X142.744 Y117.992
G0 X142.144 Y117.992
G0 X131.138 Y122.216
G0 X130.731 Y122.214
G0 X130.723 Y122.777
G0 X130.744 Y122.832
G0 X130.744 Y122.742
G1 F900 X130.744 Y145.259 E28.0219
G1 X133.261 Y145.259 E28.10574
G1 X133.261 Y122.742 E28.85579
G1 X130.744 Y122.742 E28.93963
G0 F2625 X130.744 Y122.992
G0 X130.659 Y122.992
G0 X130.739 Y122.754
G0 X130.731 Y122.214
G0 X130.815 Y122.212
G0 X131.248 Y121.752
;TYPE:SKIN
G1 F900 X131.248 Y118.233 E29.05685
G1 X141.754 Y118.233 E29.40681
G1 X141.754 Y144.752 E30.29017
G1 X139.254 Y144.752 E30.37344
G1 X139.254 Y151.733 E30.60598
G1 X139.13 Y151.664 E30.61071
G1 X138.855 Y151.535 E30.62083
G1 X138.566 Y151.432 E30.63105
G1 X138.277 Y151.352 E30.64104
G1 X137.982 Y151.298 E30.65103
G1 X137.68 Y151.26 E30.66117
G1 X137.378 Y151.252 E30.67123
G1 X137.076 Y151.26 E30.68129
G1 X136.774 Y151.298 E30.69143
G1 X136.479 Y151.352 E30.70142
G1 X136.19 Y151.432 E30.71141
G1 X135.901 Y151.535 E30.72163
G1 X135.626 Y151.664 E30.73175
G1 X135.366 Y151.81 E30.74168
G1 X135.114 Y151.984 E30.75188
G1 X134.881 Y152.181 E30.76204
G1 X134.669 Y152.399 E30.77217
G1 X134.475 Y152.646 E30.78264
G1 X134.315 Y152.91 E30.79292
G1 X134.182 Y153.19 E30.80324
G1 X134.08 Y153.498 E30.81405
G1 X134.024 Y153.808 E30.82455
G1 X134 Y154.125 E30.83513
G1 X134.024 Y154.442 E30.84572
G1 X134.08 Y154.752 E30.85622
G1 X134.182 Y155.06 E30.86703
G1 X134.315 Y155.34 E30.87735
G1 X134.475 Y155.604 E30.88763
G1 X134.669 Y155.851 E30.8981
G1 X134.881 Y156.069 E30.90823
G1 X135.114 Y156.266 E30.91839
G1 X135.366 Y156.44 E30.92859
G1 X135.626 Y156.586 E30.93852
G1 X135.901 Y156.715 E30.94864
G1 X136.19 Y156.818 E30.95886
G1 X136.478 Y156.898 E30.96882
G1 X136.776 Y156.954 E30.97892
G1 X137.075 Y156.987 E30.98894
G1 X137.378 Y156.999 E30.99904
G1 X137.681 Y156.987 E31.00914
G1 X137.98 Y156.954 E31.01916
G1 X138.278 Y156.898 E31.02926
G1 X138.566 Y156.818 E31.03922
G1 X138.855 Y156.715 E31.04944
G1 X139.13 Y156.586 E31.05955
G1 X139.254 Y156.517 E31.06428
G1 X139.254 Y161.767 E31.23916
G1 X131.248 Y161.767 E31.50584
G1 X131.248 Y146.249 E32.02275
G1 X134.251 Y146.249 E32.12278
G1 X134.251 Y121.752 E32.93879
G1 X131.248 Y121.752 E33.03882
G0 F2625 X141.528 Y118.901
G1 F900 X141.085 Y118.458 E33.05969
G0 F2625 X140.378 Y118.458
