;Generated by Cura LulzBot Edition GCodeWriter Version: 3.2.21
;FLAVOR:Marlin
;TIME:583
;Filament used: 0.2381m
;Layer height: 0.25
;Generated with Cura_SteamEngine 3.2.21
M82 ;absolute extrusion mode
;This G-Code has been generated specifically for the LulzBot TAZ 6 with standard extruder
M75 ; start GLCD timer
G26 ; clear potential 'probe fail' condition
G21 ; set units to Millimetres
M107 ; disable fans
G90 ; absolute positioning
M82 ; set extruder to absolute mode
G92 E0 ; set extruder position to 0
M140 S60 ; start bed heating up
G28 XY ; home X and Y
G1 X-19 Y258 F1000 ; move to safe homing position
M109 R140 ; soften filament before homing Z
G28 Z ; home Z
G1 E-30 F100 ; retract filament
M109 R140 ; wait for extruder to reach wiping temp
G1 X-15 Y100 F3000 ; move above wiper pad
G1 Z1 ; push nozzle into wiper
G1 X-17 Y95 F1000 ; slow wipe
G1 X-17 Y90 F1000 ; slow wipe
G1 X-17 Y85 F1000 ; slow wipe
G1 X-15 Y90 F1000 ; slow wipe
G1 X-17 Y80 F1000 ; slow wipe
G1 X-15 Y95 F1000 ; slow wipe
G1 X-17 Y75 F2000 ; fast wipe
G1 X-15 Y65 F2000 ; fast wipe
G1 X-17 Y70 F2000 ; fast wipe
G1 X-15 Y60 F2000 ; fast wipe
G1 X-17 Y55 F2000 ; fast wipe
G1 X-15 Y50 F2000 ; fast wipe
G1 X-17 Y40 F2000 ; fast wipe
G1 X-15 Y45 F2000 ; fast wipe
G1 X-17 Y35 F2000 ; fast wipe
G1 X-15 Y40 F2000 ; fast wipe
G1 X-17 Y70 F2000 ; fast wipe
G1 X-15 Y30 Z2 F2000 ; fast wipe
G1 X-17 Y35 F2000 ; fast wipe
G1 X-15 Y25 F2000 ; fast wipe
G1 X-17 Y30 F2000 ; fast wipe
G1 X-15 Y25 Z1.5 F1000 ; slow wipe
G1 X-17 Y23 F1000 ; slow wipe
G1 Z10 ; raise extruder
M109 R140 ; wait for extruder to reach probe temp
G1 X-9 Y-9 ; move above first probe point
M204 S100 ; set probing acceleration
G29 ; start auto-leveling sequence
M204 S500 ; restore standard acceleration
G1 X0 Y0 Z15 F5000 ; move up off last probe point
G4 S1 ; pause
M400 ; wait for moves to finish
M117 Heating... ; progress indicator message on LCD
M109 R215 ; wait for extruder to reach printing temp
M190 S60 ; wait for bed to reach printing temp
G1 Z2 E0 F75 ; prime tiny bit of filament into the nozzle
M117 TAZ 6 Printing... ; progress indicator message on LCD

M221 S100
;LAYER_COUNT:32
;LAYER:0
M107
G0 F2625 X133.785 Y98.403 Z0.424
;TYPE:SKIRT
G1 F900 X134.211 Y97.877 E0.02249
G1 X134.696 Y97.38 E0.04557
G1 X135.296 Y96.87 E0.07174
G1 X135.738 Y96.547 E0.08993
G1 X136.019 Y96.388 E0.10066
G1 X136.976 Y95.899 E0.13638
G1 X137.48 Y95.686 E0.15456
G1 X137.921 Y95.566 E0.16975
G1 X138.958 Y95.351 E0.20494
G1 X139.5 Y95.279 E0.22311
G1 X139.956 Y95.28 E0.23827
G1 X141.03 Y95.348 E0.27403
G1 X141.572 Y95.423 E0.29221
G1 X142.035 Y95.553 E0.30819
G1 X143.063 Y95.914 E0.3444
G1 X143.565 Y96.132 E0.36259
G1 X143.988 Y96.391 E0.37907
G1 X144.902 Y97.038 E0.41629
G1 X145.427 Y97.489 E0.43929
G1 X145.681 Y97.751 E0.45141
G1 X146.116 Y98.291 E0.47446
G1 X146.717 Y99.199 E0.51064
G1 X146.985 Y99.676 E0.52882
G1 X147.15 Y100.09 E0.54363
G1 X147.478 Y101.08 E0.57829
G1 X147.634 Y101.758 E0.60141
G1 X147.691 Y102.181 E0.6156
G1 X147.722 Y102.844 E0.63765
G1 X147.493 Y108.147 E0.81405
G1 X147.457 Y169.259 E2.84492
G1 X147.73 Y176.666 E3.09124
G1 X147.7 Y177.303 E3.11243
G1 X147.508 Y178.734 E3.16041
G1 X147.396 Y179.269 E3.17858
G1 X147.23 Y179.731 E3.19489
G1 X146.928 Y180.425 E3.22004
G1 X146.673 Y180.91 E3.23825
G1 X146.494 Y181.173 E3.24882
G1 X145.842 Y182.046 E3.28503
G1 X145.483 Y182.459 E3.30322
G1 X145.129 Y182.77 E3.31888
G1 X144.287 Y183.42 E3.35423
G1 X143.83 Y183.722 E3.37243
G1 X143.416 Y183.922 E3.38771
G1 X142.422 Y184.329 E3.4234
G1 X141.902 Y184.499 E3.44158
G1 X141.603 Y184.56 E3.45172
G1 X140.859 Y184.681 E3.47677
G1 X140.135 Y184.728 E3.50088
G1 X139.367 Y184.703 E3.52642
G1 X138.69 Y184.619 E3.54909
G1 X138.025 Y184.474 E3.57171
G1 X137.5 Y184.319 E3.5899
G1 X137.246 Y184.212 E3.59906
G1 X136.267 Y183.758 E3.63492
G1 X135.789 Y183.492 E3.6531
G1 X135.385 Y183.186 E3.66994
G1 X134.514 Y182.429 E3.70829
G1 X134.128 Y182.041 E3.72648
G1 X133.743 Y181.502 E3.74849
G1 X133.024 Y180.281 E3.79558
G1 X132.781 Y179.79 E3.81379
G1 X132.629 Y179.335 E3.82973
G1 X132.446 Y178.642 E3.85355
G1 X132.337 Y178.017 E3.87463
G1 X132.277 Y177.341 E3.89719
G1 X132.268 Y176.789 E3.91553
G1 X132.396 Y174.613 E3.98797
G1 X132.543 Y169.227 E4.16702
G1 X132.503 Y107.955 E6.20321
G1 X132.267 Y103.057 E6.36617
G1 X132.281 Y102.509 E6.38439
G1 X132.326 Y102.189 E6.39513
G1 X132.549 Y100.992 E6.43559
G1 X132.689 Y100.463 E6.45378
G1 X132.889 Y99.987 E6.47094
G1 X133.352 Y99.071 E6.50504
G1 X133.785 Y98.403 E6.5315
G0 F2625 X134.173 Y98.718
G1 F900 X134.599 Y98.192 E6.55399
G1 X135.02 Y97.761 E6.57401
G1 X135.62 Y97.251 E6.60018
G1 X136.246 Y96.833 E6.6252
G1 X137.203 Y96.344 E6.66091
G1 X137.674 Y96.148 E6.67787
G1 X138.022 Y96.056 E6.68983
G1 X139.059 Y95.841 E6.72502
G1 X139.565 Y95.777 E6.74197
G1 X139.924 Y95.779 E6.7539
G1 X140.998 Y95.847 E6.78966
G1 X141.503 Y95.919 E6.80662
G1 X141.87 Y96.025 E6.81931
G1 X142.898 Y96.386 E6.85552
G1 X143.364 Y96.592 E6.87245
G1 X143.699 Y96.799 E6.88554
G1 X144.613 Y97.446 E6.92275
G1 X145.068 Y97.837 E6.94269
G1 X145.322 Y98.099 E6.95481
G1 X145.699 Y98.567 E6.97479
G1 X146.3 Y99.475 E7.01097
G1 X146.547 Y99.921 E7.02791
G1 X146.675 Y100.247 E7.03955
G1 X147.003 Y101.237 E7.07421
G1 X147.139 Y101.825 E7.09427
G1 X147.196 Y102.248 E7.10845
G1 X147.222 Y102.822 E7.12755
G1 X146.993 Y108.124 E7.30391
G1 X146.957 Y169.25 E9.33524
G1 X147.231 Y176.684 E9.58246
G1 X147.204 Y177.236 E9.60082
G1 X147.012 Y178.667 E9.64881
G1 X146.905 Y179.165 E9.66573
G1 X146.771 Y179.532 E9.67872
G1 X146.469 Y180.226 E9.70387
G1 X146.093 Y180.874 E9.72877
G1 X145.441 Y181.747 E9.76498
G1 X145.105 Y182.13 E9.78191
G1 X144.823 Y182.375 E9.79432
G1 X143.981 Y183.025 E9.82967
G1 X143.555 Y183.303 E9.84657
G1 X143.226 Y183.46 E9.85869
G1 X142.232 Y183.867 E9.89438
G1 X141.523 Y184.067 E9.91886
G1 X140.779 Y184.188 E9.94391
G1 X140.151 Y184.228 E9.96483
G1 X139.383 Y184.203 E9.99036
G1 X138.797 Y184.13 E10.00999
G1 X138.132 Y183.985 E10.0326
G1 X137.457 Y183.758 E10.05627
G1 X136.478 Y183.304 E10.09213
G1 X136.034 Y183.054 E10.10907
G1 X135.713 Y182.809 E10.12249
G1 X134.842 Y182.052 E10.16083
G1 X134.485 Y181.689 E10.17775
G1 X134.173 Y181.248 E10.19571
G1 X133.454 Y180.027 E10.2428
G1 X133.231 Y179.569 E10.25972
G1 X133.113 Y179.208 E10.27235
G1 X132.93 Y178.515 E10.29616
G1 X132.835 Y177.972 E10.31448
G1 X132.775 Y177.296 E10.33704
G1 X132.768 Y176.819 E10.35289
G1 X132.895 Y174.657 E10.42486
G1 X133.043 Y169.241 E10.60491
G1 X133.003 Y107.93 E12.6424
G1 X132.767 Y103.032 E12.80536
G1 X132.818 Y102.281 E12.83037
G1 X133.041 Y101.084 E12.87084
G1 X133.173 Y100.592 E12.88776
G1 X133.335 Y100.213 E12.90146
G1 X133.798 Y99.297 E12.93557
G1 X134.173 Y98.718 E12.95849
G1 F600 E11.95849
G0 F2625 X135.796 Y100.982
G0 X137.071 Y101.638
G0 X137.68 Y104.036
G0 X138.047 Y104.624
G0 X138.828 Y105.323
G0 X138.873 Y105.234
;TYPE:WALL-INNER
G1 F600 E12.95849
G1 F900 X139.189 Y105.365 E12.96986
G1 X139.517 Y105.454 E12.98116
G1 X139.856 Y105.496 E12.99251
G1 X140.197 Y105.493 E13.00384
G1 X140.537 Y105.443 E13.01526
G1 X140.863 Y105.346 E13.02656
G1 X141.175 Y105.208 E13.0379
G1 X141.465 Y105.027 E13.04926
G1 X141.727 Y104.808 E13.06061
G1 X141.956 Y104.556 E13.07193
G1 X142.149 Y104.277 E13.0832
G1 X142.305 Y103.971 E13.09461
G1 X142.415 Y103.646 E13.10602
G1 X142.48 Y103.315 E13.11723
G1 X142.501 Y102.972 E13.12865
G1 X142.472 Y102.631 E13.14002
G1 X142.4 Y102.3 E13.15128
G1 X142.283 Y101.98 E13.1626
G1 X142.122 Y101.677 E13.174
G1 X141.922 Y101.401 E13.18533
G1 X141.686 Y101.154 E13.19668
G1 X141.419 Y100.942 E13.20801
G1 X141.126 Y100.766 E13.21937
G1 X140.81 Y100.635 E13.23074
G1 X140.482 Y100.546 E13.24203
G1 X140.143 Y100.504 E13.25338
G1 X139.802 Y100.507 E13.26472
G1 X139.462 Y100.557 E13.27614
G1 X139.136 Y100.654 E13.28744
G1 X138.824 Y100.792 E13.29878
G1 X138.534 Y100.973 E13.31014
G1 X138.272 Y101.192 E13.32148
G1 X138.043 Y101.444 E13.3328
G1 X137.85 Y101.723 E13.34407
G1 X137.694 Y102.029 E13.35549
G1 X137.584 Y102.354 E13.36689
G1 X137.519 Y102.687 E13.37817
G1 X137.499 Y103.028 E13.38952
G1 X137.526 Y103.368 E13.40085
G1 X137.599 Y103.7 E13.41215
G1 X137.716 Y104.02 E13.42347
G1 X137.877 Y104.323 E13.43487
G1 X138.077 Y104.599 E13.4462
G1 X138.313 Y104.846 E13.45755
G1 X138.58 Y105.058 E13.46888
G1 X138.873 Y105.234 E13.48024
G0 F2625 X138.828 Y105.323
G0 X137.981 Y105.753
G0 X138.041 Y105.832
G1 F900 X138.041 Y174.165 E15.75108
G1 X139.291 Y173.829 E15.7941
G1 X139.56 Y173.782 E15.80317
G1 X139.856 Y173.755 E15.81305
G1 X140.141 Y173.753 E15.82252
G1 X140.428 Y173.778 E15.83209
G1 X140.699 Y173.826 E15.84124
G1 X141.955 Y174.165 E15.88447
G1 X141.956 Y105.834 E18.15525
G1 X140.7 Y106.173 E18.19848
G1 X140.429 Y106.221 E18.20763
G1 X140.14 Y106.246 E18.21727
G1 X139.855 Y106.246 E18.22674
G1 X139.561 Y106.219 E18.23655
G1 X139.285 Y106.171 E18.24586
G1 X138.041 Y105.832 E18.28871
G0 F2625 X137.981 Y105.753
G0 X141.98 Y105.803
G0 X142.859 Y175.646
G0 X142.957 Y175.629
G1 F900 X143.113 Y176.068 E18.30419
G1 X143.182 Y176.342 E18.31358
G1 X143.229 Y176.647 E18.32384
G1 X143.248 Y176.928 E18.33319
G1 X143.241 Y177.229 E18.3432
G1 X143.207 Y177.517 E18.35284
G1 X143.143 Y177.819 E18.3631
G1 X143.062 Y178.087 E18.3724
G1 X142.946 Y178.37 E18.38256
G1 X142.809 Y178.633 E18.39242
G1 X142.65 Y178.881 E18.40221
G1 X142.478 Y179.102 E18.41152
G1 X142.257 Y179.337 E18.42224
G1 X142.053 Y179.519 E18.43132
G1 X141.814 Y179.695 E18.44119
G1 X141.544 Y179.858 E18.45167
G1 X141.301 Y179.977 E18.46066
G1 X141.01 Y180.087 E18.471
G1 X140.727 Y180.166 E18.48076
G1 X140.437 Y180.219 E18.49056
G1 X140.143 Y180.246 E18.50037
G1 X139.852 Y180.246 E18.51004
G1 X139.558 Y180.218 E18.51985
G1 X139.263 Y180.164 E18.52982
G1 X138.981 Y180.085 E18.53955
G1 X138.691 Y179.974 E18.54987
G1 X138.454 Y179.857 E18.55865
G1 X138.182 Y179.692 E18.56923
G1 X137.943 Y179.515 E18.57911
G1 X137.724 Y179.319 E18.58888
G1 X137.523 Y179.103 E18.59868
G1 X137.351 Y178.882 E18.60799
G1 X137.185 Y178.623 E18.61821
G1 X137.045 Y178.353 E18.62832
G1 X136.938 Y178.087 E18.63785
G1 X136.853 Y177.811 E18.64744
G1 X136.789 Y177.504 E18.65787
G1 X136.758 Y177.228 E18.6671
G1 X136.751 Y176.918 E18.6774
G1 X136.769 Y176.647 E18.68643
G1 X136.82 Y176.336 E18.6969
G1 X136.892 Y176.051 E18.70667
G1 X137.043 Y175.625 E18.72169
G1 X137.043 Y104.376 E21.08943
G1 X136.892 Y103.944 E21.10464
G1 X136.821 Y103.665 E21.11421
G1 X136.77 Y103.354 E21.12468
G1 X136.751 Y103.074 E21.13401
G1 X136.758 Y102.771 E21.14408
G1 X136.788 Y102.497 E21.15324
G1 X136.852 Y102.19 E21.16366
G1 X136.936 Y101.915 E21.17322
G1 X137.053 Y101.63 E21.18345
G1 X137.18 Y101.384 E21.19266
G1 X137.349 Y101.119 E21.2031
G1 X137.521 Y100.899 E21.21238
G1 X137.728 Y100.677 E21.22247
G1 X137.949 Y100.48 E21.23231
G1 X138.181 Y100.308 E21.2419
G1 X138.446 Y100.147 E21.25221
G1 X138.694 Y100.025 E21.26139
G1 X138.98 Y99.916 E21.27156
G1 X139.262 Y99.837 E21.2813
G1 X139.556 Y99.783 E21.29123
G1 X139.853 Y99.755 E21.30114
G1 X140.144 Y99.753 E21.31081
G1 X140.437 Y99.78 E21.32059
G1 X140.726 Y99.833 E21.33036
G1 X141.009 Y99.912 E21.34012
G1 X141.3 Y100.022 E21.35046
G1 X141.543 Y100.141 E21.35945
G1 X141.813 Y100.304 E21.36993
G1 X142.052 Y100.48 E21.3798
G1 X142.256 Y100.662 E21.38888
G1 X142.469 Y100.889 E21.39923
G1 X142.653 Y101.124 E21.40914
G1 X142.805 Y101.36 E21.41847
G1 X142.95 Y101.639 E21.42892
G1 X143.055 Y101.894 E21.43809
G1 X143.142 Y102.177 E21.44792
G1 X143.208 Y102.492 E21.45862
G1 X143.239 Y102.756 E21.46745
G1 X143.249 Y103.067 E21.47779
G1 X143.23 Y103.351 E21.48725
G1 X143.183 Y103.657 E21.49754
G1 X143.114 Y103.931 E21.50693
G1 X142.958 Y104.37 E21.52241
G1 X142.957 Y175.629 E23.89049
G0 F2625 X142.859 Y175.646
G0 X142.341 Y177.986
G0 X141.987 Y178.58
G0 X141.488 Y179.059
G0 X140.876 Y179.383
G0 X140.2 Y179.532
G0 X139.811 Y179.511
G0 X138.828 Y179.323
G0 X138.873 Y179.234
G1 F900 X139.189 Y179.365 E23.90186
G1 X139.517 Y179.454 E23.91315
G1 X139.856 Y179.496 E23.92451
G1 X140.197 Y179.493 E23.93584
G1 X140.537 Y179.443 E23.94726
G1 X140.863 Y179.346 E23.95856
G1 X141.175 Y179.208 E23.9699
G1 X141.465 Y179.027 E23.98126
G1 X141.727 Y178.808 E23.99261
G1 X141.956 Y178.556 E24.00392
G1 X142.149 Y178.277 E24.0152
G1 X142.305 Y177.971 E24.02661
G1 X142.415 Y177.646 E24.03801
G1 X142.48 Y177.315 E24.04922
G1 X142.501 Y176.972 E24.06064
G1 X142.472 Y176.631 E24.07202
G1 X142.4 Y176.3 E24.08327
G1 X142.283 Y175.98 E24.0946
G1 X142.122 Y175.677 E24.106
G1 X141.922 Y175.401 E24.11733
G1 X141.686 Y175.154 E24.12868
G1 X141.419 Y174.942 E24.14001
G1 X141.126 Y174.766 E24.15137
G1 X140.81 Y174.635 E24.16273
G1 X140.482 Y174.546 E24.17403
G1 X140.143 Y174.504 E24.18538
G1 X139.802 Y174.507 E24.19671
G1 X139.462 Y174.557 E24.20813
G1 X139.136 Y174.654 E24.21944
G1 X138.824 Y174.792 E24.23077
G1 X138.534 Y174.973 E24.24213
G1 X138.272 Y175.192 E24.25348
G1 X138.043 Y175.444 E24.2648
G1 X137.85 Y175.723 E24.27607
G1 X137.694 Y176.029 E24.28749
G1 X137.584 Y176.354 E24.29889
G1 X137.519 Y176.687 E24.31016
G1 X137.499 Y177.028 E24.32151
G1 X137.526 Y177.368 E24.33285
G1 X137.599 Y177.7 E24.34415
G1 X137.716 Y178.02 E24.35547
G1 X137.877 Y178.323 E24.36687
G1 X138.077 Y178.599 E24.3782
G1 X138.313 Y178.846 E24.38955
G1 X138.58 Y179.058 E24.40088
G1 X138.873 Y179.234 E24.41224
G0 F2625 X138.828 Y179.323
G0 X139.854 Y179.535
G0 X140.545 Y179.482
G0 X141.193 Y179.243
G0 X141.754 Y178.836
G0 X142.183 Y178.297
G0 X142.334 Y177.935
G0 X142.598 Y177.014
G0 X142 Y176.978
;TYPE:WALL-OUTER
G1 F900 X141.977 Y176.706 E24.42131
G1 X141.919 Y176.44 E24.43036
G1 X141.825 Y176.184 E24.43942
G1 X141.697 Y175.942 E24.44852
G1 X141.537 Y175.722 E24.45756
G1 X141.348 Y175.524 E24.46665
G1 X141.134 Y175.354 E24.47574
G1 X140.9 Y175.214 E24.4848
G1 X140.648 Y175.109 E24.49387
G1 X140.385 Y175.038 E24.50292
G1 X140.114 Y175.004 E24.512
G1 X139.841 Y175.007 E24.52107
G1 X139.57 Y175.047 E24.53018
G1 X139.309 Y175.124 E24.53922
G1 X139.059 Y175.235 E24.54831
G1 X138.828 Y175.379 E24.55736
G1 X138.619 Y175.554 E24.56642
G1 X138.435 Y175.756 E24.5755
G1 X138.28 Y175.98 E24.58455
G1 X138.156 Y176.224 E24.59364
G1 X138.068 Y176.483 E24.60273
G1 X138.016 Y176.75 E24.61177
G1 X138 Y177.022 E24.62083
G1 X138.022 Y177.294 E24.6299
G1 X138.08 Y177.56 E24.63894
G1 X138.174 Y177.816 E24.64801
G1 X138.302 Y178.058 E24.6571
G1 X138.462 Y178.278 E24.66614
G1 X138.651 Y178.476 E24.67524
G1 X138.865 Y178.646 E24.68432
G1 X139.099 Y178.786 E24.69339
G1 X139.351 Y178.891 E24.70246
G1 X139.614 Y178.962 E24.71151
G1 X139.885 Y178.996 E24.72059
G1 X140.158 Y178.993 E24.72966
G1 X140.429 Y178.953 E24.73876
G1 X140.69 Y178.876 E24.74781
G1 X140.94 Y178.765 E24.7569
G1 X141.171 Y178.621 E24.76594
G1 X141.38 Y178.446 E24.775
G1 X141.564 Y178.244 E24.78408
G1 X141.719 Y178.02 E24.79313
G1 X141.843 Y177.776 E24.80223
G1 X141.931 Y177.517 E24.81132
G1 X141.983 Y177.251 E24.82033
G1 X142 Y176.978 E24.82942
G0 F2625 X141.979 Y176.728
G0 X142.576 Y176.678
G0 X142.858 Y175.542
G0 X143.457 Y175.543
G1 F900 X143.593 Y175.927 E24.84295
G1 X143.672 Y176.241 E24.85371
G1 X143.727 Y176.594 E24.86559
G1 X143.749 Y176.918 E24.87638
G1 X143.74 Y177.267 E24.88798
G1 X143.702 Y177.591 E24.89882
G1 X143.628 Y177.941 E24.91071
G1 X143.53 Y178.264 E24.92193
G1 X143.402 Y178.576 E24.93313
G1 X143.242 Y178.885 E24.9447
G1 X143.062 Y179.165 E24.95576
G1 X142.853 Y179.433 E24.96705
G1 X142.613 Y179.689 E24.97872
G1 X142.358 Y179.916 E24.99006
G1 X142.096 Y180.109 E25.00087
G1 X141.791 Y180.294 E25.01273
G1 X141.492 Y180.44 E25.02379
G1 X141.167 Y180.563 E25.03534
G1 X140.841 Y180.654 E25.04658
G1 X140.506 Y180.715 E25.0579
G1 X140.166 Y180.746 E25.06924
G1 X139.826 Y180.746 E25.08054
G1 X139.487 Y180.714 E25.09186
G1 X139.151 Y180.652 E25.10321
G1 X138.825 Y180.561 E25.11446
G1 X138.496 Y180.435 E25.12617
G1 X138.206 Y180.292 E25.13691
G1 X137.901 Y180.107 E25.14877
G1 X137.63 Y179.906 E25.15998
G1 X137.377 Y179.68 E25.17126
G1 X137.143 Y179.428 E25.18268
G1 X136.938 Y179.165 E25.19376
G1 X136.749 Y178.87 E25.20541
