;Generated by Cura LulzBot Edition GCodeWriter Version: 3.2.21
;FLAVOR:Marlin
;TIME:7284
;Filament used: 3.58256m
;Layer height: 0.25
;Generated with Cura_SteamEngine 3.2.21
M82 ;absolute extrusion mode
;This G-Code has been generated specifically for the LulzBot TAZ 6 with standard extruder
M75 ; start GLCD timer
G26 ; clear potential 'probe fail' condition
G21 ; set units to Millimetres
M107 ; disable fans
G90 ; absolute positioning
M82 ; set extruder to absolute mode
G92 E0 ; set extruder position to 0
M140 S60 ; start bed heating up
G28 XY ; home X and Y
G1 X-19 Y258 F1000 ; move to safe homing position
M109 R140 ; soften filament before homing Z
G28 Z ; home Z
G1 E-30 F100 ; retract filament
M109 R140 ; wait for extruder to reach wiping temp
G1 X-15 Y100 F3000 ; move above wiper pad
G1 Z1 ; push nozzle into wiper
G1 X-17 Y95 F1000 ; slow wipe
G1 X-17 Y90 F1000 ; slow wipe
G1 X-17 Y85 F1000 ; slow wipe
G1 X-15 Y90 F1000 ; slow wipe
G1 X-17 Y80 F1000 ; slow wipe
G1 X-15 Y95 F1000 ; slow wipe
G1 X-17 Y75 F2000 ; fast wipe
G1 X-15 Y65 F2000 ; fast wipe
G1 X-17 Y70 F2000 ; fast wipe
G1 X-15 Y60 F2000 ; fast wipe
G1 X-17 Y55 F2000 ; fast wipe
G1 X-15 Y50 F2000 ; fast wipe
G1 X-17 Y40 F2000 ; fast wipe
G1 X-15 Y45 F2000 ; fast wipe
G1 X-17 Y35 F2000 ; fast wipe
G1 X-15 Y40 F2000 ; fast wipe
G1 X-17 Y70 F2000 ; fast wipe
G1 X-15 Y30 Z2 F2000 ; fast wipe
G1 X-17 Y35 F2000 ; fast wipe
G1 X-15 Y25 F2000 ; fast wipe
G1 X-17 Y30 F2000 ; fast wipe
G1 X-15 Y25 Z1.5 F1000 ; slow wipe
G1 X-17 Y23 F1000 ; slow wipe
G1 Z10 ; raise extruder
M109 R140 ; wait for extruder to reach probe temp
G1 X-9 Y-9 ; move above first probe point
M204 S100 ; set probing acceleration
G29 ; start auto-leveling sequence
M204 S500 ; restore standard acceleration
G1 X0 Y0 Z15 F5000 ; move up off last probe point
G4 S1 ; pause
M400 ; wait for moves to finish
M117 Heating... ; progress indicator message on LCD
M109 R215 ; wait for extruder to reach printing temp
M190 S60 ; wait for bed to reach printing temp
G1 Z2 E0 F75 ; prime tiny bit of filament into the nozzle
M117 TAZ 6 Printing... ; progress indicator message on LCD

M221 S100
;LAYER_COUNT:152
;LAYER:0
M107
G0 F2625 X99.245 Y103.583 Z0.424
;TYPE:SKIRT
G1 F900 X102.189 Y100.687 E0.13724
G1 X102.361 Y100.53 E0.14498
G1 X104.782 Y98.468 E0.25066
G1 X104.902 Y98.37 E0.25581
G1 X108.688 Y95.446 E0.41478
G1 X109.115 Y95.167 E0.43173
G1 X109.58 Y94.958 E0.44867
G1 X110.071 Y94.825 E0.46557
G1 X110.675 Y94.768 E0.48574
G1 X168.068 Y94.76 E2.39302
G1 X168.575 Y94.8 E2.40992
G1 X169.071 Y94.919 E2.42687
G1 X169.542 Y95.113 E2.4438
G1 X169.976 Y95.379 E2.46071
G1 X170.364 Y95.71 E2.47766
G1 X170.792 Y96.238 E2.50025
G1 X172.937 Y99.536 E2.63099
G1 X176.129 Y103.979 E2.81279
G1 X179.581 Y108.25 E2.99529
G1 X183.745 Y112.82 E3.20075
G1 X184.058 Y113.222 E3.21768
G1 X184.213 Y113.484 E3.2278
G1 X186.114 Y117.063 E3.36247
G1 X186.223 Y117.289 E3.37081
G1 X187.47 Y120.15 E3.47452
G1 X187.543 Y120.333 E3.48107
G1 X188.111 Y121.886 E3.53602
G1 X188.248 Y122.376 E3.55293
G1 X188.309 Y123.002 E3.57383
G1 X188.314 Y156.97 E4.70266
G1 X188.274 Y157.477 E4.71956
G1 X188.128 Y158.054 E4.73934
G1 X187.671 Y159.346 E4.78488
G1 X187.578 Y159.579 E4.79322
G1 X185.907 Y163.35 E4.93029
G1 X185.798 Y163.574 E4.93857
G1 X184.206 Y166.531 E5.05017
G1 X183.93 Y166.959 E5.06709
G1 X183.704 Y167.225 E5.07869
G1 X182.033 Y168.989 E5.15944
G1 X178.42 Y173.128 E5.34202
G1 X175.054 Y177.453 E5.52415
G1 X171.939 Y181.959 E5.70619
G1 X170.808 Y183.736 E5.77619
G1 X170.502 Y184.143 E5.79311
G1 X170.136 Y184.497 E5.81003
G1 X169.718 Y184.79 E5.827
G1 X169.261 Y185.013 E5.84389
G1 X168.774 Y185.163 E5.86083
G1 X168.066 Y185.241 E5.8845
G1 X110.699 Y185.24 E7.79092
G1 X110.191 Y185.2 E7.80785
G1 X109.696 Y185.081 E7.82477
G1 X109.225 Y184.886 E7.84171
G1 X108.693 Y184.547 E7.86268
G1 X103.56 Y180.521 E8.07947
G1 X103.408 Y180.394 E8.08605
G1 X101.815 Y178.979 E8.15685
G1 X101.656 Y178.828 E8.16414
G1 X98.761 Y175.885 E8.30133
G1 X98.605 Y175.714 E8.30902
G1 X96.554 Y173.308 E8.41409
G1 X96.451 Y173.181 E8.41952
G1 X95.147 Y171.485 E8.49062
G1 X95.019 Y171.307 E8.4979
G1 X92.706 Y167.837 E8.63649
G1 X92.599 Y167.665 E8.64322
G1 X91.998 Y166.629 E8.68302
G1 X91.777 Y166.169 E8.69998
G1 X91.632 Y165.681 E8.7169
G1 X91.564 Y165.176 E8.73383
G1 X91.576 Y164.667 E8.75075
G1 X91.637 Y164.291 E8.76341
G1 X93.061 Y157.904 E8.98088
G1 X93.511 Y155.304 E9.06856
G1 X94.229 Y149.823 E9.25226
G1 X94.629 Y144.39 E9.4333
G1 X94.724 Y138.89 E9.6161
G1 X94.508 Y133.444 E9.79723
G1 X93.983 Y127.991 E9.97928
G1 X93.152 Y122.593 E10.16078
G1 X91.638 Y115.713 E10.39489
G1 X91.568 Y115.209 E10.4118
G1 X91.577 Y114.699 E10.42875
G1 X91.666 Y114.198 E10.44566
G1 X91.833 Y113.716 E10.46261
G1 X92.034 Y113.329 E10.4771
G1 X93.551 Y110.829 E10.57428
G1 X93.648 Y110.677 E10.58027
G1 X94.873 Y108.89 E10.65227
G1 X95.005 Y108.712 E10.65964
G1 X97.585 Y105.449 E10.79787
G1 X97.704 Y105.307 E10.80403
G1 X99.094 Y103.742 E10.87359
G1 X99.245 Y103.583 E10.88088
G1 F600 E9.88088
G0 F2625 X101.119 Y105.344
G0 X102.177 Y106.311
G0 X108.442 Y107.503
G0 X108.442 Y107.403
;TYPE:WALL-INNER
G1 F600 E10.88088
G1 F900 X108.895 Y107.357 E10.89601
G1 X109.296 Y107.24 E10.90989
G1 X109.672 Y107.059 E10.92376
G1 X110.006 Y106.816 E10.93748
G1 X110.277 Y106.544 E10.95024
G1 X110.516 Y106.201 E10.96414
G1 X110.695 Y105.822 E10.97806
G1 X110.802 Y105.417 E10.99199
G1 X110.839 Y105 E11.0059
G1 X110.802 Y104.583 E11.01981
G1 X110.695 Y104.178 E11.03373
G1 X110.516 Y103.799 E11.04766
G1 X110.277 Y103.456 E11.06155
G1 X109.981 Y103.16 E11.07546
G1 X109.637 Y102.918 E11.08944
G1 X109.257 Y102.742 E11.10336
G1 X108.855 Y102.634 E11.11719
G1 X108.436 Y102.597 E11.13117
G1 X108.019 Y102.634 E11.14508
G1 X107.615 Y102.742 E11.15898
G1 X107.235 Y102.918 E11.1729
G1 X106.891 Y103.16 E11.18687
G1 X106.596 Y103.455 E11.20074
G1 X106.354 Y103.799 E11.21471
G1 X106.178 Y104.179 E11.22863
G1 X106.07 Y104.581 E11.24246
G1 X106.033 Y105 E11.25644
G1 X106.07 Y105.419 E11.27042
G1 X106.178 Y105.821 E11.28425
G1 X106.354 Y106.201 E11.29817
G1 X106.596 Y106.545 E11.31215
G1 X106.891 Y106.84 E11.32601
G1 X107.235 Y107.082 E11.33999
G1 X107.615 Y107.258 E11.35391
G1 X108.019 Y107.366 E11.3678
G1 X108.442 Y107.403 E11.38191
G0 F2625 X108.442 Y107.503
G0 X107.594 Y112.977
G0 X107.594 Y113.077
G1 F900 X107.142 Y113.123 E11.39701
G1 X106.74 Y113.24 E11.41093
G1 X106.365 Y113.422 E11.42478
G1 X106.026 Y113.668 E11.4387
G1 X105.735 Y113.969 E11.45261
G1 X105.505 Y114.311 E11.46631
G1 X105.342 Y114.658 E11.47905
G1 X105.234 Y115.063 E11.49298
G1 X105.197 Y115.48 E11.50689
G1 X105.234 Y115.898 E11.52083
G1 X105.343 Y116.303 E11.53477
G1 X105.519 Y116.681 E11.54863
G1 X105.76 Y117.026 E11.56261
G1 X106.057 Y117.321 E11.57652
G1 X106.397 Y117.56 E11.59034
G1 X106.779 Y117.739 E11.60435
G1 X107.184 Y117.846 E11.61828
G1 X107.6 Y117.883 E11.63215
G1 X108.017 Y117.846 E11.64607
G1 X108.423 Y117.739 E11.66002
G1 X108.803 Y117.56 E11.67398
G1 X109.145 Y117.32 E11.68786
G1 X109.44 Y117.025 E11.70173
G1 X109.68 Y116.683 E11.71561
G1 X109.859 Y116.303 E11.72957
G1 X109.966 Y115.897 E11.74352
G1 X110.003 Y115.48 E11.75744
G1 X109.966 Y115.064 E11.77132
G1 X109.859 Y114.659 E11.78524
G1 X109.68 Y114.277 E11.79926
G1 X109.441 Y113.937 E11.81307
G1 X109.146 Y113.64 E11.82698
G1 X108.801 Y113.399 E11.84096
G1 X108.423 Y113.223 E11.85482
G1 X108.018 Y113.114 E11.86876
G1 X107.594 Y113.077 E11.8829
G0 F2625 X107.594 Y112.977
G0 X108.436 Y113.186
G0 X109.171 Y113.61
G0 X109.714 Y114.257
G0 X110.005 Y115.058
G0 X110.005 Y115.903
G0 X109.714 Y116.703
G0 X109.407 Y117.069
G0 X108.068 Y118.497
G0 X108.068 Y118.597
G1 F900 X107.615 Y118.643 E11.89803
G1 X107.214 Y118.76 E11.91191
G1 X106.838 Y118.941 E11.92578
G1 X106.504 Y119.184 E11.93951
G1 X106.233 Y119.456 E11.95227
G1 X105.992 Y119.799 E11.9662
G1 X105.816 Y120.179 E11.98012
G1 X105.708 Y120.581 E11.99395
G1 X105.671 Y121 E12.00793
G1 X105.708 Y121.419 E12.02191
G1 X105.816 Y121.821 E12.03574
G1 X105.992 Y122.201 E12.04966
G1 X106.234 Y122.545 E12.06363
G1 X106.529 Y122.84 E12.0775
G1 X106.873 Y123.082 E12.09147
G1 X107.253 Y123.258 E12.10539
G1 X107.655 Y123.366 E12.11922
G1 X108.074 Y123.403 E12.1332
G1 X108.493 Y123.366 E12.14718
G1 X108.895 Y123.258 E12.16101
G1 X109.275 Y123.082 E12.17493
G1 X109.619 Y122.84 E12.18891
G1 X109.914 Y122.545 E12.20277
G1 X110.156 Y122.201 E12.21675
G1 X110.332 Y121.821 E12.23067
G1 X110.44 Y121.419 E12.2445
G1 X110.477 Y121 E12.25848
G1 X110.44 Y120.581 E12.27246
G1 X110.332 Y120.179 E12.28629
G1 X110.156 Y119.799 E12.30021
G1 X109.914 Y119.455 E12.31418
G1 X109.619 Y119.16 E12.32805
G1 X109.275 Y118.918 E12.34202
G1 X108.895 Y118.742 E12.35594
G1 X108.492 Y118.634 E12.36981
G1 X108.068 Y118.597 E12.38395
G0 F2625 X108.068 Y118.497
G0 X107.2 Y118.723
G0 X106.478 Y119.154
G0 X105.958 Y119.78
G0 X105.669 Y120.575
G0 X105.669 Y121.055
G0 X108.068 Y146.397
G0 X108.068 Y146.497
G1 F900 X107.615 Y146.543 E12.39908
G1 X107.214 Y146.66 E12.41296
G1 X106.838 Y146.841 E12.42683
G1 X106.504 Y147.084 E12.44056
G1 X106.233 Y147.356 E12.45332
G1 X105.992 Y147.699 E12.46725
G1 X105.816 Y148.079 E12.48116
G1 X105.708 Y148.481 E12.495
G1 X105.671 Y148.9 E12.50898
G1 X105.708 Y149.319 E12.52295
G1 X105.816 Y149.721 E12.53679
G1 X105.992 Y150.101 E12.5507
G1 X106.234 Y150.445 E12.56468
G1 X106.529 Y150.74 E12.57855
G1 X106.873 Y150.982 E12.59252
G1 X107.253 Y151.158 E12.60644
G1 X107.655 Y151.266 E12.62027
G1 X108.074 Y151.303 E12.63425
G1 X108.493 Y151.266 E12.64823
G1 X108.895 Y151.158 E12.66206
G1 X109.275 Y150.982 E12.67598
G1 X109.619 Y150.74 E12.68996
G1 X109.914 Y150.445 E12.70382
G1 X110.156 Y150.101 E12.7178
G1 X110.332 Y149.721 E12.73171
G1 X110.44 Y149.319 E12.74555
G1 X110.477 Y148.9 E12.75953
G1 X110.44 Y148.481 E12.7735
G1 X110.332 Y148.079 E12.78734
G1 X110.156 Y147.699 E12.80125
G1 X109.914 Y147.355 E12.81523
G1 X109.619 Y147.06 E12.8291
G1 X109.275 Y146.818 E12.84307
G1 X108.895 Y146.642 E12.85699
G1 X108.492 Y146.534 E12.87085
G1 X108.068 Y146.497 E12.885
G0 F2625 X108.068 Y146.397
G0 X108.908 Y146.605
G0 X109.644 Y147.03
G0 X114.963 Y151.755
G0 X115.653 Y152.155
G0 X116.286 Y152.266
G0 X117.241 Y152.211
G0 X117.207 Y152.118
G1 F900 X117.564 Y151.95 E12.89811
G1 X117.884 Y151.725 E12.91111
G1 X118.161 Y151.448 E12.92413
G1 X118.386 Y151.128 E12.93713
G1 X118.554 Y150.77 E12.95027
G1 X118.654 Y150.389 E12.96336
G1 X118.686 Y150.033 E12.97524
G1 X118.686 Y129.967 E13.64207
G1 X118.654 Y129.611 E13.65395
G1 X118.554 Y129.23 E13.66704
G1 X118.386 Y128.872 E13.68018
G1 X118.161 Y128.552 E13.69318
G1 X117.884 Y128.275 E13.7062
G1 X117.564 Y128.05 E13.7192
G1 X117.207 Y127.882 E13.73231
G1 X116.827 Y127.782 E13.74537
G1 X116.436 Y127.747 E13.75842
G1 X116.046 Y127.782 E13.77143
G1 X115.666 Y127.882 E13.78449
G1 X115.308 Y128.05 E13.79763
G1 X114.988 Y128.275 E13.81063
G1 X114.71 Y128.552 E13.82367
G1 X114.485 Y128.874 E13.83672
G1 X114.319 Y129.229 E13.84975
G1 X114.218 Y129.609 E13.86281
G1 X114.186 Y129.967 E13.87476
G1 X114.186 Y150.033 E14.54159
G1 X114.218 Y150.391 E14.55354
G1 X114.319 Y150.771 E14.5666
G1 X114.485 Y151.126 E14.57963
G1 X114.71 Y151.448 E14.59268
G1 X114.988 Y151.725 E14.60572
G1 X115.308 Y151.95 E14.61872
G1 X115.666 Y152.118 E14.63186
G1 X116.046 Y152.218 E14.64492
G1 X116.436 Y152.253 E14.65793
G1 X116.827 Y152.218 E14.67098
G1 X117.207 Y152.118 E14.68404
G0 F2625 X117.241 Y152.211
G0 X107.594 Y161.977
G0 X107.594 Y162.077
G1 F900 X107.142 Y162.123 E14.69914
G1 X106.74 Y162.24 E14.71305
G1 X106.365 Y162.422 E14.7269
G1 X106.026 Y162.668 E14.74082
G1 X105.735 Y162.969 E14.75473
G1 X105.505 Y163.311 E14.76843
G1 X105.342 Y163.658 E14.78117
G1 X105.234 Y164.063 E14.7951
G1 X105.197 Y164.48 E14.80901
G1 X105.234 Y164.898 E14.82296
G1 X105.343 Y165.303 E14.8369
G1 X105.519 Y165.681 E14.85075
G1 X105.76 Y166.026 E14.86474
G1 X106.057 Y166.321 E14.87865
G1 X106.397 Y166.56 E14.89246
G1 X106.779 Y166.739 E14.90648
G1 X107.184 Y166.846 E14.9204
G1 X107.6 Y166.883 E14.93428
G1 X108.017 Y166.846 E14.94819
G1 X108.423 Y166.739 E14.96214
G1 X108.803 Y166.56 E14.9761
G1 X109.145 Y166.32 E14.98999
G1 X109.44 Y166.025 E15.00385
G1 X109.68 Y165.683 E15.01774
G1 X109.859 Y165.303 E15.0317
G1 X109.966 Y164.897 E15.04565
G1 X110.003 Y164.48 E15.05956
G1 X109.966 Y164.064 E15.07344
G1 X109.859 Y163.659 E15.08736
G1 X109.68 Y163.277 E15.10138
G1 X109.441 Y162.937 E15.11519
G1 X109.146 Y162.64 E15.1291
G1 X108.801 Y162.399 E15.14309
G1 X108.423 Y162.223 E15.15694
G1 X108.018 Y162.114 E15.17088
G1 X107.594 Y162.077 E15.18503
G0 F2625 X107.594 Y161.977
G0 X106.726 Y162.203
G0 X106 Y162.638
G0 X105.471 Y163.292
G0 X105.248 Y163.911
G0 X104.894 Y165.82
G0 X104.824 Y165.75
G1 F900 X104.824 Y114.25 E16.89647
G1 X96.113 Y114.25 E17.18596
G1 X96.484 Y113.623 E17.21017
G1 X98.235 Y111.045 E17.31373
G1 X100.126 Y108.607 E17.41627
G1 X102.163 Y106.298 E17.51859
G1 X104.372 Y104.089 E17.62241
G1 X106.681 Y102.052 E17.72473
G1 X110.939 Y98.75 E17.9038
G1 X167.324 Y98.75 E19.77758
G1 X167.324 Y113.819 E20.27835
G1 X167.146 Y113.64 E20.28674
G1 X166.801 Y113.399 E20.30073
G1 X166.423 Y113.223 E20.31459
G1 X166.018 Y113.114 E20.32852
G1 X165.594 Y113.077 E20.34267
G1 X165.142 Y113.123 E20.35777
G1 X164.74 Y113.24 E20.37168
G1 X164.365 Y113.422 E20.38553
G1 X164.026 Y113.668 E20.39945
G1 X163.735 Y113.969 E20.41336
G1 X163.505 Y114.311 E20.42706
G1 X163.342 Y114.658 E20.4398
G1 X163.234 Y115.063 E20.45373
G1 X163.197 Y115.48 E20.46764
G1 X163.234 Y115.898 E20.48159
G1 X163.343 Y116.303 E20.49552
G1 X163.519 Y116.681 E20.50938
G1 X163.76 Y117.026 E20.52337
G1 X164.057 Y117.321 E20.53728
G1 X164.397 Y117.56 E20.55109
G1 X164.779 Y117.739 E20.56511
G1 X165.184 Y117.846 E20.57903
G1 X165.6 Y117.883 E20.59291
G1 X166.017 Y117.846 E20.60682
G1 X166.423 Y117.739 E20.62077
G1 X166.803 Y117.56 E20.63473
G1 X167.145 Y117.32 E20.64862
G1 X167.44 Y117.025 E20.66248
G1 X167.68 Y116.683 E20.67637
G1 X167.859 Y116.303 E20.69032
G1 X167.966 Y115.897 E20.70428
G1 X167.979 Y115.75 E20.70918
G1 X180.923 Y115.75 E21.13934
G1 X181.22 Y116.252 E21.15872
G1 X182.64 Y119.04 E21.2627
G1 X183.869 Y121.878 E21.36547
G1 X184.324 Y123.143 E21.41015
G1 X184.324 Y156.857 E22.53053
G1 X183.869 Y158.121 E22.57517
G1 X182.64 Y160.961 E22.67801
G1 X181.222 Y163.745 E22.78184
G1 X180.923 Y164.25 E22.80134
G1 X167.983 Y164.25 E23.23136
G1 X167.966 Y164.064 E23.23757
G1 X167.859 Y163.659 E23.25149
G1 X167.68 Y163.277 E23.26551
G1 X167.441 Y162.937 E23.27932
G1 X167.146 Y162.64 E23.29323
G1 X166.801 Y162.399 E23.30722
G1 X166.423 Y162.223 E23.32107
G1 X166.018 Y162.114 E23.33501
G1 X165.594 Y162.077 E23.34916
G1 X165.142 Y162.123 E23.36425
G1 X164.74 Y162.24 E23.37817
G1 X164.365 Y162.422 E23.39202
G1 X164.026 Y162.668 E23.40594
G1 X163.735 Y162.969 E23.41985
G1 X163.505 Y163.311 E23.43355
G1 X163.342 Y163.658 E23.44629
G1 X163.234 Y164.063 E23.46022
G1 X163.197 Y164.48 E23.47413
G1 X163.234 Y164.898 E23.48808
G1 X163.343 Y165.303 E23.50201
G1 X163.519 Y165.681 E23.51587
G1 X163.76 Y166.026 E23.52986
G1 X164.057 Y166.321 E23.54377
G1 X164.397 Y166.56 E23.55758
G1 X164.779 Y166.739 E23.5716
G1 X165.184 Y166.846 E23.58552
G1 X165.6 Y166.883 E23.5994
G1 X166.017 Y166.846 E23.61331
G1 X166.423 Y166.739 E23.62726
G1 X166.803 Y166.56 E23.64122
G1 X167.145 Y166.32 E23.65511
G1 X167.324 Y166.141 E23.66352
G1 X167.324 Y181.25 E24.16562
G1 X110.939 Y181.25 E26.03941
G1 X106.681 Y177.948 E26.21847
G1 X104.372 Y175.911 E26.32079
G1 X102.163 Y173.702 E26.42461
G1 X100.126 Y171.393 E26.52694
G1 X98.232 Y168.951 E26.62964
G1 X96.484 Y166.377 E26.73304
G1 X96.113 Y165.75 E26.75725
G1 X104.824 Y165.75 E27.04673
G0 F2625 X104.894 Y165.82
G0 X107.141 Y176.834
G0 X107.32 Y177.22
G0 X107.866 Y177.87
G0 X108.461 Y178.213
G0 X109.442 Y178.503
G0 X109.442 Y178.403
G1 F900 X109.895 Y178.357 E27.06186
G1 X110.296 Y178.24 E27.07574
G1 X110.672 Y178.059 E27.08961
G1 X111.006 Y177.816 E27.10334
G1 X111.277 Y177.544 E27.1161
G1 X111.516 Y177.201 E27.12999
G1 X111.695 Y176.822 E27.14392
G1 X111.802 Y176.417 E27.15784
