;Generated by Cura LulzBot Edition GCodeWriter Version: 3.2.21
;FLAVOR:Marlin
;TIME:7339
;Filament used: 3.60851m
;Layer height: 0.25
;Generated with Cura_SteamEngine 3.2.21
M82 ;absolute extrusion mode
;This G-Code has been generated specifically for the LulzBot TAZ 6 with standard extruder
M75 ; start GLCD timer
G26 ; clear potential 'probe fail' condition
G21 ; set units to Millimetres
M107 ; disable fans
G90 ; absolute positioning
M82 ; set extruder to absolute mode
G92 E0 ; set extruder position to 0
M140 S60 ; start bed heating up
G28 XY ; home X and Y
G1 X-19 Y258 F1000 ; move to safe homing position
M109 R140 ; soften filament before homing Z
G28 Z ; home Z
G1 E-30 F100 ; retract filament
M109 R140 ; wait for extruder to reach wiping temp
G1 X-15 Y100 F3000 ; move above wiper pad
G1 Z1 ; push nozzle into wiper
G1 X-17 Y95 F1000 ; slow wipe
G1 X-17 Y90 F1000 ; slow wipe
G1 X-17 Y85 F1000 ; slow wipe
G1 X-15 Y90 F1000 ; slow wipe
G1 X-17 Y80 F1000 ; slow wipe
G1 X-15 Y95 F1000 ; slow wipe
G1 X-17 Y75 F2000 ; fast wipe
G1 X-15 Y65 F2000 ; fast wipe
G1 X-17 Y70 F2000 ; fast wipe
G1 X-15 Y60 F2000 ; fast wipe
G1 X-17 Y55 F2000 ; fast wipe
G1 X-15 Y50 F2000 ; fast wipe
G1 X-17 Y40 F2000 ; fast wipe
G1 X-15 Y45 F2000 ; fast wipe
G1 X-17 Y35 F2000 ; fast wipe
G1 X-15 Y40 F2000 ; fast wipe
G1 X-17 Y70 F2000 ; fast wipe
G1 X-15 Y30 Z2 F2000 ; fast wipe
G1 X-17 Y35 F2000 ; fast wipe
G1 X-15 Y25 F2000 ; fast wipe
G1 X-17 Y30 F2000 ; fast wipe
G1 X-15 Y25 Z1.5 F1000 ; slow wipe
G1 X-17 Y23 F1000 ; slow wipe
G1 Z10 ; raise extruder
M109 R140 ; wait for extruder to reach probe temp
G1 X-9 Y-9 ; move above first probe point
M204 S100 ; set probing acceleration
G29 ; start auto-leveling sequence
M204 S500 ; restore standard acceleration
G1 X0 Y0 Z15 F5000 ; move up off last probe point
G4 S1 ; pause
M400 ; wait for moves to finish
M117 Heating... ; progress indicator message on LCD
M109 R215 ; wait for extruder to reach printing temp
M190 S60 ; wait for bed to reach printing temp
G1 Z2 E0 F75 ; prime tiny bit of filament into the nozzle
M117 TAZ 6 Printing... ; progress indicator message on LCD

M221 S100
;LAYER_COUNT:152
;LAYER:0
M107
G0 F2625 X99.984 Y100.187 Z0.424
;TYPE:SKIRT
G1 F900 X100.155 Y100.03 E0.00771
G1 X102.561 Y97.98 E0.11276
G1 X102.682 Y97.882 E0.11793
G1 X106.481 Y94.948 E0.27745
G1 X106.908 Y94.669 E0.2944
G1 X107.373 Y94.46 E0.31134
G1 X107.864 Y94.327 E0.32825
G1 X108.468 Y94.27 E0.34841
G1 X165.861 Y94.262 E2.25569
G1 X166.368 Y94.302 E2.27259
G1 X166.864 Y94.421 E2.28954
G1 X167.335 Y94.615 E2.30647
G1 X167.769 Y94.881 E2.32339
G1 X168.157 Y95.212 E2.34033
G1 X168.585 Y95.74 E2.36292
G1 X170.73 Y99.038 E2.49366
G1 X173.922 Y103.481 E2.67547
G1 X177.374 Y107.752 E2.85796
G1 X181.538 Y112.322 E3.06342
G1 X181.851 Y112.724 E3.08035
G1 X182.006 Y112.986 E3.09047
G1 X183.907 Y116.565 E3.22514
G1 X184.016 Y116.791 E3.23348
G1 X185.263 Y119.652 E3.3372
G1 X185.336 Y119.835 E3.34374
G1 X185.904 Y121.388 E3.3987
G1 X186.041 Y121.878 E3.41561
G1 X186.102 Y122.504 E3.43651
G1 X186.107 Y156.472 E4.56533
G1 X186.067 Y156.979 E4.58223
G1 X185.921 Y157.556 E4.60201
G1 X185.464 Y158.848 E4.64755
G1 X185.371 Y159.081 E4.65589
G1 X183.7 Y162.852 E4.79296
G1 X183.591 Y163.076 E4.80124
G1 X181.999 Y166.033 E4.91284
G1 X181.723 Y166.461 E4.92977
G1 X181.497 Y166.727 E4.94137
G1 X179.826 Y168.491 E5.02211
G1 X176.213 Y172.63 E5.20469
G1 X172.847 Y176.955 E5.38682
G1 X169.732 Y181.461 E5.56886
G1 X168.601 Y183.238 E5.63886
G1 X168.295 Y183.645 E5.65578
G1 X167.929 Y183.999 E5.6727
G1 X167.511 Y184.292 E5.68967
G1 X167.054 Y184.515 E5.70657
G1 X166.567 Y184.665 E5.7235
G1 X165.859 Y184.743 E5.74717
G1 X108.492 Y184.742 E7.65359
G1 X107.984 Y184.702 E7.67052
G1 X107.489 Y184.583 E7.68744
G1 X107.018 Y184.388 E7.70438
G1 X106.486 Y184.049 E7.72535
G1 X101.343 Y180.015 E7.94256
G1 X101.191 Y179.888 E7.94914
G1 X99.606 Y178.48 E8.0196
G1 X99.446 Y178.328 E8.02693
G1 X96.534 Y175.364 E8.16502
G1 X96.377 Y175.192 E8.17276
G1 X94.326 Y172.782 E8.27792
G1 X94.225 Y172.658 E8.28324
G1 X92.937 Y170.984 E8.35343
G1 X92.808 Y170.804 E8.36079
G1 X90.478 Y167.306 E8.50046
G1 X90.35 Y167.096 E8.50863
G1 X89.773 Y166.069 E8.54778
G1 X89.559 Y165.607 E8.5647
G1 X89.42 Y165.116 E8.58166
G1 X89.359 Y164.61 E8.59859
G1 X89.378 Y164.101 E8.61552
G1 X89.444 Y163.726 E8.62817
G1 X90.284 Y160.19 E8.74895
G1 X90.841 Y157.472 E8.84115
G1 X91.301 Y154.829 E8.93031
G1 X92.015 Y149.39 E9.11261
G1 X92.42 Y143.937 E9.29432
G1 X92.516 Y138.455 E9.47653
G1 X92.303 Y132.977 E9.65871
G1 X91.781 Y127.537 E9.84032
G1 X90.954 Y122.147 E10.02154
G1 X89.431 Y115.215 E10.2574
G1 X89.361 Y114.71 E10.27434
G1 X89.37 Y114.2 E10.29129
G1 X89.46 Y113.699 E10.3082
G1 X89.626 Y113.217 E10.32515
G1 X89.829 Y112.828 E10.33973
G1 X91.386 Y110.269 E10.43927
G1 X91.482 Y110.12 E10.44516
G1 X92.652 Y108.414 E10.51391
G1 X92.78 Y108.239 E10.52111
G1 X95.346 Y104.986 E10.6588
G1 X95.467 Y104.842 E10.66505
G1 X96.865 Y103.266 E10.73506
G1 X97.017 Y103.106 E10.7424
G1 X99.984 Y100.187 E10.88071
G1 F600 E9.88071
G0 F2625 X101.689 Y102.124
G0 X102.625 Y103.185
G0 X103.799 Y104.438
G0 X103.824 Y104.925
G0 X103.933 Y105.337
G0 X104.358 Y106.071
G0 X105.008 Y106.616
G0 X105.226 Y106.718
G0 X106.235 Y107.005
G0 X106.235 Y106.905
;TYPE:WALL-INNER
G1 F600 E10.88071
G1 F900 X106.685 Y106.859 E10.89574
G1 X107.089 Y106.744 E10.9097
G1 X107.464 Y106.56 E10.92359
G1 X107.797 Y106.319 E10.93725
G1 X108.069 Y106.048 E10.95001
G1 X108.311 Y105.702 E10.96404
G1 X108.487 Y105.323 E10.97792
G1 X108.595 Y104.921 E10.99176
G1 X108.632 Y104.502 E11.00574
G1 X108.595 Y104.083 E11.01971
G1 X108.487 Y103.681 E11.03355
G1 X108.311 Y103.302 E11.04743
G1 X108.069 Y102.956 E11.06146
G1 X107.772 Y102.661 E11.07538
G1 X107.43 Y102.421 E11.08926
G1 X107.051 Y102.244 E11.10316
G1 X106.646 Y102.136 E11.11709
G1 X106.229 Y102.099 E11.131
G1 X105.81 Y102.136 E11.14498
G1 X105.408 Y102.244 E11.15881
G1 X105.028 Y102.42 E11.17273
G1 X104.684 Y102.662 E11.18671
G1 X104.388 Y102.958 E11.20062
G1 X104.149 Y103.301 E11.21451
G1 X103.97 Y103.68 E11.22844
G1 X103.863 Y104.085 E11.24236
G1 X103.826 Y104.502 E11.25627
G1 X103.863 Y104.919 E11.27019
G1 X103.97 Y105.324 E11.28411
G1 X104.149 Y105.703 E11.29804
G1 X104.388 Y106.046 E11.31193
G1 X104.685 Y106.343 E11.32589
G1 X105.028 Y106.582 E11.33978
G1 X105.407 Y106.761 E11.35371
G1 X105.812 Y106.868 E11.36763
G1 X106.235 Y106.905 E11.38174
G0 F2625 X106.235 Y107.005
G0 X105.387 Y112.479
G0 X105.387 Y112.579
G1 F900 X104.934 Y112.625 E11.39687
G1 X104.533 Y112.742 E11.41075
G1 X104.157 Y112.923 E11.42462
G1 X103.817 Y113.171 E11.43861
G1 X103.528 Y113.472 E11.45247
G1 X103.298 Y113.813 E11.46614
G1 X103.135 Y114.16 E11.47888
G1 X103.115 Y114.234 E11.48143
G1 X103.027 Y114.565 E11.49281
G1 X102.99 Y114.982 E11.50672
G1 X103.027 Y115.4 E11.52067
G1 X103.115 Y115.728 E11.53195
G1 X103.136 Y115.805 E11.53461
G1 X103.312 Y116.183 E11.54846
G1 X103.552 Y116.526 E11.56238
G1 X103.849 Y116.823 E11.57633
G1 X104.192 Y117.062 E11.59023
G1 X104.571 Y117.241 E11.60416
G1 X104.976 Y117.348 E11.61808
G1 X105.393 Y117.385 E11.63199
G1 X105.81 Y117.348 E11.6459
G1 X106.215 Y117.241 E11.65982
G1 X106.594 Y117.062 E11.67375
G1 X106.937 Y116.823 E11.68764
G1 X107.234 Y116.526 E11.7016
G1 X107.474 Y116.183 E11.71551
G1 X107.65 Y115.805 E11.72937
G1 X107.759 Y115.4 E11.74331
G1 X107.796 Y114.982 E11.75725
G1 X107.759 Y114.565 E11.77117
G1 X107.651 Y114.16 E11.78509
G1 X107.474 Y113.781 E11.799
G1 X107.234 Y113.439 E11.81288
G1 X106.939 Y113.142 E11.82679
G1 X106.593 Y112.9 E11.84082
G1 X106.214 Y112.724 E11.85471
G1 X105.811 Y112.616 E11.86857
G1 X105.387 Y112.579 E11.88272
G0 F2625 X105.387 Y112.479
G0 X106.227 Y112.687
G0 X106.964 Y113.112
G0 X107.508 Y113.761
G0 X107.798 Y114.559
G0 X107.798 Y115.406
G0 X107.508 Y116.202
G0 X107.2 Y116.57
G0 X105.861 Y117.999
G0 X105.861 Y118.099
G1 F900 X105.408 Y118.145 E11.89785
G1 X105.006 Y118.262 E11.91176
G1 X104.631 Y118.443 E11.9256
G1 X104.297 Y118.686 E11.93933
G1 X104.026 Y118.958 E11.95209
G1 X103.787 Y119.301 E11.96598
G1 X103.608 Y119.68 E11.97991
G1 X103.501 Y120.085 E11.99383
G1 X103.464 Y120.502 E12.00774
G1 X103.501 Y120.919 E12.02165
G1 X103.608 Y121.324 E12.03557
G1 X103.787 Y121.703 E12.0495
G1 X104.026 Y122.046 E12.0634
G1 X104.322 Y122.342 E12.07731
G1 X104.664 Y122.582 E12.09119
G1 X105.044 Y122.761 E12.10515
G1 X105.45 Y122.868 E12.1191
G1 X105.867 Y122.905 E12.13302
G1 X106.283 Y122.868 E12.1469
G1 X106.688 Y122.761 E12.16082
G1 X107.07 Y122.582 E12.17484
G1 X107.41 Y122.343 E12.18865
G1 X107.707 Y122.048 E12.20256
G1 X107.949 Y121.702 E12.21659
G1 X108.125 Y121.323 E12.23048
G1 X108.233 Y120.921 E12.24431
G1 X108.27 Y120.502 E12.25829
G1 X108.233 Y120.083 E12.27227
G1 X108.125 Y119.681 E12.2861
G1 X107.949 Y119.302 E12.29999
G1 X107.707 Y118.956 E12.31402
G1 X107.41 Y118.661 E12.32793
G1 X107.068 Y118.421 E12.34181
G1 X106.689 Y118.244 E12.35571
G1 X106.284 Y118.136 E12.36964
G1 X105.861 Y118.099 E12.38375
G0 F2625 X105.861 Y117.999
G0 X111.924 Y113.791
G0 X111.958 Y113.884
G1 F900 X111.601 Y114.052 E12.39687
G1 X111.281 Y114.277 E12.40987
G1 X111.004 Y114.554 E12.42288
G1 X110.779 Y114.874 E12.43588
G1 X110.611 Y115.232 E12.44903
G1 X110.511 Y115.612 E12.46208
G1 X110.476 Y116.002 E12.4751
G1 X110.511 Y116.392 E12.48811
G1 X110.611 Y116.772 E12.50117
G1 X110.779 Y117.13 E12.51431
G1 X111.004 Y117.45 E12.52731
G1 X111.281 Y117.727 E12.54033
G1 X111.601 Y117.952 E12.55333
G1 X111.958 Y118.12 E12.56644
G1 X112.338 Y118.22 E12.5795
G1 X112.696 Y118.252 E12.59144
G1 X152.762 Y118.252 E13.92291
G1 X153.118 Y118.22 E13.93479
G1 X153.499 Y118.12 E13.94788
G1 X153.857 Y117.952 E13.96102
G1 X154.177 Y117.727 E13.97402
G1 X154.455 Y117.45 E13.98707
G1 X154.68 Y117.128 E14.00012
G1 X154.846 Y116.773 E14.01314
G1 X154.947 Y116.393 E14.02621
G1 X154.982 Y116.002 E14.03926
G1 X154.947 Y115.611 E14.0523
G1 X154.846 Y115.231 E14.06537
G1 X154.68 Y114.876 E14.07839
G1 X154.455 Y114.554 E14.09145
G1 X154.177 Y114.277 E14.10449
G1 X153.857 Y114.052 E14.11749
G1 X153.499 Y113.884 E14.13063
G1 X153.118 Y113.784 E14.14372
G1 X152.762 Y113.752 E14.1556
G1 X112.696 Y113.752 E15.48707
G1 X112.338 Y113.784 E15.49901
G1 X111.958 Y113.884 E15.51207
G0 F2625 X111.924 Y113.791
G0 X111.256 Y114.247
G0 X110.745 Y114.854
G0 X110.472 Y115.606
G0 X110.472 Y116.318
G0 X113.424 Y127.291
G0 X113.458 Y127.384
G1 F900 X113.101 Y127.552 E15.52518
G1 X112.781 Y127.777 E15.53818
G1 X112.504 Y128.054 E15.5512
G1 X112.279 Y128.374 E15.5642
G1 X112.111 Y128.732 E15.57734
G1 X112.011 Y129.113 E15.59043
G1 X111.979 Y129.469 E15.60231
G1 X111.979 Y149.535 E16.26915
G1 X112.011 Y149.891 E16.28102
G1 X112.111 Y150.272 E16.29411
G1 X112.279 Y150.63 E16.30726
G1 X112.504 Y150.95 E16.32026
G1 X112.781 Y151.227 E16.33327
G1 X113.101 Y151.452 E16.34627
G1 X113.458 Y151.62 E16.35939
G1 X113.838 Y151.72 E16.37244
G1 X114.229 Y151.755 E16.38549
G1 X114.619 Y151.72 E16.3985
G1 X114.999 Y151.62 E16.41156
G1 X115.357 Y151.452 E16.4247
G1 X115.677 Y151.227 E16.4377
G1 X115.955 Y150.95 E16.45074
G1 X116.18 Y150.628 E16.4638
G1 X116.346 Y150.273 E16.47682
G1 X116.447 Y149.893 E16.48989
G1 X116.479 Y149.535 E16.50183
G1 X116.479 Y129.469 E17.16867
G1 X116.447 Y129.111 E17.18061
G1 X116.346 Y128.731 E17.19368
G1 X116.18 Y128.376 E17.2067
G1 X115.955 Y128.054 E17.21975
G1 X115.677 Y127.777 E17.2328
G1 X115.357 Y127.552 E17.2458
G1 X114.999 Y127.384 E17.25894
G1 X114.619 Y127.284 E17.272
G1 X114.229 Y127.249 E17.28501
G1 X113.838 Y127.284 E17.29805
G1 X113.458 Y127.384 E17.31111
G0 F2625 X113.424 Y127.291
G0 X112.756 Y127.747
G0 X112.245 Y128.354
G0 X105.861 Y145.899
G0 X105.861 Y145.999
G1 F900 X105.408 Y146.045 E17.32624
G1 X105.006 Y146.162 E17.34016
G1 X104.631 Y146.343 E17.35399
G1 X104.297 Y146.586 E17.36772
G1 X104.026 Y146.858 E17.38048
G1 X103.787 Y147.201 E17.39437
G1 X103.608 Y147.58 E17.4083
G1 X103.501 Y147.985 E17.42222
G1 X103.464 Y148.402 E17.43614
G1 X103.501 Y148.819 E17.45005
G1 X103.608 Y149.224 E17.46397
G1 X103.787 Y149.603 E17.4779
G1 X104.026 Y149.946 E17.49179
G1 X104.322 Y150.242 E17.5057
G1 X104.664 Y150.482 E17.51959
G1 X105.044 Y150.661 E17.53354
G1 X105.45 Y150.768 E17.5475
G1 X105.867 Y150.805 E17.56141
G1 X106.283 Y150.768 E17.57529
G1 X106.688 Y150.661 E17.58921
G1 X107.07 Y150.482 E17.60323
G1 X107.41 Y150.243 E17.61704
G1 X107.707 Y149.948 E17.63095
G1 X107.949 Y149.602 E17.64498
G1 X108.125 Y149.223 E17.65887
G1 X108.233 Y148.821 E17.6727
G1 X108.27 Y148.402 E17.68668
G1 X108.233 Y147.983 E17.70066
G1 X108.125 Y147.581 E17.71449
G1 X107.949 Y147.202 E17.72838
G1 X107.707 Y146.856 E17.74241
G1 X107.41 Y146.561 E17.75632
G1 X107.068 Y146.321 E17.77021
G1 X106.689 Y146.144 E17.78411
G1 X106.284 Y146.036 E17.79804
G1 X105.861 Y145.999 E17.81215
G0 F2625 X105.861 Y145.899
G0 X104.992 Y146.125
G0 X104.271 Y146.556
G0 X103.753 Y147.181
G0 X103.571 Y147.567
G0 X103.424 Y148.402
G0 X105.387 Y161.479
G0 X105.387 Y161.579
G1 F900 X104.934 Y161.625 E17.82728
G1 X104.533 Y161.742 E17.84116
G1 X104.157 Y161.923 E17.85503
G1 X103.817 Y162.171 E17.86901
G1 X103.528 Y162.472 E17.88288
G1 X103.298 Y162.813 E17.89655
G1 X103.135 Y163.16 E17.90929
G1 X103.115 Y163.234 E17.91184
G1 X103.027 Y163.565 E17.92322
G1 X102.99 Y163.982 E17.93713
G1 X103.027 Y164.4 E17.95108
G1 X103.115 Y164.728 E17.96236
G1 X103.136 Y164.805 E17.96501
G1 X103.312 Y165.183 E17.97887
G1 X103.552 Y165.526 E17.99278
G1 X103.849 Y165.823 E18.00674
G1 X104.192 Y166.062 E18.02063
G1 X104.571 Y166.241 E18.03456
G1 X104.976 Y166.348 E18.04848
G1 X105.393 Y166.385 E18.0624
G1 X105.81 Y166.348 E18.07631
G1 X106.215 Y166.241 E18.09023
G1 X106.594 Y166.062 E18.10416
G1 X106.937 Y165.823 E18.11805
G1 X107.234 Y165.526 E18.13201
G1 X107.474 Y165.183 E18.14592
G1 X107.65 Y164.805 E18.15978
G1 X107.759 Y164.4 E18.17371
G1 X107.796 Y163.982 E18.18766
G1 X107.759 Y163.565 E18.20157
G1 X107.651 Y163.16 E18.2155
G1 X107.474 Y162.781 E18.2294
G1 X107.234 Y162.439 E18.24329
G1 X106.939 Y162.142 E18.2572
G1 X106.593 Y161.9 E18.27123
G1 X106.214 Y161.724 E18.28512
G1 X105.811 Y161.616 E18.29898
G1 X105.387 Y161.579 E18.31313
G0 F2625 X105.387 Y161.479
G0 X104.519 Y161.705
G0 X103.791 Y162.141
G0 X103.264 Y162.794
G0 X103.041 Y163.413
G0 X102.687 Y165.322
G0 X102.617 Y165.252
G1 F900 X102.617 Y164.74 E18.33014
G1 X102.617 Y164.4 E18.34043
G1 X102.617 Y163.982 E18.35131
G1 X102.617 Y163.565 E18.36216
G1 X102.617 Y163.222 E18.37254
G1 X102.617 Y115.74 E19.95046
G1 X102.617 Y115.4 E19.96076
G1 X102.617 Y114.982 E19.97163
G1 X102.617 Y114.565 E19.98248
G1 X102.617 Y114.222 E19.99287
G1 X102.617 Y113.752 E20.00849
G1 X94.344 Y113.752 E20.28341
G1 X94.343 Y113.752 E20.28345
G1 X93.906 Y113.752 E20.29797
G1 X94.128 Y113.375 E20.3062
G1 X94.276 Y113.126 E20.31582
G1 X96.037 Y110.535 E20.41993
G1 X97.915 Y108.114 E20.52175
G1 X99.955 Y105.8 E20.62427
G1 X102.164 Y103.591 E20.72809
G1 X104.479 Y101.55 E20.83065
G1 X108.732 Y98.252 E21.0095
G1 X165.117 Y98.252 E22.88328
G1 X165.117 Y112.833 E23.36784
G1 X165.117 Y113.142 E23.37811
G1 X165.117 Y113.321 E23.38406
G1 X164.939 Y113.142
G1 X164.686 Y112.965 E23.39138
G1 X164.593 Y112.9 E23.39515
G1 X164.214 Y112.724 E23.40904
G1 X163.811 Y112.616 E23.42291
G1 X163.387 Y112.579 E23.43705
G1 X162.934 Y112.625 E23.45218
G1 X162.533 Y112.742 E23.46606
G1 X162.157 Y112.923 E23.47993
G1 X161.817 Y113.171 E23.49392
G1 X161.528 Y113.472 E23.50778
G1 X161.298 Y113.813 E23.52145
G1 X161.135 Y114.16 E23.53419
G1 X161.027 Y114.565 E23.54812
G1 X160.99 Y114.982 E23.56203
G1 X161.027 Y115.4 E23.57598
G1 X161.136 Y115.805 E23.58992
G1 X161.312 Y116.183 E23.60377
G1 X161.552 Y116.526 E23.61769
G1 X161.849 Y116.823 E23.63164
G1 X162.192 Y117.062 E23.64554
G1 X162.571 Y117.241 E23.65947
G1 X162.976 Y117.348 E23.67339
G1 X163.393 Y117.385 E23.6873
G1 X163.81 Y117.348 E23.70121
G1 X164.215 Y117.241 E23.71513
G1 X164.594 Y117.062 E23.72906
G1 X164.937 Y116.823 E23.74295
G1 X165.234 Y116.526 E23.75691
G1 X165.474 Y116.183 E23.77082
G1 X165.65 Y115.805 E23.78468
G1 X165.759 Y115.4 E23.79862
