;Generated by Cura LulzBot Edition GCodeWriter Version: 3.2.21
;FLAVOR:Marlin
;TIME:3907
;Filament used: 1.77865m
;Layer height: 0.25
;Generated with Cura_SteamEngine 3.2.21
M82 ;absolute extrusion mode
;This G-Code has been generated specifically for the LulzBot TAZ 6 with standard extruder
M75 ; start GLCD timer
G26 ; clear potential 'probe fail' condition
G21 ; set units to Millimetres
M107 ; disable fans
G90 ; absolute positioning
M82 ; set extruder to absolute mode
G92 E0 ; set extruder position to 0
M140 S60 ; start bed heating up
G28 XY ; home X and Y
G1 X-19 Y258 F1000 ; move to safe homing position
M109 R140 ; soften filament before homing Z
G28 Z ; home Z
G1 E-30 F100 ; retract filament
M109 R140 ; wait for extruder to reach wiping temp
G1 X-15 Y100 F3000 ; move above wiper pad
G1 Z1 ; push nozzle into wiper
G1 X-17 Y95 F1000 ; slow wipe
G1 X-17 Y90 F1000 ; slow wipe
G1 X-17 Y85 F1000 ; slow wipe
G1 X-15 Y90 F1000 ; slow wipe
G1 X-17 Y80 F1000 ; slow wipe
G1 X-15 Y95 F1000 ; slow wipe
G1 X-17 Y75 F2000 ; fast wipe
G1 X-15 Y65 F2000 ; fast wipe
G1 X-17 Y70 F2000 ; fast wipe
G1 X-15 Y60 F2000 ; fast wipe
G1 X-17 Y55 F2000 ; fast wipe
G1 X-15 Y50 F2000 ; fast wipe
G1 X-17 Y40 F2000 ; fast wipe
G1 X-15 Y45 F2000 ; fast wipe
G1 X-17 Y35 F2000 ; fast wipe
G1 X-15 Y40 F2000 ; fast wipe
G1 X-17 Y70 F2000 ; fast wipe
G1 X-15 Y30 Z2 F2000 ; fast wipe
G1 X-17 Y35 F2000 ; fast wipe
G1 X-15 Y25 F2000 ; fast wipe
G1 X-17 Y30 F2000 ; fast wipe
G1 X-15 Y25 Z1.5 F1000 ; slow wipe
G1 X-17 Y23 F1000 ; slow wipe
G1 Z10 ; raise extruder
M109 R140 ; wait for extruder to reach probe temp
G1 X-9 Y-9 ; move above first probe point
M204 S100 ; set probing acceleration
G29 ; start auto-leveling sequence
M204 S500 ; restore standard acceleration
G1 X0 Y0 Z15 F5000 ; move up off last probe point
G4 S1 ; pause
M400 ; wait for moves to finish
M117 Heating... ; progress indicator message on LCD
M109 R215 ; wait for extruder to reach printing temp
M190 S60 ; wait for bed to reach printing temp
G1 Z2 E0 F75 ; prime tiny bit of filament into the nozzle
M117 TAZ 6 Printing... ; progress indicator message on LCD

M221 S100
;LAYER_COUNT:24
;LAYER:0
M107
G0 F2625 X99.288 Y103.604 Z0.424
;TYPE:SKIRT
G1 F900 X102.255 Y100.685 E0.13832
G1 X102.426 Y100.528 E0.14603
G1 X104.832 Y98.478 E0.25107
G1 X104.953 Y98.38 E0.25625
G1 X108.752 Y95.446 E0.41577
G1 X109.179 Y95.167 E0.43272
G1 X109.644 Y94.958 E0.44966
G1 X110.135 Y94.825 E0.46656
G1 X110.739 Y94.768 E0.48672
G1 X168.132 Y94.76 E2.39401
G1 X168.639 Y94.8 E2.41091
G1 X169.135 Y94.919 E2.42786
G1 X169.606 Y95.113 E2.44479
G1 X170.04 Y95.379 E2.4617
G1 X170.428 Y95.71 E2.47865
G1 X170.856 Y96.238 E2.50124
G1 X173.001 Y99.536 E2.63198
G1 X176.193 Y103.979 E2.81378
G1 X179.645 Y108.25 E2.99628
G1 X183.809 Y112.82 E3.20174
G1 X184.122 Y113.222 E3.21867
G1 X184.277 Y113.484 E3.22879
G1 X186.178 Y117.063 E3.36346
G1 X186.287 Y117.289 E3.3718
G1 X187.534 Y120.15 E3.47551
G1 X187.607 Y120.333 E3.48206
G1 X188.175 Y121.886 E3.53701
G1 X188.312 Y122.376 E3.55392
G1 X188.373 Y123.002 E3.57482
G1 X188.378 Y156.97 E4.70365
G1 X188.338 Y157.477 E4.72055
G1 X188.192 Y158.054 E4.74033
G1 X187.735 Y159.346 E4.78587
G1 X187.642 Y159.579 E4.79421
G1 X185.97 Y163.351 E4.93132
G1 X185.861 Y163.574 E4.93957
G1 X184.273 Y166.526 E5.05096
G1 X183.997 Y166.954 E5.06789
G1 X183.772 Y167.219 E5.07944
G1 X182.082 Y169.006 E5.16118
G1 X178.456 Y173.16 E5.34442
G1 X175.096 Y177.483 E5.52637
G1 X171.972 Y182.007 E5.70907
G1 X170.872 Y183.736 E5.77717
G1 X170.566 Y184.143 E5.79409
G1 X170.199 Y184.497 E5.81104
G1 X169.782 Y184.79 E5.82798
G1 X169.325 Y185.014 E5.84489
G1 X168.837 Y185.163 E5.86185
G1 X168.13 Y185.241 E5.88548
G1 X110.763 Y185.24 E7.7919
G1 X110.255 Y185.2 E7.80884
G1 X109.76 Y185.081 E7.82576
G1 X109.289 Y184.886 E7.8427
G1 X108.757 Y184.547 E7.86366
G1 X103.614 Y180.513 E8.08088
G1 X103.462 Y180.386 E8.08746
G1 X101.877 Y178.978 E8.15791
G1 X101.717 Y178.826 E8.16525
G1 X98.805 Y175.862 E8.30333
G1 X98.648 Y175.69 E8.31107
G1 X96.597 Y173.28 E8.41623
G1 X96.496 Y173.156 E8.42155
G1 X95.208 Y171.482 E8.49174
G1 X95.079 Y171.302 E8.4991
G1 X92.749 Y167.804 E8.63877
G1 X92.621 Y167.594 E8.64694
G1 X92.044 Y166.567 E8.68609
G1 X91.83 Y166.105 E8.70301
G1 X91.691 Y165.614 E8.71997
G1 X91.63 Y165.108 E8.73691
G1 X91.649 Y164.599 E8.75383
G1 X91.715 Y164.224 E8.76649
G1 X92.555 Y160.688 E8.88727
G1 X93.112 Y157.97 E8.97947
G1 X93.572 Y155.327 E9.06862
G1 X94.286 Y149.888 E9.25092
G1 X94.691 Y144.435 E9.43263
G1 X94.787 Y138.953 E9.61484
G1 X94.574 Y133.475 E9.79702
G1 X94.052 Y128.035 E9.97863
G1 X93.225 Y122.645 E10.15985
G1 X91.702 Y115.713 E10.39571
G1 X91.632 Y115.208 E10.41265
G1 X91.641 Y114.698 E10.4296
G1 X91.731 Y114.197 E10.44652
G1 X91.897 Y113.715 E10.46346
G1 X92.1 Y113.326 E10.47804
G1 X93.657 Y110.767 E10.57758
G1 X93.753 Y110.618 E10.58348
G1 X94.923 Y108.912 E10.65222
G1 X95.051 Y108.737 E10.65943
G1 X97.617 Y105.484 E10.79711
G1 X97.738 Y105.34 E10.80336
G1 X99.136 Y103.764 E10.87337
G1 X99.288 Y103.604 E10.88071
G1 F600 E9.88071
G0 F2625 X103.433 Y103.089
G0 X104.448 Y104.103
G0 X107.962 Y102.027
G0 X108.023 Y102.105
;TYPE:WALL-INNER
G1 F600 E10.88071
G1 F900 X107.699 Y102.409 E10.89547
G1 X107.454 Y102.741 E10.90918
G1 X107.27 Y103.104 E10.92271
G1 X107.152 Y103.493 E10.93622
G1 X107.099 Y103.897 E10.94976
G1 X107.116 Y104.306 E10.96336
G1 X107.202 Y104.705 E10.97693
G1 X107.355 Y105.082 E10.99045
G1 X107.567 Y105.428 E11.00393
G1 X107.837 Y105.734 E11.01749
G1 X108.153 Y105.99 E11.03101
G1 X108.509 Y106.19 E11.04458
G1 X108.895 Y106.326 E11.05818
G1 X109.297 Y106.394 E11.07173
G1 X109.703 Y106.394 E11.08522
G1 X110.105 Y106.326 E11.09877
G1 X110.491 Y106.19 E11.11237
G1 X110.847 Y105.99 E11.12594
G1 X111.163 Y105.734 E11.13945
G1 X111.433 Y105.428 E11.15302
G1 X111.645 Y105.082 E11.1665
G1 X111.798 Y104.705 E11.18002
G1 X111.884 Y104.306 E11.19359
G1 X111.901 Y103.897 E11.20719
G1 X111.848 Y103.493 E11.22073
G1 X111.73 Y103.104 E11.23424
G1 X111.547 Y102.741 E11.24775
G1 X111.305 Y102.413 E11.26129
G1 X111.01 Y102.13 E11.27488
G1 X110.672 Y101.903 E11.28841
G1 X110.301 Y101.734 E11.30196
G1 X109.906 Y101.633 E11.31551
G1 X109.535 Y101.599 E11.32789
G1 X109.136 Y101.627 E11.34118
G1 X108.74 Y101.722 E11.35471
G1 X108.367 Y101.884 E11.36823
G1 X108.023 Y102.105 E11.38181
G0 F2625 X107.962 Y102.027
G0 X108.728 Y101.685
G0 X109.185 Y101.616
G0 X115.749 Y100.982
G0 X115.819 Y101.052
G1 F900 X115.539 Y101.382 E11.3962
G1 X115.314 Y101.75 E11.41053
G1 X115.149 Y102.147 E11.42482
G1 X115.047 Y102.568 E11.43921
G1 X115.014 Y102.999 E11.45358
G1 X115.047 Y103.43 E11.46794
G1 X115.149 Y103.851 E11.48234
G1 X115.314 Y104.249 E11.49666
G1 X115.539 Y104.615 E11.51093
G1 X115.818 Y104.944 E11.52527
G1 X116.149 Y105.226 E11.53972
G1 X116.516 Y105.451 E11.55403
G1 X116.916 Y105.617 E11.56842
G1 X117.336 Y105.717 E11.58277
G1 X117.766 Y105.752 E11.5971
G1 X118.196 Y105.717 E11.61144
G1 X118.616 Y105.617 E11.62579
G1 X119.016 Y105.451 E11.64018
G1 X119.383 Y105.226 E11.65448
G1 X119.712 Y104.945 E11.66886
G1 X119.993 Y104.616 E11.68324
G1 X120.218 Y104.249 E11.69755
G1 X120.384 Y103.849 E11.71194
G1 X120.484 Y103.429 E11.72629
G1 X120.519 Y102.999 E11.74062
G1 X120.484 Y102.569 E11.75496
G1 X120.384 Y102.149 E11.76931
G1 X120.218 Y101.749 E11.7837
G1 X119.993 Y101.382 E11.79801
G1 X119.711 Y101.051 E11.81246
G1 X119.382 Y100.772 E11.82679
G1 X119.016 Y100.547 E11.84107
G1 X118.618 Y100.382 E11.85539
G1 X118.197 Y100.28 E11.86978
G1 X117.766 Y100.247 E11.88415
G1 X117.335 Y100.28 E11.89851
G1 X116.914 Y100.382 E11.91291
G1 X116.517 Y100.547 E11.9272
G1 X116.149 Y100.772 E11.94153
G1 X115.819 Y101.052 E11.95591
G0 F2625 X115.749 Y100.982
G0 X116.499 Y100.512
G0 X117.329 Y100.241
G0 X121.946 Y100.179
G0 X122.016 Y100.249
G1 F900 X122.016 Y105.749 E12.13869
G1 X150.016 Y105.749 E13.06918
G1 X150.016 Y100.249 E13.25196
G1 X122.016 Y100.249 E14.18245
G0 F2625 X121.946 Y100.179
G0 X150.044 Y100.221
G0 X150.044 Y105.777
G0 X136.105 Y108.18
G0 X136.175 Y108.25
G1 F900 X136.175 Y111.75 E14.29877
G1 X114.25 Y111.75 E15.02738
G1 X114.25 Y120.25 E15.30985
G1 X136.175 Y120.25 E16.03846
G1 X136.175 Y123.75 E16.15477
G1 X139.967 Y123.75 E16.28079
G1 X139.61 Y123.782 E16.2927
G1 X139.23 Y123.882 E16.30576
G1 X138.872 Y124.05 E16.3189
G1 X138.552 Y124.275 E16.3319
G1 X138.275 Y124.552 E16.34492
G1 X138.05 Y124.872 E16.35792
G1 X137.882 Y125.23 E16.37106
G1 X137.782 Y125.61 E16.38412
G1 X137.747 Y126 E16.39713
G1 X137.782 Y126.39 E16.41014
G1 X137.882 Y126.77 E16.4232
G1 X138.05 Y127.128 E16.43634
G1 X138.275 Y127.448 E16.44934
G1 X138.552 Y127.725 E16.46236
G1 X138.872 Y127.95 E16.47536
G1 X139.23 Y128.118 E16.4885
G1 X139.61 Y128.218 E16.50156
G1 X140 Y128.253 E16.51457
G1 X140.39 Y128.218 E16.52759
G1 X140.77 Y128.118 E16.54064
G1 X141.128 Y127.95 E16.55379
G1 X141.448 Y127.725 E16.56679
G1 X141.725 Y127.448 E16.5798
G1 X141.95 Y127.128 E16.5928
G1 X142.118 Y126.77 E16.60595
G1 X142.218 Y126.39 E16.619
G1 X142.253 Y126 E16.63202
G1 X142.218 Y125.61 E16.64503
G1 X142.118 Y125.23 E16.65809
G1 X141.95 Y124.872 E16.67123
G1 X141.725 Y124.552 E16.68423
G1 X141.448 Y124.275 E16.69725
G1 X141.128 Y124.05 E16.71025
G1 X140.77 Y123.882 E16.72339
G1 X140.39 Y123.782 E16.73645
G1 X140.033 Y123.75 E16.74836
G1 X143.675 Y123.75 E16.86939
G1 X143.675 Y120.25 E16.9857
G1 X157.342 Y120.25 E17.43988
G1 X157.342 Y117.688 E17.52502
G1 X157.587 Y117.887 E17.53551
G1 X157.942 Y118.086 E17.54904
G1 X158.326 Y118.223 E17.56259
G1 X158.728 Y118.293 E17.57615
G1 X159.134 Y118.295 E17.58964
G1 X159.538 Y118.228 E17.60325
G1 X159.923 Y118.092 E17.61682
G1 X160.279 Y117.894 E17.63035
G1 X160.596 Y117.638 E17.64389
G1 X160.864 Y117.335 E17.65734
G1 X161.079 Y116.989 E17.67087
G1 X161.233 Y116.609 E17.6845
G1 X161.319 Y116.213 E17.69797
G1 X161.34 Y115.806 E17.71151
G1 X161.289 Y115.399 E17.72514
G1 X161.17 Y115.01 E17.73866
G1 X160.988 Y114.646 E17.75218
G1 X160.747 Y114.318 E17.76571
G1 X160.452 Y114.034 E17.77932
G1 X160.116 Y113.806 E17.79281
G1 X159.744 Y113.637 E17.80639
G1 X159.35 Y113.535 E17.81992
G1 X158.948 Y113.498 E17.83333
G1 X158.54 Y113.529 E17.84693
G1 X158.142 Y113.632 E17.86059
G1 X157.771 Y113.8 E17.87413
G1 X157.434 Y114.026 E17.88761
G1 X157.342 Y114.113 E17.89182
G1 X157.342 Y111.75 E17.97034
G1 X143.675 Y111.75 E18.42453
G1 X143.675 Y108.25 E18.54084
G1 X136.175 Y108.25 E18.79008
G0 F2625 X136.105 Y108.18
G0 X154.702 Y105.757
G0 X155.534 Y105.487
G0 X155.932 Y105.198
G0 X156.573 Y104.677
G0 X156.493 Y104.619
G1 F900 X156.718 Y104.249 E18.80447
G1 X156.884 Y103.85 E18.81883
G1 X156.984 Y103.43 E18.83318
G1 X157.019 Y103 E18.84751
G1 X156.984 Y102.57 E18.86185
G1 X156.884 Y102.15 E18.8762
G1 X156.718 Y101.751 E18.89056
G1 X156.493 Y101.381 E18.90495
G1 X156.211 Y101.054 E18.9193
G1 X155.883 Y100.773 E18.93365
G1 X155.516 Y100.548 E18.94796
G1 X155.116 Y100.382 E18.96235
G1 X154.696 Y100.282 E18.9767
G1 X154.266 Y100.247 E18.99104
G1 X153.836 Y100.282 E19.00537
G1 X153.416 Y100.382 E19.01972
G1 X153.016 Y100.548 E19.03411
G1 X152.648 Y100.773 E19.04845
G1 X152.319 Y101.054 E19.06283
G1 X152.039 Y101.382 E19.07716
G1 X151.814 Y101.751 E19.09152
G1 X151.649 Y102.148 E19.10581
G1 X151.547 Y102.569 E19.1202
G1 X151.514 Y103 E19.13457
G1 X151.547 Y103.431 E19.14893
G1 X151.649 Y103.852 E19.16333
G1 X151.814 Y104.249 E19.17762
G1 X152.039 Y104.618 E19.19198
G1 X152.319 Y104.946 E19.20631
G1 X152.648 Y105.227 E19.22069
G1 X153.016 Y105.452 E19.23502
G1 X153.416 Y105.618 E19.24941
G1 X153.836 Y105.718 E19.26376
G1 X154.266 Y105.753 E19.2781
G1 X154.696 Y105.718 E19.29244
G1 X155.116 Y105.618 E19.30678
G1 X155.516 Y105.452 E19.32117
G1 X155.883 Y105.227 E19.33548
G1 X156.211 Y104.946 E19.34983
G1 X156.493 Y104.619 E19.36418
G0 F2625 X156.573 Y104.677
G0 X159.18 Y107.13
G0 X159.25 Y107.2
G1 F900 X159.25 Y110.7 E19.4805
G1 X166.75 Y110.7 E19.72974
G1 X166.75 Y107.2 E19.84605
G1 X159.25 Y107.2 E20.09529
G0 F2625 X159.18 Y107.13
G0 X161.92 Y100.721
G0 X162.462 Y100.027
G0 X162.523 Y100.105
G1 F900 X162.199 Y100.409 E20.11005
G1 X161.954 Y100.741 E20.12376
G1 X161.77 Y101.104 E20.13729
G1 X161.652 Y101.493 E20.1508
G1 X161.599 Y101.897 E20.16434
G1 X161.616 Y102.306 E20.17794
G1 X161.702 Y102.705 E20.19151
G1 X161.855 Y103.082 E20.20503
G1 X162.067 Y103.428 E20.21851
G1 X162.337 Y103.734 E20.23207
G1 X162.653 Y103.99 E20.24559
G1 X163.009 Y104.19 E20.25916
G1 X163.395 Y104.326 E20.27276
G1 X163.797 Y104.394 E20.28631
G1 X164.203 Y104.394 E20.2998
G1 X164.605 Y104.326 E20.31335
G1 X164.991 Y104.19 E20.32695
G1 X165.347 Y103.99 E20.34052
G1 X165.663 Y103.734 E20.35403
G1 X165.933 Y103.428 E20.36759
G1 X166.145 Y103.082 E20.38108
G1 X166.298 Y102.705 E20.3946
G1 X166.384 Y102.306 E20.40816
G1 X166.401 Y101.897 E20.42177
G1 X166.348 Y101.493 E20.43531
G1 X166.23 Y101.104 E20.44882
G1 X166.047 Y100.741 E20.46233
G1 X165.805 Y100.413 E20.47587
G1 X165.51 Y100.13 E20.48946
G1 X165.172 Y99.903 E20.50299
G1 X164.801 Y99.734 E20.51654
G1 X164.406 Y99.633 E20.53009
G1 X164.035 Y99.599 E20.54247
G1 X163.636 Y99.627 E20.55576
G1 X163.24 Y99.722 E20.56929
G1 X162.867 Y99.884 E20.58281
G1 X162.523 Y100.105 E20.59639
G0 F2625 X162.462 Y100.027
G0 X161.92 Y100.721
G0 X161.613 Y101.485
G0 X161.577 Y102.311
G0 X161.82 Y103.1
G0 X162.31 Y103.762
G0 X167.364 Y107.271
G0 X166.482 Y113.219
G0 X165.674 Y113.078
G0 X164.856 Y113.215
G0 X164.136 Y113.616
G0 X163.588 Y114.234
G0 X163.279 Y115.001
G0 X163.24 Y115.82
G0 X163.482 Y116.616
G0 X163.969 Y117.278
G0 X164.652 Y117.742
G0 X165.451 Y117.952
G0 X166.275 Y117.886
G0 X168.216 Y117.29
G0 X174.448 Y117.735
G0 X174.414 Y117.828
G1 F900 X174.032 Y117.728 E20.60952
G1 X173.642 Y117.693 E20.62253
G1 X173.252 Y117.728 E20.63554
G1 X172.872 Y117.828 E20.6486
G1 X172.514 Y117.996 E20.66174
G1 X172.194 Y118.221 E20.67474
G1 X171.916 Y118.498 E20.68778
G1 X171.691 Y118.82 E20.70084
G1 X171.525 Y119.175 E20.71386
G1 X171.424 Y119.553 E20.72686
G1 X171.389 Y119.946 E20.73997
G1 X171.424 Y120.337 E20.75302
G1 X171.525 Y120.717 E20.76609
G1 X171.691 Y121.072 E20.77911
G1 X171.916 Y121.394 E20.79216
G1 X172.194 Y121.672 E20.80523
G1 X172.516 Y121.897 E20.81828
G1 X172.871 Y122.063 E20.83131
G1 X173.251 Y122.164 E20.84437
G1 X173.642 Y122.199 E20.85742
G1 X174.034 Y122.164 E20.8705
G1 X174.414 Y122.063 E20.88357
G1 X174.768 Y121.897 E20.89656
G1 X175.09 Y121.672 E20.90961
G1 X175.369 Y121.394 E20.9227
G1 X175.594 Y121.072 E20.93576
G1 X175.76 Y120.717 E20.94878
G1 X175.861 Y120.336 E20.96188
G1 X175.895 Y119.946 E20.97489
G1 X175.861 Y119.555 E20.98793
G1 X175.76 Y119.175 E21.001
G1 X175.594 Y118.82 E21.01402
G1 X175.369 Y118.498 E21.02707
G1 X175.091 Y118.22 E21.04014
G1 X174.77 Y117.996 E21.05315
G1 X174.414 Y117.828 E21.06623
G0 F2625 X174.448 Y117.735
G0 X174.825 Y117.992
G0 X179.93 Y122.18
G0 X180 Y122.25
G1 F900 X180 Y135.75 E21.51486
G1 X184 Y135.75 E21.64779
G1 X184 Y122.25 E22.09642
G1 X180 Y122.25 E22.22935
G0 F2625 X179.93 Y122.18
G0 X179.777 Y139.234
G0 X179.871 Y139.266
G1 F900 X179.777 Y139.649 E22.24245
G1 X179.749 Y140.039 E22.25545
G1 X179.791 Y140.429 E22.26848
G1 X179.898 Y140.807 E22.28154
G1 X180.071 Y141.159 E22.29457
G1 X180.3 Y141.475 E22.30754
G1 X180.583 Y141.749 E22.32063
G1 X180.908 Y141.968 E22.33366
G1 X181.266 Y142.129 E22.3467
G1 X181.649 Y142.223 E22.35981
G1 X182.039 Y142.251 E22.3728
G1 X182.429 Y142.209 E22.38584
G1 X182.807 Y142.102 E22.39889
G1 X183.159 Y141.929 E22.41192
G1 X183.475 Y141.7 E22.42489
G1 X183.749 Y141.417 E22.43798
G1 X183.968 Y141.092 E22.45101
G1 X184.129 Y140.734 E22.46405
G1 X184.223 Y140.351 E22.47716
G1 X184.251 Y139.961 E22.49015
G1 X184.209 Y139.571 E22.50319
G1 X184.102 Y139.193 E22.51624
G1 X183.929 Y138.841 E22.52928
G1 X183.7 Y138.525 E22.54225
G1 X183.417 Y138.251 E22.55534
G1 X183.092 Y138.032 E22.56836
G1 X182.734 Y137.871 E22.5814
G1 X182.351 Y137.777 E22.59451
G1 X181.961 Y137.749 E22.6075
G1 X181.571 Y137.791 E22.62054
G1 X181.193 Y137.898 E22.63359
G1 X180.841 Y138.071 E22.64663
G1 X180.525 Y138.3 E22.6596
G1 X180.251 Y138.583 E22.67269
