;Generated by Cura LulzBot Edition GCodeWriter Version: 3.2.21
;FLAVOR:Marlin
;TIME:3914
;Filament used: 1.74115m
;Layer height: 0.25
;Generated with Cura_SteamEngine 3.2.21
M82 ;absolute extrusion mode
;This G-Code has been generated specifically for the LulzBot TAZ 6 with standard extruder
M75 ; start GLCD timer
G26 ; clear potential 'probe fail' condition
G21 ; set units to Millimetres
M107 ; disable fans
G90 ; absolute positioning
M82 ; set extruder to absolute mode
G92 E0 ; set extruder position to 0
M140 S60 ; start bed heating up
G28 XY ; home X and Y
G1 X-19 Y258 F1000 ; move to safe homing position
M109 R140 ; soften filament before homing Z
G28 Z ; home Z
G1 E-30 F100 ; retract filament
M109 R140 ; wait for extruder to reach wiping temp
G1 X-15 Y100 F3000 ; move above wiper pad
G1 Z1 ; push nozzle into wiper
G1 X-17 Y95 F1000 ; slow wipe
G1 X-17 Y90 F1000 ; slow wipe
G1 X-17 Y85 F1000 ; slow wipe
G1 X-15 Y90 F1000 ; slow wipe
G1 X-17 Y80 F1000 ; slow wipe
G1 X-15 Y95 F1000 ; slow wipe
G1 X-17 Y75 F2000 ; fast wipe
G1 X-15 Y65 F2000 ; fast wipe
G1 X-17 Y70 F2000 ; fast wipe
G1 X-15 Y60 F2000 ; fast wipe
G1 X-17 Y55 F2000 ; fast wipe
G1 X-15 Y50 F2000 ; fast wipe
G1 X-17 Y40 F2000 ; fast wipe
G1 X-15 Y45 F2000 ; fast wipe
G1 X-17 Y35 F2000 ; fast wipe
G1 X-15 Y40 F2000 ; fast wipe
G1 X-17 Y70 F2000 ; fast wipe
G1 X-15 Y30 Z2 F2000 ; fast wipe
G1 X-17 Y35 F2000 ; fast wipe
G1 X-15 Y25 F2000 ; fast wipe
G1 X-17 Y30 F2000 ; fast wipe
G1 X-15 Y25 Z1.5 F1000 ; slow wipe
G1 X-17 Y23 F1000 ; slow wipe
G1 Z10 ; raise extruder
M109 R140 ; wait for extruder to reach probe temp
G1 X-9 Y-9 ; move above first probe point
M204 S100 ; set probing acceleration
G29 ; start auto-leveling sequence
M204 S500 ; restore standard acceleration
G1 X0 Y0 Z15 F5000 ; move up off last probe point
G4 S1 ; pause
M400 ; wait for moves to finish
M117 Heating... ; progress indicator message on LCD
M109 R215 ; wait for extruder to reach printing temp
M190 S60 ; wait for bed to reach printing temp
G1 Z2 E0 F75 ; prime tiny bit of filament into the nozzle
M117 TAZ 6 Printing... ; progress indicator message on LCD

M221 S100
;LAYER_COUNT:20
;LAYER:0
M107
G0 F2625 X99.288 Y103.604 Z0.424
;TYPE:SKIRT
G1 F900 X102.255 Y100.685 E0.13832
G1 X102.426 Y100.528 E0.14603
G1 X104.832 Y98.478 E0.25107
G1 X104.953 Y98.38 E0.25625
G1 X108.752 Y95.446 E0.41577
G1 X109.179 Y95.167 E0.43272
G1 X109.644 Y94.958 E0.44966
G1 X110.135 Y94.825 E0.46656
G1 X110.739 Y94.768 E0.48672
G1 X168.132 Y94.76 E2.39401
G1 X168.639 Y94.8 E2.41091
G1 X169.135 Y94.919 E2.42786
G1 X169.606 Y95.113 E2.44479
G1 X170.04 Y95.379 E2.4617
G1 X170.428 Y95.71 E2.47865
G1 X170.856 Y96.238 E2.50124
G1 X173.001 Y99.536 E2.63198
G1 X176.193 Y103.979 E2.81378
G1 X179.645 Y108.25 E2.99628
G1 X183.809 Y112.82 E3.20174
G1 X184.122 Y113.222 E3.21867
G1 X184.277 Y113.484 E3.22879
G1 X186.178 Y117.063 E3.36346
G1 X186.287 Y117.289 E3.3718
G1 X187.534 Y120.15 E3.47551
G1 X187.607 Y120.333 E3.48206
G1 X188.175 Y121.886 E3.53701
G1 X188.312 Y122.376 E3.55392
G1 X188.373 Y123.002 E3.57482
G1 X188.378 Y156.97 E4.70365
G1 X188.338 Y157.477 E4.72055
G1 X188.192 Y158.054 E4.74033
G1 X187.735 Y159.346 E4.78587
G1 X187.642 Y159.579 E4.79421
G1 X185.97 Y163.351 E4.93132
G1 X185.861 Y163.574 E4.93957
G1 X184.273 Y166.526 E5.05096
G1 X183.997 Y166.954 E5.06789
G1 X183.772 Y167.219 E5.07944
G1 X182.082 Y169.006 E5.16118
G1 X178.456 Y173.16 E5.34442
G1 X175.096 Y177.483 E5.52637
G1 X171.972 Y182.007 E5.70907
G1 X170.872 Y183.736 E5.77717
G1 X170.566 Y184.143 E5.79409
G1 X170.199 Y184.497 E5.81104
G1 X169.782 Y184.79 E5.82798
G1 X169.325 Y185.014 E5.84489
G1 X168.837 Y185.163 E5.86185
G1 X168.13 Y185.241 E5.88548
G1 X110.763 Y185.24 E7.7919
G1 X110.255 Y185.2 E7.80884
G1 X109.76 Y185.081 E7.82576
G1 X109.289 Y184.886 E7.8427
G1 X108.757 Y184.547 E7.86366
G1 X103.614 Y180.513 E8.08088
G1 X103.462 Y180.386 E8.08746
G1 X101.877 Y178.978 E8.15791
G1 X101.717 Y178.826 E8.16525
G1 X98.805 Y175.862 E8.30333
G1 X98.648 Y175.69 E8.31107
G1 X96.597 Y173.28 E8.41623
G1 X96.496 Y173.156 E8.42155
G1 X95.208 Y171.482 E8.49174
G1 X95.079 Y171.302 E8.4991
G1 X92.749 Y167.804 E8.63877
G1 X92.621 Y167.594 E8.64694
G1 X92.044 Y166.567 E8.68609
G1 X91.83 Y166.105 E8.70301
G1 X91.691 Y165.614 E8.71997
G1 X91.63 Y165.108 E8.73691
G1 X91.649 Y164.599 E8.75383
G1 X91.715 Y164.224 E8.76649
G1 X92.555 Y160.688 E8.88727
G1 X93.112 Y157.97 E8.97947
G1 X93.572 Y155.327 E9.06862
G1 X94.286 Y149.888 E9.25092
G1 X94.691 Y144.435 E9.43263
G1 X94.787 Y138.953 E9.61484
G1 X94.574 Y133.475 E9.79702
G1 X94.052 Y128.035 E9.97863
G1 X93.225 Y122.645 E10.15985
G1 X91.702 Y115.713 E10.39571
G1 X91.632 Y115.208 E10.41265
G1 X91.641 Y114.698 E10.4296
G1 X91.731 Y114.197 E10.44652
G1 X91.897 Y113.715 E10.46346
G1 X92.1 Y113.326 E10.47804
G1 X93.657 Y110.767 E10.57758
G1 X93.753 Y110.618 E10.58348
G1 X94.923 Y108.912 E10.65222
G1 X95.051 Y108.737 E10.65943
G1 X97.617 Y105.484 E10.79711
G1 X97.738 Y105.34 E10.80336
G1 X99.136 Y103.764 E10.87337
G1 X99.288 Y103.604 E10.88071
G1 F600 E9.88071
G0 F2625 X103.433 Y103.089
G0 X104.448 Y104.103
G0 X107.962 Y102.027
G0 X108.023 Y102.105
;TYPE:WALL-INNER
G1 F600 E10.88071
G1 F900 X107.699 Y102.409 E10.89547
G1 X107.454 Y102.741 E10.90918
G1 X107.27 Y103.104 E10.92271
G1 X107.152 Y103.493 E10.93622
G1 X107.099 Y103.897 E10.94976
G1 X107.116 Y104.306 E10.96336
G1 X107.202 Y104.705 E10.97693
G1 X107.355 Y105.082 E10.99045
G1 X107.567 Y105.428 E11.00393
G1 X107.837 Y105.734 E11.01749
G1 X108.153 Y105.99 E11.03101
G1 X108.509 Y106.19 E11.04458
G1 X108.895 Y106.326 E11.05818
G1 X109.297 Y106.394 E11.07173
G1 X109.703 Y106.394 E11.08522
G1 X110.105 Y106.326 E11.09877
G1 X110.491 Y106.19 E11.11237
G1 X110.847 Y105.99 E11.12594
G1 X111.163 Y105.734 E11.13945
G1 X111.433 Y105.428 E11.15302
G1 X111.645 Y105.082 E11.1665
G1 X111.798 Y104.705 E11.18002
G1 X111.884 Y104.306 E11.19359
G1 X111.901 Y103.897 E11.20719
G1 X111.848 Y103.493 E11.22073
G1 X111.73 Y103.104 E11.23424
G1 X111.547 Y102.741 E11.24775
G1 X111.305 Y102.413 E11.26129
G1 X111.01 Y102.13 E11.27488
G1 X110.672 Y101.903 E11.28841
G1 X110.301 Y101.734 E11.30196
G1 X109.906 Y101.633 E11.31551
G1 X109.535 Y101.599 E11.32789
G1 X109.136 Y101.627 E11.34118
G1 X108.74 Y101.722 E11.35471
G1 X108.367 Y101.884 E11.36823
G1 X108.023 Y102.105 E11.38181
G0 F2625 X107.962 Y102.027
G0 X108.728 Y101.685
G0 X109.535 Y101.56
G0 X110.314 Y101.697
G0 X111.035 Y102.099
G0 X111.476 Y102.602
G0 X114.18 Y106.68
G0 X114.25 Y106.75
G1 F900 X114.25 Y111.25 E11.53136
G1 X125.75 Y111.25 E11.91353
G1 X125.75 Y106.75 E12.06307
G1 X114.25 Y106.75 E12.44524
G0 F2625 X114.18 Y106.68
G0 X115.111 Y102.135
G0 X115.334 Y101.696
G0 X115.749 Y100.982
G0 X115.819 Y101.052
G1 F900 X115.539 Y101.382 E12.45962
G1 X115.314 Y101.75 E12.47395
G1 X115.149 Y102.147 E12.48824
G1 X115.047 Y102.568 E12.50264
G1 X115.014 Y102.999 E12.517
G1 X115.047 Y103.429 E12.53133
G1 X115.149 Y103.851 E12.54576
G1 X115.314 Y104.249 E12.56008
G1 X115.539 Y104.615 E12.57436
G1 X115.818 Y104.944 E12.58869
G1 X116.149 Y105.226 E12.60314
G1 X116.516 Y105.451 E12.61745
G1 X116.916 Y105.617 E12.63184
G1 X117.336 Y105.717 E12.64619
G1 X117.766 Y105.752 E12.66052
G1 X118.196 Y105.717 E12.67486
G1 X118.616 Y105.617 E12.68921
G1 X119.016 Y105.451 E12.7036
G1 X119.383 Y105.226 E12.71791
G1 X119.712 Y104.945 E12.73229
G1 X119.993 Y104.616 E12.74666
G1 X120.218 Y104.249 E12.76097
G1 X120.384 Y103.849 E12.77536
G1 X120.484 Y103.428 E12.78974
G1 X120.519 Y102.999 E12.80405
G1 X120.484 Y102.569 E12.81838
G1 X120.384 Y102.149 E12.83273
G1 X120.218 Y101.749 E12.84712
G1 X119.993 Y101.382 E12.86143
G1 X119.711 Y101.051 E12.87588
G1 X119.382 Y100.772 E12.89021
G1 X119.016 Y100.547 E12.90449
G1 X118.618 Y100.382 E12.91881
G1 X118.197 Y100.28 E12.9332
G1 X117.766 Y100.247 E12.94757
G1 X117.335 Y100.28 E12.96193
G1 X116.914 Y100.382 E12.97633
G1 X116.517 Y100.547 E12.99062
G1 X116.149 Y100.772 E13.00495
G1 X115.819 Y101.052 E13.01933
G0 F2625 X115.749 Y100.982
G0 X116.499 Y100.512
G0 X117.329 Y100.241
G0 X118.203 Y100.241
G0 X118.673 Y100.393
G0 X128.337 Y104.497
G0 X128.437 Y104.497
G1 F900 X131.62 Y107.681 E13.16895
G1 X132.661 Y106.643 E13.2178
G1 X133.192 Y106.18 E13.24121
G1 X133.752 Y105.752 E13.26464
G1 X134.334 Y105.364 E13.28788
G1 X134.945 Y105.012 E13.31132
G1 X135.577 Y104.701 E13.33472
G1 X136.204 Y104.442 E13.35727
G1 X136.889 Y104.21 E13.3813
G1 X137.579 Y104.026 E13.40503
G1 X138.235 Y103.896 E13.42726
G1 X138.961 Y103.8 E13.45159
G1 X139.644 Y103.755 E13.47434
G1 X139.911 Y103.755 E13.48321
G1 X139.61 Y103.782 E13.49326
G1 X139.23 Y103.882 E13.50631
G1 X138.872 Y104.05 E13.51946
G1 X138.552 Y104.275 E13.53246
G1 X138.275 Y104.552 E13.54547
G1 X138.05 Y104.872 E13.55847
G1 X137.882 Y105.23 E13.57162
G1 X137.782 Y105.61 E13.58467
G1 X137.747 Y106 E13.59769
G1 X137.782 Y106.39 E13.6107
G1 X137.882 Y106.77 E13.62376
G1 X138.05 Y107.128 E13.6369
G1 X138.275 Y107.448 E13.6499
G1 X138.552 Y107.725 E13.66292
G1 X138.872 Y107.95 E13.67592
G1 X139.23 Y108.118 E13.68906
G1 X139.61 Y108.218 E13.70212
G1 X139.967 Y108.25 E13.71403
G1 X136.175 Y108.25 E13.84004
G1 X136.175 Y111.75 E13.95636
G1 X114.25 Y111.75 E14.68497
G1 X114.25 Y120.25 E14.96744
G1 X136.175 Y120.25 E15.69605
G1 X136.175 Y123.75 E15.81236
G1 X139.967 Y123.75 E15.93838
G1 X139.61 Y123.782 E15.95029
G1 X139.23 Y123.882 E15.96335
G1 X138.872 Y124.05 E15.97649
G1 X138.552 Y124.275 E15.98949
G1 X138.275 Y124.552 E16.00251
G1 X138.05 Y124.872 E16.01551
G1 X137.882 Y125.23 E16.02865
G1 X137.782 Y125.61 E16.04171
G1 X137.747 Y126 E16.05472
G1 X137.782 Y126.39 E16.06773
G1 X137.882 Y126.77 E16.08079
G1 X138.05 Y127.128 E16.09393
G1 X138.275 Y127.448 E16.10693
G1 X138.552 Y127.725 E16.11995
G1 X138.872 Y127.95 E16.13295
G1 X139.23 Y128.118 E16.14609
G1 X139.61 Y128.218 E16.15915
G1 X140 Y128.253 E16.17216
G1 X140.39 Y128.218 E16.18518
G1 X140.77 Y128.118 E16.19823
G1 X141.128 Y127.95 E16.21138
G1 X141.448 Y127.725 E16.22438
G1 X141.725 Y127.448 E16.23739
G1 X141.95 Y127.128 E16.25039
G1 X142.118 Y126.77 E16.26354
G1 X142.218 Y126.39 E16.27659
G1 X142.253 Y126 E16.28961
G1 X142.218 Y125.61 E16.30262
G1 X142.118 Y125.23 E16.31568
G1 X141.95 Y124.872 E16.32882
G1 X141.725 Y124.552 E16.34182
G1 X141.448 Y124.275 E16.35484
G1 X141.128 Y124.05 E16.36784
G1 X140.77 Y123.882 E16.38098
G1 X140.39 Y123.782 E16.39404
G1 X140.033 Y123.75 E16.40595
G1 X143.675 Y123.75 E16.52698
G1 X143.675 Y120.25 E16.64329
G1 X157.342 Y120.25 E17.09747
G1 X157.342 Y117.69 E17.18255
G1 X157.61 Y117.901 E17.19388
G1 X157.966 Y118.097 E17.20739
G1 X158.353 Y118.23 E17.22099
G1 X158.755 Y118.295 E17.23452
G1 X159.162 Y118.292 E17.24804
G1 X159.562 Y118.22 E17.26155
G1 X159.945 Y118.082 E17.27508
G1 X160.3 Y117.879 E17.28867
G1 X160.616 Y117.619 E17.30227
G1 X160.881 Y117.311 E17.31577
G1 X161.092 Y116.964 E17.32927
G1 X161.24 Y116.585 E17.34279
G1 X161.323 Y116.186 E17.35633
G1 X161.337 Y115.778 E17.3699
G1 X161.283 Y115.374 E17.38344
G1 X161.159 Y114.985 E17.39701
G1 X160.973 Y114.623 E17.41054
G1 X160.728 Y114.298 E17.42406
G1 X160.431 Y114.018 E17.43763
G1 X160.093 Y113.794 E17.4511
G1 X159.721 Y113.629 E17.46462
G1 X159.323 Y113.529 E17.47826
G1 X158.917 Y113.498 E17.49179
G1 X158.513 Y113.536 E17.50528
G1 X158.118 Y113.641 E17.51886
G1 X157.748 Y113.813 E17.53242
G1 X157.414 Y114.043 E17.5459
G1 X157.342 Y114.113 E17.54923
G1 X157.342 Y111.75 E17.62776
G1 X143.675 Y111.75 E18.08194
G1 X143.675 Y108.25 E18.19826
G1 X140.033 Y108.25 E18.31929
G1 X140.39 Y108.218 E18.3312
G1 X140.77 Y108.118 E18.34426
G1 X141.128 Y107.95 E18.3574
G1 X141.448 Y107.725 E18.3704
G1 X141.725 Y107.448 E18.38342
G1 X141.95 Y107.128 E18.39642
G1 X142.118 Y106.77 E18.40956
G1 X142.218 Y106.39 E18.42262
G1 X142.253 Y106 E18.43563
G1 X142.218 Y105.61 E18.44864
G1 X142.118 Y105.23 E18.4617
G1 X141.95 Y104.872 E18.47484
G1 X141.725 Y104.552 E18.48784
G1 X141.448 Y104.275 E18.50086
G1 X141.128 Y104.05 E18.51386
G1 X140.77 Y103.882 E18.527
G1 X140.39 Y103.782 E18.54006
G1 X140.089 Y103.755 E18.5501
G1 X140.356 Y103.755 E18.55897
G1 X141.039 Y103.8 E18.58172
G1 X141.765 Y103.896 E18.60606
G1 X142.421 Y104.026 E18.62828
G1 X143.111 Y104.21 E18.65201
G1 X143.796 Y104.442 E18.67605
G1 X144.423 Y104.701 E18.69859
G1 X145.055 Y105.012 E18.722
G1 X145.666 Y105.364 E18.74543
G1 X146.248 Y105.752 E18.76868
G1 X146.808 Y106.18 E18.7921
G1 X147.339 Y106.643 E18.81551
G1 X148.38 Y107.681 E18.86437
G1 X151.563 Y104.497 E19.01398
G1 X150.417 Y103.362 E19.06758
G1 X149.756 Y102.779 E19.09687
G1 X149.062 Y102.234 E19.1262
G1 X148.337 Y101.731 E19.15552
G1 X147.585 Y101.27 E19.18483
G1 X146.809 Y100.854 E19.21409
G1 X146.008 Y100.482 E19.24344
G1 X145.187 Y100.159 E19.27276
G1 X144.349 Y99.883 E19.30208
G1 X143.496 Y99.656 E19.33141
G1 X142.633 Y99.479 E19.36069
G1 X141.761 Y99.352 E19.38997
G1 X140.881 Y99.275 E19.41933
G1 X140 Y99.25 E19.44862
G1 X139.119 Y99.275 E19.47791
G1 X138.239 Y99.352 E19.50726
G1 X137.367 Y99.479 E19.53655
G1 X136.504 Y99.656 E19.56582
G1 X135.651 Y99.883 E19.59516
G1 X134.813 Y100.159 E19.62448
G1 X133.992 Y100.482 E19.6538
G1 X133.191 Y100.854 E19.68315
G1 X132.415 Y101.27 E19.71241
G1 X131.663 Y101.731 E19.74172
G1 X130.938 Y102.234 E19.77104
G1 X130.244 Y102.779 E19.80037
G1 X129.583 Y103.362 E19.82966
G1 X128.437 Y104.497 E19.88326
G0 F2625 X128.337 Y104.497
G0 X125.778 Y111.278
G0 X114.222 Y111.722
G0 X114.18 Y120.68
G0 X114.25 Y120.75
G1 F900 X114.25 Y125.25 E20.0328
G1 X116.57 Y125.25 E20.1099
G1 X116.468 Y125.402 E20.11598
G1 X116.345 Y125.679 E20.12605
G1 X116.271 Y125.973 E20.13613
G1 X116.248 Y126.279 E20.14633
G1 X116.28 Y126.585 E20.15655
G1 X116.365 Y126.88 E20.16675
G1 X116.499 Y127.153 E20.17686
G1 X116.677 Y127.398 E20.18692
G1 X116.782 Y127.5 E20.19179
G1 X111.25 Y127.5 E20.37563
G1 X111.25 Y152.5 E21.20643
G1 X116.781 Y152.5 E21.39023
G1 X116.639 Y152.647 E21.39703
G1 X116.468 Y152.902 E21.40723
G1 X116.345 Y153.179 E21.4173
G1 X116.271 Y153.473 E21.42738
G1 X116.248 Y153.779 E21.43757
G1 X116.28 Y154.085 E21.4478
G1 X116.365 Y154.38 E21.458
G1 X116.499 Y154.653 E21.46811
G1 X116.569 Y154.75 E21.47208
G1 X114.25 Y154.75 E21.54915
G1 X114.25 Y159.25 E21.69869
G1 X125.75 Y159.25 E22.08086
G1 X125.75 Y154.75 E22.2304
G1 X119.43 Y154.75 E22.44043
G1 X119.532 Y154.598 E22.44651
G1 X119.655 Y154.321 E22.45658
G1 X119.729 Y154.027 E22.46666
G1 X119.752 Y153.721 E22.47686
G1 X119.72 Y153.415 E22.48708
G1 X119.635 Y153.12 E22.49728
G1 X119.501 Y152.847 E22.50739
G1 X119.323 Y152.602 E22.51745
G1 X119.218 Y152.5 E22.52232
G1 X124.75 Y152.5 E22.70616
G1 X124.75 Y127.5 E23.53696
G1 X119.219 Y127.5 E23.72076
G1 X119.361 Y127.353 E23.72756
G1 X119.532 Y127.098 E23.73776
G1 X119.655 Y126.821 E23.74783
G1 X119.729 Y126.527 E23.75791
G1 X119.752 Y126.221 E23.7681
G1 X119.72 Y125.915 E23.77833
G1 X119.635 Y125.62 E23.78853
G1 X119.501 Y125.347 E23.79864
G1 X119.431 Y125.25 E23.80261
G1 X125.75 Y125.25 E24.0126
G1 X125.75 Y120.75 E24.16215
G1 X114.25 Y120.75 E24.54432
G0 F2625 X114.18 Y120.68
G0 X106.676 Y117.752
G0 X105.989 Y117.297
G0 X105.589 Y116.764
G0 X105.184 Y115.858
G0 X105.283 Y115.845
G1 F900 X105.374 Y116.244 E24.55792
G1 X105.529 Y116.62 E24.57143
G1 X105.746 Y116.965 E24.58498
G1 X106.016 Y117.268 E24.59846
G1 X106.336 Y117.521 E24.61202
G1 X106.692 Y117.716 E24.62551
G1 X107.077 Y117.85 E24.63906
G1 X107.481 Y117.915 E24.65265
G1 X107.888 Y117.912 E24.66618
G1 X108.288 Y117.84 E24.67969
G1 X108.671 Y117.701 E24.69323
G1 X109.025 Y117.5 E24.70675
G1 X109.342 Y117.24 E24.72038
G1 X109.608 Y116.93 E24.73395
G1 X109.818 Y116.582 E24.74746
G1 X109.966 Y116.203 E24.76098
G1 X110.049 Y115.806 E24.77446
G1 X110.064 Y115.398 E24.78803
G1 X110.008 Y114.993 E24.80161
G1 X109.885 Y114.605 E24.81514
G1 X109.699 Y114.243 E24.82867
G1 X109.454 Y113.918 E24.84219
G1 X109.159 Y113.64 E24.85566
G1 X108.819 Y113.413 E24.86925
G1 X108.445 Y113.248 E24.88283
G1 X108.049 Y113.149 E24.8964
G1 X107.643 Y113.118 E24.90993
G1 X107.239 Y113.156 E24.92341
G1 X106.846 Y113.261 E24.93693
G1 X106.474 Y113.432 E24.95054
