;Generated by Cura LulzBot Edition GCodeWriter Version: 3.2.21
;FLAVOR:Marlin
;TIME:5081
;Filament used: 2.54934m
;Layer height: 0.25
;Generated with Cura_SteamEngine 3.2.21
M82 ;absolute extrusion mode
;This G-Code has been generated specifically for the LulzBot TAZ 6 with standard extruder
M75 ; start GLCD timer
G26 ; clear potential 'probe fail' condition
G21 ; set units to Millimetres
M107 ; disable fans
G90 ; absolute positioning
M82 ; set extruder to absolute mode
G92 E0 ; set extruder position to 0
M140 S60 ; start bed heating up
G28 XY ; home X and Y
G1 X-19 Y258 F1000 ; move to safe homing position
M109 R140 ; soften filament before homing Z
G28 Z ; home Z
G1 E-30 F100 ; retract filament
M109 R140 ; wait for extruder to reach wiping temp
G1 X-15 Y100 F3000 ; move above wiper pad
G1 Z1 ; push nozzle into wiper
G1 X-17 Y95 F1000 ; slow wipe
G1 X-17 Y90 F1000 ; slow wipe
G1 X-17 Y85 F1000 ; slow wipe
G1 X-15 Y90 F1000 ; slow wipe
G1 X-17 Y80 F1000 ; slow wipe
G1 X-15 Y95 F1000 ; slow wipe
G1 X-17 Y75 F2000 ; fast wipe
G1 X-15 Y65 F2000 ; fast wipe
G1 X-17 Y70 F2000 ; fast wipe
G1 X-15 Y60 F2000 ; fast wipe
G1 X-17 Y55 F2000 ; fast wipe
G1 X-15 Y50 F2000 ; fast wipe
G1 X-17 Y40 F2000 ; fast wipe
G1 X-15 Y45 F2000 ; fast wipe
G1 X-17 Y35 F2000 ; fast wipe
G1 X-15 Y40 F2000 ; fast wipe
G1 X-17 Y70 F2000 ; fast wipe
G1 X-15 Y30 Z2 F2000 ; fast wipe
G1 X-17 Y35 F2000 ; fast wipe
G1 X-15 Y25 F2000 ; fast wipe
G1 X-17 Y30 F2000 ; fast wipe
G1 X-15 Y25 Z1.5 F1000 ; slow wipe
G1 X-17 Y23 F1000 ; slow wipe
G1 Z10 ; raise extruder
M109 R140 ; wait for extruder to reach probe temp
G1 X-9 Y-9 ; move above first probe point
M204 S100 ; set probing acceleration
G29 ; start auto-leveling sequence
M204 S500 ; restore standard acceleration
G1 X0 Y0 Z15 F5000 ; move up off last probe point
G4 S1 ; pause
M400 ; wait for moves to finish
M117 Heating... ; progress indicator message on LCD
M109 R215 ; wait for extruder to reach printing temp
M190 S60 ; wait for bed to reach printing temp
G1 Z2 E0 F75 ; prime tiny bit of filament into the nozzle
M117 TAZ 6 Printing... ; progress indicator message on LCD

M221 S100
;LAYER_COUNT:60
;LAYER:0
M107
G0 F2625 X119.979 Y97.535 Z0.424
;TYPE:SKIRT
G1 F900 X121.289 Y96.034 E0.06621
G1 X121.374 Y95.941 E0.07039
G1 X122.09 Y95.182 E0.10507
G1 X122.268 Y95.007 E0.11336
G1 X124.217 Y93.236 E0.20088
G1 X124.451 Y93.043 E0.21096
G1 X126.365 Y91.605 E0.29052
G1 X126.62 Y91.431 E0.30078
G1 X128.919 Y90.023 E0.39037
G1 X129.235 Y89.853 E0.40229
G1 X132.058 Y88.528 E0.50592
G1 X132.338 Y88.412 E0.516
G1 X134.482 Y87.64 E0.59172
G1 X134.782 Y87.548 E0.60215
G1 X137.382 Y86.887 E0.6913
G1 X137.684 Y86.826 E0.70154
G1 X139.704 Y86.512 E0.76948
G1 X139.96 Y86.482 E0.77804
G1 X142.557 Y86.287 E0.86459
G1 X142.931 Y86.281 E0.87702
G1 X146.723 Y86.434 E1.00314
G1 X147.116 Y86.474 E1.01626
G1 X149.712 Y86.898 E1.10368
G1 X150.001 Y86.958 E1.11349
G1 X152.307 Y87.554 E1.19264
G1 X152.607 Y87.648 E1.20308
G1 X155.16 Y88.579 E1.29339
G1 X155.46 Y88.705 E1.3042
G1 X157.869 Y89.868 E1.3931
G1 X158.152 Y90.022 E1.40381
G1 X160.446 Y91.425 E1.49317
G1 X160.712 Y91.607 E1.50388
G1 X162.836 Y93.215 E1.59241
G1 X163.1 Y93.438 E1.6039
G1 X165.292 Y95.499 E1.70388
G1 X165.513 Y95.728 E1.71446
G1 X167.101 Y97.545 E1.79465
G1 X167.511 Y98.135 E1.81853
G1 X168.672 Y100.277 E1.89949
G1 X171.446 Y104.949 E2.08006
G1 X171.731 Y105.57 E2.10277
G1 X172.586 Y108.107 E2.19174
G1 X172.68 Y108.446 E2.20343
G1 X173.344 Y111.461 E2.30602
G1 X173.4 Y111.803 E2.31754
G1 X173.7 Y114.515 E2.40821
G1 X173.72 Y114.828 E2.41864
G1 X173.755 Y117.409 E2.50442
G1 X173.743 Y117.732 E2.51516
G1 X173.51 Y120.432 E2.60522
G1 X173.465 Y120.757 E2.61612
G1 X172.961 Y123.423 E2.70629
G1 X172.895 Y123.704 E2.71588
G1 X171.469 Y128.741 E2.88985
G1 X170.801 Y131.413 E2.98138
G1 X169.699 Y136.764 E3.16293
G1 X168.9 Y142.175 E3.3447
G1 X168.407 Y147.634 E3.52685
G1 X168.224 Y153.098 E3.70853
G1 X168.351 Y158.561 E3.89013
G1 X168.788 Y164.022 E4.07219
G1 X169.845 Y171.313 E4.31702
G1 X169.859 Y171.421 E4.32063
G1 X170.164 Y174.172 E4.41262
G1 X170.184 Y174.489 E4.42317
G1 X170.217 Y177.097 E4.50985
G1 X170.207 Y177.392 E4.51966
G1 X170.022 Y179.748 E4.59819
G1 X169.983 Y180.057 E4.60854
G1 X169.516 Y182.713 E4.69816
G1 X169.443 Y183.031 E4.709
G1 X168.713 Y185.624 E4.79852
G1 X168.611 Y185.929 E4.80921
G1 X167.632 Y188.426 E4.89834
G1 X167.498 Y188.722 E4.90914
G1 X166.271 Y191.117 E4.99857
G1 X166.119 Y191.383 E5.00875
G1 X165.052 Y193.056 E5.07469
G1 X164.873 Y193.309 E5.08499
G1 X162.572 Y196.255 E5.20921
G1 X162.327 Y196.534 E5.22155
G1 X160.679 Y198.208 E5.29962
G1 X160.433 Y198.434 E5.31072
G1 X158.08 Y200.378 E5.41215
G1 X157.795 Y200.588 E5.42391
G1 X155.447 Y202.131 E5.51728
G1 X155.179 Y202.289 E5.52762
G1 X152.928 Y203.477 E5.6122
G1 X152.637 Y203.613 E5.62288
G1 X150.14 Y204.63 E5.71248
G1 X149.829 Y204.739 E5.72343
G1 X147.208 Y205.508 E5.8142
G1 X146.92 Y205.578 E5.82405
G1 X144.622 Y206.03 E5.90188
G1 X143.909 Y206.09 E5.92566
G1 X141.446 Y206.025 E6.00754
G1 X136.008 Y206.087 E6.18827
G1 X135.327 Y206.023 E6.211
G1 X132.715 Y205.495 E6.29955
G1 X132.404 Y205.415 E6.31023
G1 X129.841 Y204.627 E6.39933
G1 X129.509 Y204.505 E6.41109
G1 X126.682 Y203.286 E6.5134
G1 X126.401 Y203.149 E6.52379
G1 X124.356 Y202.023 E6.60137
G1 X124.075 Y201.849 E6.61235
G1 X121.608 Y200.142 E6.71205
G1 X121.34 Y199.935 E6.7233
G1 X119.302 Y198.185 E6.81257
G1 X119.084 Y197.979 E6.82254
G1 X117.429 Y196.269 E6.90162
G1 X117.223 Y196.035 E6.91198
G1 X115.558 Y193.947 E7.00073
G1 X115.355 Y193.663 E7.01233
G1 X113.704 Y191.062 E7.11471
G1 X113.536 Y190.764 E7.12608
G1 X112.346 Y188.364 E7.2151
G1 X112.227 Y188.092 E7.22497
G1 X111.375 Y185.889 E7.30346
G1 X111.277 Y185.594 E7.31379
G1 X110.559 Y183.033 E7.40218
G1 X110.488 Y182.722 E7.41278
G1 X110.021 Y180.08 E7.50194
G1 X109.98 Y179.757 E7.51276
G1 X109.777 Y177.053 E7.60287
G1 X109.769 Y176.726 E7.61374
G1 X109.839 Y174.021 E7.70366
G1 X109.863 Y173.699 E7.7144
G1 X110.197 Y171.046 E7.80326
G1 X110.254 Y170.727 E7.81402
G1 X110.858 Y168.087 E7.90402
G1 X110.894 Y167.943 E7.90896
G1 X112.57 Y161.903 E8.11726
G1 X113.726 Y156.51 E8.30055
G1 X114.171 Y153.887 E8.38897
G1 X114.862 Y148.436 E8.57156
G1 X115.242 Y142.983 E8.75322
G1 X115.313 Y137.501 E8.93541
G1 X115.075 Y132.041 E9.11703
G1 X114.527 Y126.58 E9.29942
G1 X113.544 Y120.344 E9.50921
G1 X113.511 Y120.055 E9.51888
G1 X113.31 Y117.056 E9.61877
G1 X113.305 Y116.717 E9.63003
G1 X113.407 Y114.002 E9.72032
G1 X113.436 Y113.678 E9.73113
G1 X113.806 Y111.009 E9.82068
G1 X113.866 Y110.69 E9.83146
G1 X114.499 Y108.076 E9.92084
G1 X114.582 Y107.791 E9.93071
G1 X115.343 Y105.561 E10.00901
G1 X115.647 Y104.914 E10.03277
G1 X116.978 Y102.74 E10.11748
G1 X119.594 Y98.081 E10.29504
G1 X119.979 Y97.535 E10.31724
G1 F600 E9.31724
G0 F2625 X122.015 Y99.173
G0 X122.049 Y99.2
G0 X142.245 Y115.446
G0 X142.279 Y115.473
G0 X143.156 Y116.179
;TYPE:SUPPORT
G1 F600 E10.31724
G1 F900 X143.22 Y116.114 E10.32028
G1 X143.29 Y116.066 E10.3231
G1 X143.371 Y116.028 E10.32607
G1 X143.454 Y116.007 E10.32891
G1 X143.538 Y115.998 E10.33172
G1 X143.619 Y116.006 E10.33443
G1 X143.706 Y116.029 E10.33742
G1 X143.776 Y116.061 E10.33998
G1 X143.856 Y116.117 E10.34322
G1 X143.919 Y116.18 E10.34618
G1 X143.958 Y116.236 E10.34845
G1 X144.001 Y116.327 E10.35179
G1 X144.023 Y116.412 E10.35471
G1 X144.029 Y116.484 E10.35711
G1 X144.021 Y116.579 E10.36028
G1 X144 Y116.657 E10.36297
G1 X143.962 Y116.738 E10.36594
G1 X143.913 Y116.808 E10.36878
G1 X143.853 Y116.869 E10.37162
G1 X143.782 Y116.918 E10.37449
G1 X143.704 Y116.955 E10.37736
G1 X143.591 Y116.979 E10.3812
G1 X143.529 Y116.984 E10.38326
G1 X143.454 Y116.977 E10.38577
G1 X143.375 Y116.956 E10.38848
G1 X143.291 Y116.916 E10.39158
G1 X143.216 Y116.866 E10.39457
G1 X143.156 Y116.804 E10.39744
G1 X143.108 Y116.734 E10.40026
G1 X143.07 Y116.655 E10.40317
G1 X143.049 Y116.578 E10.40582
G1 X143.042 Y116.492 E10.40869
G1 X143.051 Y116.407 E10.41153
G1 X143.075 Y116.32 E10.41453
G1 X143.108 Y116.247 E10.41719
G1 X143.156 Y116.179 E10.41996
G0 F2625 X143.276 Y116.363
G1 F900 X143.276 Y116.623 E10.4286
G0 F2625 X143.275 Y116.62
G1 F900 X143.793 Y116.62 E10.44581
G1 F600 E9.44581
G0 F2625 X143.697 Y118.094
G0 X143.695 Y118.138
G0 X142.253 Y140.575
G0 X142.248 Y140.654
G0 X141.739 Y148.57
G0 X141.734 Y148.65
G0 X141.338 Y154.811
G0 X142.427 Y154.953
G0 X141.517 Y166.099
G0 X140.613 Y166.107
G0 X140.074 Y174.493
G0 X140.072 Y174.537
G0 X140 Y175.656
G1 F600 E10.44581
G1 F900 X140.084 Y175.663 E10.44862
G1 X140.163 Y175.684 E10.45133
G1 X140.252 Y175.727 E10.45462
G1 X140.313 Y175.769 E10.45708
G1 X140.381 Y175.837 E10.46027
G1 X140.423 Y175.897 E10.46271
G1 X140.465 Y175.986 E10.46598
G1 X140.487 Y176.068 E10.4688
G1 X140.494 Y176.146 E10.4714
G1 X140.486 Y176.239 E10.4745
G1 X140.469 Y176.301 E10.47664
G1 X140.424 Y176.398 E10.48019
G1 X140.376 Y176.466 E10.48296
G1 X140.311 Y176.531 E10.48601
G1 X140.251 Y176.573 E10.48845
G1 X140.164 Y176.614 E10.49164
G1 X140.091 Y176.634 E10.49416
G1 X140 Y176.641 E10.49719
G1 X139.909 Y176.634 E10.50023
G1 X139.836 Y176.614 E10.50274
G1 X139.749 Y176.573 E10.50594
G1 X139.689 Y176.531 E10.50837
G1 X139.624 Y176.466 E10.51143
G1 X139.576 Y176.398 E10.51419
G1 X139.531 Y176.301 E10.51775
G1 X139.514 Y176.239 E10.51988
G1 X139.506 Y176.146 E10.52298
G1 X139.513 Y176.068 E10.52559
G1 X139.535 Y175.986 E10.52841
G1 X139.577 Y175.897 E10.53168
G1 X139.619 Y175.837 E10.53411
G1 X139.687 Y175.769 E10.53731
G1 X139.748 Y175.727 E10.53977
G1 X139.837 Y175.684 E10.54305
G1 X139.916 Y175.663 E10.54577
G1 X140 Y175.656 E10.54857
G0 F2625 X139.944 Y175.863
G1 F900 X139.944 Y176.437 E10.56765
G1 F600 E9.56765
G0 F2625 X139.764 Y174.55
G0 X139.76 Y174.506
G0 X138.967 Y166.141
G0 X138.484 Y166.099
G0 X137.573 Y154.953
G0 X137.897 Y154.854
G0 X137.313 Y148.696
G0 X137.309 Y148.652
G0 X136.804 Y143.323
G0 X137.086 Y141.916
G0 X135.795 Y138.009
G0 X135.784 Y137.91
;TYPE:WALL-INNER
G1 F600 E10.56765
G1 F900 X140.286 Y134.497 E10.75539
G1 X140.286 Y124.669 E11.08199
G1 X138.682 Y123.768 E11.14313
G1 X137.612 Y122.927 E11.18836
G1 X136.716 Y121.97 E11.23193
G1 X135.957 Y120.86 E11.27661
G1 X135.38 Y119.652 E11.3211
G1 X134.995 Y118.384 E11.36514
G1 X134.805 Y117.033 E11.41048
G1 X134.83 Y115.218 E11.4708
G1 X126.317 Y110.303 E11.79747
G1 X121.112 Y112.496 E11.98517
G1 X120.808 Y115.468 E12.08445
G1 X120.838 Y118.053 E12.17036
G1 X121.163 Y120.619 E12.25631
G1 X121.775 Y123.131 E12.34223
G1 X122.669 Y125.558 E12.42818
G1 X123.833 Y127.866 E12.51409
G1 X125.251 Y130.029 E12.60004
G1 X126.905 Y132.017 E12.68598
G1 X128.775 Y133.804 E12.77193
G1 X130.833 Y135.367 E12.85781
G1 X133.058 Y136.686 E12.94377
G1 X135.784 Y137.91 E13.04307
G0 F2625 X135.795 Y138.009
G0 X151.277 Y138.009
G0 X151.288 Y137.91
G1 F900 X154.014 Y136.686 E13.14238
G1 X156.239 Y135.367 E13.22833
G1 X158.297 Y133.804 E13.31421
G1 X160.167 Y132.017 E13.40017
G1 X161.82 Y130.029 E13.48609
G1 X163.24 Y127.866 E13.57208
G1 X164.403 Y125.558 E13.65796
G1 X165.297 Y123.131 E13.74391
G1 X165.909 Y120.619 E13.82984
G1 X166.234 Y118.053 E13.91579
G1 X166.264 Y115.469 E14.00167
G1 X165.961 Y112.496 E14.10098
G1 X160.755 Y110.303 E14.28871
G1 X152.242 Y115.217 E14.61536
G1 X152.266 Y117.07 E14.67694
G1 X152.08 Y118.374 E14.72072
G1 X151.69 Y119.661 E14.76541
G1 X151.1 Y120.884 E14.81053
G1 X150.358 Y121.968 E14.85419
G1 X149.44 Y122.946 E14.89876
G1 X148.36 Y123.787 E14.94425
G1 X146.786 Y124.669 E15.00421
G1 X146.786 Y134.497 E15.33081
G1 X151.288 Y137.91 E15.51856
G0 F2625 X151.277 Y138.009
G0 X146.751 Y134.514
G0 X144.598 Y119.407
G0 X144.564 Y119.314
G1 F900 X145.039 Y119.091 E15.536
G1 X145.466 Y118.791 E15.55334
G1 X145.836 Y118.422 E15.5707
G1 X146.137 Y117.992 E15.58815
G1 X146.358 Y117.519 E15.6055
G1 X146.493 Y117.013 E15.6229
G1 X146.539 Y116.491 E15.64031
G1 X146.493 Y115.97 E15.65769
G1 X146.358 Y115.464 E15.6751
G1 X146.137 Y114.99 E15.69248
G1 X145.836 Y114.56 E15.70992
G1 X145.465 Y114.191 E15.72731
G1 X145.039 Y113.892 E15.74461
G1 X144.564 Y113.669 E15.76204
G1 X144.058 Y113.535 E15.77944
G1 X143.536 Y113.488 E15.79686
G1 X143.014 Y113.535 E15.81427
G1 X142.509 Y113.669 E15.83164
G1 X142.034 Y113.892 E15.84907
G1 X141.606 Y114.192 E15.86644
G1 X141.235 Y114.561 E15.88383
G1 X140.936 Y114.99 E15.90121
G1 X140.715 Y115.464 E15.91859
G1 X140.579 Y115.97 E15.936
G1 X140.533 Y116.491 E15.95338
G1 X140.579 Y117.013 E15.9708
G1 X140.715 Y117.519 E15.98821
G1 X140.936 Y117.992 E16.00556
G1 X141.235 Y118.421 E16.02294
G1 X141.606 Y118.791 E16.04035
G1 X142.034 Y119.091 E16.05772
G1 X142.51 Y119.314 E16.07519
G1 X143.015 Y119.448 E16.09255
G1 X143.536 Y119.494 E16.10993
G1 X144.057 Y119.448 E16.12731
G1 X144.564 Y119.314 E16.14474
G0 F2625 X144.598 Y119.407
G0 X145.491 Y118.821
G0 X145.597 Y118.716
G0 X160.767 Y100.977
G0 X160.863 Y101.002
G1 F900 X165.613 Y109.23 E16.46047
G1 X168.243 Y107.712 E16.56138
G1 X168.798 Y109.362 E16.61923
G1 X169.384 Y111.918 E16.70638
G1 X169.71 Y114.509 E16.79316
G1 X169.777 Y117.134 E16.88042
G1 X169.582 Y119.752 E16.96766
G1 X169.13 Y122.318 E17.05425
G1 X168.42 Y124.848 E17.14157
G1 X167.463 Y127.287 E17.22864
G1 X166.272 Y129.611 E17.31543
G1 X164.847 Y131.818 E17.40273
G1 X163.216 Y133.861 E17.4896
G1 X161.384 Y135.738 E17.57677
G1 X159.374 Y137.423 E17.66393
G1 X157.212 Y138.896 E17.75087
G1 X154.909 Y140.149 E17.83799
G1 X152.498 Y141.164 E17.92493
G1 X149.99 Y141.935 E18.01212
G1 X148.286 Y142.278 E18.06989
G1 X148.286 Y139.241 E18.17081
G1 X138.786 Y139.241 E18.48651
G1 X138.786 Y142.278 E18.58744
G1 X137.082 Y141.935 E18.6452
G1 X134.574 Y141.164 E18.7324
G1 X132.163 Y140.149 E18.81933
G1 X129.86 Y138.896 E18.90646
G1 X127.697 Y137.423 E18.99342
G1 X125.688 Y135.739 E19.08054
G1 X123.857 Y133.862 E19.16768
G1 X122.225 Y131.818 E19.2546
G1 X120.8 Y129.611 E19.3419
G1 X119.609 Y127.287 E19.42869
G1 X118.652 Y124.848 E19.51575
G1 X117.942 Y122.318 E19.60308
G1 X117.49 Y119.752 E19.68967
G1 X117.295 Y117.134 E19.77691
G1 X117.362 Y114.51 E19.86414
G1 X117.689 Y111.917 E19.95099
G1 X118.274 Y109.362 E20.0381
G1 X118.829 Y107.712 E20.09595
G1 X121.459 Y109.23 E20.19686
G1 X126.209 Y101.002 E20.51259
G1 X123.58 Y99.484 E20.61347
G1 X124.738 Y98.171 E20.67165
G1 X126.648 Y96.395 E20.75832
G1 X128.731 Y94.815 E20.84521
G1 X130.974 Y93.443 E20.93258
G1 X133.323 Y92.311 E21.01924
G1 X135.794 Y91.41 E21.10664
G1 X138.337 Y90.762 E21.19385
G1 X140.914 Y90.374 E21.28046
G1 X143.536 Y90.242 E21.3677
G1 X146.158 Y90.374 E21.45495
G1 X148.735 Y90.762 E21.54155
G1 X151.278 Y91.41 E21.62876
G1 X153.749 Y92.311 E21.71616
G1 X156.098 Y93.443 E21.80282
G1 X158.341 Y94.815 E21.8902
G1 X160.424 Y96.395 E21.97708
G1 X162.34 Y98.175 E22.06399
G1 X163.493 Y99.484 E22.12196
G1 X160.863 Y101.002 E22.22287
G0 F2625 X160.767 Y100.977
G0 X157.538 Y104.696
G0 X148.992 Y109.628
G0 X138.08 Y109.628
G0 X129.534 Y104.696
G0 X128.772 Y99.03
G0 X128.863 Y99.069
G1 F900 X129.567 Y104.674 E22.4106
G1 X138.08 Y109.588 E22.73725
G1 X139.658 Y108.65 E22.79826
G1 X140.917 Y108.145 E22.84334
G1 X142.197 Y107.847 E22.88701
G1 X143.57 Y107.744 E22.93277
G1 X144.866 Y107.846 E22.97597
G1 X146.184 Y108.155 E23.02096
G1 X147.417 Y108.652 E23.06514
G1 X148.992 Y109.588 E23.12602
G1 X157.505 Y104.674 E23.45267
G1 X158.209 Y99.069 E23.6404
G1 X155.787 Y97.32 E23.73968
G1 X153.532 Y96.053 E23.82564
G1 X151.149 Y95.051 E23.91155
G1 X148.666 Y94.326 E23.99751
G1 X146.117 Y93.886 E24.08347
G1 X143.536 Y93.74 E24.16938
G1 X140.955 Y93.886 E24.25529
G1 X138.407 Y94.326 E24.34121
G1 X135.924 Y95.051 E24.42718
G1 X133.541 Y96.053 E24.51308
G1 X131.286 Y97.32 E24.59904
G1 X128.863 Y99.069 E24.69835
G0 F2625 X129.396 Y99.301
;TYPE:WALL-OUTER
G1 F900 X130.032 Y104.365 E24.86796
G1 X138.076 Y109.009 E25.17662
G1 X139.436 Y108.201 E25.22919
G1 X140.767 Y107.667 E25.27685
G1 X142.124 Y107.351 E25.32316
G1 X143.565 Y107.243 E25.37118
G1 X144.947 Y107.351 E25.41724
G1 X146.336 Y107.677 E25.46466
G1 X147.638 Y108.202 E25.51131
G1 X148.996 Y109.009 E25.56381
G1 X157.04 Y104.365 E25.87248
