;Generated by Cura LulzBot Edition GCodeWriter Version: 3.2.21
;FLAVOR:Marlin
;TIME:9346
;Filament used: 4.92215m
;Layer height: 0.25
;Generated with Cura_SteamEngine 3.2.21
M82 ;absolute extrusion mode
;This G-Code has been generated specifically for the LulzBot TAZ 6 with standard extruder
M75 ; start GLCD timer
G26 ; clear potential 'probe fail' condition
G21 ; set units to Millimetres
M107 ; disable fans
G90 ; absolute positioning
M82 ; set extruder to absolute mode
G92 E0 ; set extruder position to 0
M140 S60 ; start bed heating up
G28 XY ; home X and Y
G1 X-19 Y258 F1000 ; move to safe homing position
M109 R140 ; soften filament before homing Z
G28 Z ; home Z
G1 E-30 F100 ; retract filament
M109 R140 ; wait for extruder to reach wiping temp
G1 X-15 Y100 F3000 ; move above wiper pad
G1 Z1 ; push nozzle into wiper
G1 X-17 Y95 F1000 ; slow wipe
G1 X-17 Y90 F1000 ; slow wipe
G1 X-17 Y85 F1000 ; slow wipe
G1 X-15 Y90 F1000 ; slow wipe
G1 X-17 Y80 F1000 ; slow wipe
G1 X-15 Y95 F1000 ; slow wipe
G1 X-17 Y75 F2000 ; fast wipe
G1 X-15 Y65 F2000 ; fast wipe
G1 X-17 Y70 F2000 ; fast wipe
G1 X-15 Y60 F2000 ; fast wipe
G1 X-17 Y55 F2000 ; fast wipe
G1 X-15 Y50 F2000 ; fast wipe
G1 X-17 Y40 F2000 ; fast wipe
G1 X-15 Y45 F2000 ; fast wipe
G1 X-17 Y35 F2000 ; fast wipe
G1 X-15 Y40 F2000 ; fast wipe
G1 X-17 Y70 F2000 ; fast wipe
G1 X-15 Y30 Z2 F2000 ; fast wipe
G1 X-17 Y35 F2000 ; fast wipe
G1 X-15 Y25 F2000 ; fast wipe
G1 X-17 Y30 F2000 ; fast wipe
G1 X-15 Y25 Z1.5 F1000 ; slow wipe
G1 X-17 Y23 F1000 ; slow wipe
G1 Z10 ; raise extruder
M109 R140 ; wait for extruder to reach probe temp
G1 X-9 Y-9 ; move above first probe point
M204 S100 ; set probing acceleration
G29 ; start auto-leveling sequence
M204 S500 ; restore standard acceleration
G1 X0 Y0 Z15 F5000 ; move up off last probe point
G4 S1 ; pause
M400 ; wait for moves to finish
M117 Heating... ; progress indicator message on LCD
M109 R210 ; wait for extruder to reach printing temp
M190 S60 ; wait for bed to reach printing temp
G1 Z2 E0 F75 ; prime tiny bit of filament into the nozzle
M117 TAZ 6 Printing... ; progress indicator message on LCD

M221 S100
;LAYER_COUNT:76
;LAYER:0
M107
G0 F2625 X23.141 Y120.127 Z0.424
;TYPE:SKIRT
G1 F900 X23.641 Y120.03 E0.01693
G1 X24.01 Y120.009 E0.02921
G1 X74.019 Y120.012 E1.69111
G1 X74.394 Y120.034 E1.70359
G1 X77.751 Y120.424 E1.8159
G1 X83.232 Y120.811 E1.9985
G1 X88.715 Y120.889 E2.18073
G1 X94.176 Y120.656 E2.36237
G1 X99.614 Y120.116 E2.54398
G1 X105.065 Y119.26 E2.72734
G1 X107.69 Y118.733 E2.81632
G1 X110.353 Y118.121 E2.90712
G1 X115.654 Y116.661 E3.08984
G1 X120.859 Y114.905 E3.2724
G1 X123.341 Y113.948 E3.3608
G1 X125.889 Y112.883 E3.45257
G1 X130.875 Y110.546 E3.63556
G1 X135.68 Y107.951 E3.81704
G1 X140.355 Y105.074 E3.99946
G1 X144.832 Y101.957 E4.18075
G1 X149.164 Y98.562 E4.36365
G1 X151.19 Y96.832 E4.45219
G1 X155.238 Y93.062 E4.63602
G1 X159.019 Y89.121 E4.81751
G1 X162.573 Y84.968 E4.99916
G1 X165.895 Y80.612 E5.18121
G1 X168.956 Y76.091 E5.36265
G1 X171.801 Y71.325 E5.54711
G1 X174.176 Y67.074 E5.70893
G1 X174.341 Y66.809 E5.7193
G1 X176.727 Y63.364 E5.85856
G1 X176.838 Y63.213 E5.86479
G1 X178.141 Y61.545 E5.93513
G1 X178.283 Y61.376 E5.94247
G1 X181.053 Y58.288 E6.08032
G1 X181.182 Y58.152 E6.08655
G1 X182.682 Y56.662 E6.15681
G1 X182.845 Y56.51 E6.16422
G1 X186.03 Y53.754 E6.30419
G1 X186.171 Y53.64 E6.31021
G1 X189.929 Y50.738 E6.468
G1 X190.355 Y50.459 E6.48492
G1 X190.82 Y50.25 E6.50187
G1 X191.312 Y50.117 E6.5188
G1 X191.915 Y50.06 E6.53893
G1 X249.308 Y50.053 E8.44622
G1 X249.816 Y50.093 E8.46315
G1 X250.311 Y50.212 E8.48007
G1 X250.782 Y50.406 E8.497
G1 X251.216 Y50.672 E8.51391
G1 X251.604 Y51.003 E8.53086
G1 X252.032 Y51.531 E8.55345
G1 X254.174 Y54.824 E8.68399
G1 X257.38 Y59.285 E8.86656
G1 X260.825 Y63.548 E9.0487
G1 X264.984 Y68.113 E9.25392
G1 X265.297 Y68.516 E9.27088
G1 X265.452 Y68.776 E9.28094
G1 X267.342 Y72.331 E9.41474
G1 X267.477 Y72.619 E9.42531
G1 X269.304 Y77.055 E9.58474
G1 X269.461 Y77.54 E9.60168
G1 X269.549 Y78.293 E9.62687
G1 X269.554 Y112.262 E10.75573
G1 X269.514 Y112.769 E10.77263
G1 X269.376 Y113.324 E10.79164
G1 X267.148 Y119.77 E11.01828
G1 X265.654 Y125.064 E11.20109
G1 X265.023 Y127.723 E11.2919
G1 X264.479 Y130.362 E11.38145
G1 X263.595 Y135.771 E11.56358
G1 X263.019 Y141.222 E11.74574
G1 X262.754 Y146.681 E11.92737
G1 X262.796 Y152.163 E12.10955
G1 X263.149 Y157.62 E12.29128
G1 X263.808 Y163.042 E12.47279
G1 X264.783 Y168.471 E12.65609
G1 X265.363 Y171.073 E12.74468
G1 X266.761 Y176.296 E12.92436
G1 X266.854 Y176.797 E12.94129
G1 X266.872 Y177.136 E12.95258
G1 X266.874 Y207.014 E13.94548
G1 X266.834 Y207.522 E13.96242
G1 X266.715 Y208.017 E13.97933
G1 X266.521 Y208.488 E13.99626
G1 X266.213 Y208.979 E14.01552
G1 X264.69 Y210.985 E14.09922
G1 X261.556 Y215.487 E14.28151
G1 X258.69 Y220.147 E14.46332
G1 X256.088 Y224.967 E14.64535
G1 X253.767 Y229.918 E14.82706
G1 X251.642 Y235.22 E15.01688
G1 X251.416 Y235.677 E15.03382
G1 X251.121 Y236.093 E15.05077
G1 X250.923 Y236.309 E15.06051
G1 X250.664 Y236.568 E15.07268
G1 X250.277 Y236.899 E15.08961
G1 X249.842 Y237.165 E15.10655
G1 X249.372 Y237.36 E15.12346
G1 X248.876 Y237.48 E15.14042
G1 X248.366 Y237.52 E15.15742
G1 X193.059 Y237.52 E16.99538
G1 X192.551 Y237.48 E17.01231
G1 X192.056 Y237.361 E17.02923
G1 X191.585 Y237.166 E17.04617
G1 X191.097 Y236.861 E17.0653
G1 X187.01 Y233.766 E17.23567
G1 X186.851 Y233.638 E17.24245
G1 X184.24 Y231.39 E17.35695
G1 X184.049 Y231.211 E17.36565
G1 X180.987 Y228.111 E17.51045
G1 X180.826 Y227.936 E17.51835
G1 X178.72 Y225.466 E17.62622
G1 X178.616 Y225.338 E17.6317
G1 X177.347 Y223.687 E17.7009
G1 X177.221 Y223.51 E17.70812
G1 X174.933 Y220.082 E17.84508
G1 X174.812 Y219.887 E17.85271
G1 X172.571 Y215.954 E18.00314
G1 X169.72 Y211.212 E18.18701
G1 X168.24 Y208.971 E18.27626
G1 X165.015 Y204.514 E18.45908
G1 X161.559 Y200.265 E18.6411
G1 X157.877 Y196.226 E18.82272
G1 X153.965 Y192.396 E19.00466
G1 X149.81 Y188.764 E19.18806
G1 X147.745 Y187.11 E19.27598
G1 X143.285 Y183.835 E19.45986
G1 X138.72 Y180.866 E19.64083
G1 X133.965 Y178.141 E19.82295
G1 X129.058 Y175.687 E20.00528
G1 X124.03 Y173.518 E20.18725
G1 X121.465 Y172.538 E20.2785
G1 X118.934 Y171.656 E20.36757
G1 X113.659 Y170.059 E20.55073
G1 X108.348 Y168.774 E20.73232
G1 X102.965 Y167.789 E20.91418
G1 X97.541 Y167.111 E21.09583
G1 X92.072 Y166.741 E21.27799
G1 X86.607 Y166.68 E21.45961
G1 X81.126 Y166.929 E21.64195
G1 X75.694 Y167.484 E21.8234
G1 X70.269 Y168.353 E22.00598
G1 X67.635 Y168.888 E22.0953
G1 X62.717 Y170.094 E22.26358
G1 X62.214 Y170.177 E22.28052
G1 X61.943 Y170.188 E22.28954
G1 X36.068 Y170.19 E23.14941
G1 X35.56 Y170.15 E23.16635
G1 X35.065 Y170.031 E23.18327
G1 X34.594 Y169.837 E23.2002
G1 X34.159 Y169.571 E23.21714
G1 X33.779 Y169.247 E23.23373
G1 X33.521 Y168.991 E23.24581
G1 X33.188 Y168.605 E23.26275
G1 X32.92 Y168.172 E23.27968
G1 X32.723 Y167.702 E23.29661
G1 X32.617 Y167.288 E23.31081
G1 X31.848 Y163.224 E23.44827
G1 X31.265 Y160.61 E23.53727
G1 X29.829 Y155.266 E23.72116
G1 X28.119 Y150.083 E23.90253
G1 X26.104 Y144.971 E24.08514
G1 X23.822 Y140.022 E24.26624
G1 X20.943 Y134.62 E24.46967
G1 X20.739 Y134.153 E24.4866
G1 X20.611 Y133.659 E24.50356
G1 X20.561 Y133.098 E24.52228
G1 X20.55 Y127.964 E24.69289
G1 X20.553 Y127.812 E24.69794
G1 X20.763 Y123.114 E24.85422
G1 X20.826 Y122.608 E24.87117
G1 X20.967 Y122.119 E24.88808
G1 X21.182 Y121.657 E24.90502
G1 X21.467 Y121.235 E24.92194
G1 X21.815 Y120.862 E24.93889
G1 X22.217 Y120.549 E24.95582
G1 X22.662 Y120.302 E24.97274
G1 X23.141 Y120.127 E24.98968
G1 F600 E23.98968
G0 F2625 X23.339 Y125.878
G0 X24.05 Y127.5
;TYPE:SUPPORT
G1 F600 E24.98968
G1 F900 X73.95 Y127.5 E26.64796
G1 X73.95 Y133.029 E26.8317
G1 X73.9 Y133.121 E26.83518
G1 X62.249 Y140.661 E27.29637
G1 X61.95 Y141.21 E27.31714
G1 X61.95 Y166.583 E28.16034
G1 X61.833 Y166.7 E28.16584
G1 X36.167 Y166.7 E29.01877
G1 X36.05 Y166.583 E29.02427
G1 X36.05 Y141.21 E29.86746
G1 X35.751 Y140.661 E29.88824
G1 X24.1 Y133.121 E30.34943
G1 X24.05 Y133.029 E30.35291
G1 X24.05 Y127.5 E30.53665
G0 F2625 X29.237 Y128.602
G1 F900 X28.538 Y131.072 E30.62196
G1 X28.779 Y131.693 E30.64409
G1 X40.405 Y138.852 E31.09782
G1 X40.629 Y138.975 E31.10631
G1 X40.916 Y139.109 E31.11684
G1 X41.429 Y139.25 E31.13452
G1 X41.734 Y139.282 E31.14471
G1 X41.981 Y139.3 E31.15294
G1 X56.042 Y139.3 E31.62022
G1 X56.267 Y139.288 E31.6277
G1 X56.579 Y139.246 E31.63817
G1 X56.958 Y139.145 E31.6512
G1 X57.332 Y139.003 E31.6645
G1 X57.606 Y138.843 E31.67504
G1 X69.219 Y131.693 E32.12824
G1 X69.46 Y131.072 E32.15038
G1 X68.761 Y128.602 E32.23569
G1 X68.229 Y128.2 E32.25785
G1 X29.769 Y128.2 E33.53595
G1 X29.237 Y128.602 E33.55811
G0 F2625 X30 Y128
G1 F900 X30 Y127.7 E33.56808
G0 F2625 X28.632 Y130
G1 F900 X24.249 Y130 E33.71373
G0 F2625 X25 Y127.7
G1 F900 X25 Y133.464 E33.90528
G0 F2625 X27.371 Y135
G1 F900 X33.768 Y135 E34.11787
G0 F2625 X35 Y135.759
G1 F900 X35 Y139.937 E34.25671
G0 F2625 X35.096 Y140
G1 F900 X62.901 Y140 E35.18073
G0 F2625 X65 Y138.643
G1 F900 X65 Y134.525 E35.31758
G0 F2625 X64.228 Y135
G1 F900 X70.626 Y135 E35.53019
G0 F2625 X70 Y135.407
G1 F900 X70 Y127.7 E35.78631
G0 F2625 X69.363 Y130
G1 F900 X73.749 Y130 E35.93207
G0 F2625 X65 Y128
G1 F900 X65 Y127.7 E35.94204
G0 F2625 X60 Y127.7
G1 F900 X60 Y128 E35.95201
G0 F2625 X55 Y128
G1 F900 X55 Y127.7 E35.96198
G0 F2625 X50 Y127.7
G1 F900 X50 Y128 E35.97195
G0 F2625 X45 Y128
G1 F900 X45 Y127.7 E35.98192
G0 F2625 X40 Y127.7
G1 F900 X40 Y128 E35.99189
G0 F2625 X35 Y128
G1 F900 X35 Y127.7 E36.00186
G0 F2625 X30 Y132.68
G1 F900 X30 Y136.7 E36.13545
G0 F2625 X40 Y138.838
G1 F900 X40 Y166.5 E37.05471
G0 F2625 X36.249 Y165
G1 F900 X61.749 Y165 E37.90213
G0 F2625 X60 Y166.5
G1 F900 X60 Y137.603 E38.86243
G0 F2625 X55 Y139.5
G1 F900 X55 Y166.5 E39.75969
G0 F2625 X50 Y166.5
G1 F900 X50 Y139.5 E40.65696
G0 F2625 X45 Y139.5
G1 F900 X45 Y166.5 E41.55422
G0 F2625 X36.249 Y160
G1 F900 X61.749 Y160 E42.40164
G0 F2625 X61.749 Y155
G1 F900 X36.249 Y155 E43.24905
G0 F2625 X36.249 Y150
G1 F900 X61.749 Y150 E44.09647
G0 F2625 X61.749 Y145
G1 F900 X36.249 Y145 E44.94388
G0 F2625 X172.066 Y179.613
G1 F900 X172.936 Y176.626 E45.04727
G1 X173.51 Y175.033 E45.10354
G1 X174.128 Y173.369 E45.16253
G1 X175.218 Y170.86 E45.25344
G1 X176.673 Y168 E45.36008
G1 X178.289 Y165.273 E45.46542
G1 X180.033 Y162.708 E45.56849
G1 X181.95 Y160.238 E45.6724
G1 X184.013 Y157.894 E45.77616
G1 X186.233 Y155.676 E45.88045
G1 X188.608 Y153.585 E45.98561
G1 X193.033 Y150.151 E46.17175
G1 X193.094 Y150.13 E46.17389
G1 X248.267 Y150.13 E48.0074
G1 X248.384 Y150.247 E48.0129
G1 X248.384 Y176.631 E48.88969
G1 X248.883 Y177.13 E48.91314
G1 X263.267 Y177.13 E49.39115
G1 X263.384 Y177.247 E49.39665
G1 X263.384 Y206.913 E50.38251
G1 X263.267 Y207.03 E50.38801
G1 X248.883 Y207.03 E50.86602
G1 X248.384 Y207.529 E50.88947
G1 X248.384 Y233.913 E51.76626
G1 X248.267 Y234.03 E51.77176
G1 X193.095 Y234.03 E53.60523
G1 X193.03 Y234.007 E53.60752
G1 X188.593 Y230.564 E53.79416
G1 X186.253 Y228.502 E53.89781
G1 X184.016 Y226.262 E54.00301
G1 X181.947 Y223.92 E54.10686
G1 X180.013 Y221.426 E54.21174
G1 X178.264 Y218.849 E54.31524
G1 X176.629 Y216.081 E54.42208
G1 X175.239 Y213.359 E54.52365
G1 X173.985 Y210.449 E54.62895
G1 X172.928 Y207.507 E54.73283
G1 X172.05 Y204.486 E54.83738
G1 X171.37 Y201.462 E54.94039
G1 X170.867 Y198.275 E55.04761
G1 X170.586 Y195.22 E55.14956
G1 X170.484 Y192.072 E55.25423
G1 X170.588 Y188.896 E55.35983
G1 X170.873 Y185.845 E55.46166
G1 X171.347 Y182.828 E55.56315
G1 X172.066 Y179.613 E55.67263
G0 F2625 X173.631 Y176.308
G1 F900 X173.529 Y177.833 E55.72342
G1 X173.553 Y178.163 E55.73442
G1 X173.563 Y178.411 E55.74267
G1 X173.696 Y179.025 E55.76355
G1 X173.883 Y179.572 E55.78276
G1 X174.163 Y180.106 E55.80279
G1 X174.495 Y180.586 E55.82219
G1 X174.926 Y181.048 E55.84319
G1 X175.365 Y181.411 E55.86212
G1 X176.368 Y182.027 E55.90123
G1 X176.881 Y182.098 E55.91844
G1 X177.039 Y182.143 E55.9239
G1 X177.63 Y182.224 E55.94373
G1 X178.239 Y182.224 E55.96396
G1 X178.529 Y182.184 E55.97369
G1 X178.684 Y182.184 E55.97884
G1 X179.425 Y181.975 E56.00443
G1 X179.944 Y181.753 E56.02319
G1 X180.483 Y181.421 E56.04423
G1 X181.416 Y180.66 E56.08424
G1 X182.277 Y179.005 E56.14623
G1 X182.334 Y177.888 E56.1834
G1 X182.27 Y176.332 E56.23515
G1 X181.35 Y175.05 E56.28759
G1 X180.936 Y174.61 E56.30767
G1 X180.758 Y174.464 E56.31532
G1 X180.372 Y173.953 E56.3366
G1 X178.79 Y173.506 E56.39123
G1 X178.732 Y173.506 E56.39316
G1 X178.248 Y173.436 E56.40941
G1 X177.616 Y173.436 E56.43042
G1 X177.009 Y173.522 E56.45079
G1 X176.882 Y173.559 E56.45518
G1 X176.359 Y173.639 E56.47277
G1 X175.394 Y174.234 E56.51044
G1 X174.939 Y174.603 E56.52991
G1 X174.608 Y174.954 E56.54594
G1 X174.515 Y175.054 E56.55048
G1 X173.631 Y176.308 E56.60147
G0 F2625 X173.896 Y204.566
G1 F900 X173.692 Y205.142 E56.62177
G1 X173.57 Y205.745 E56.64222
G1 X173.534 Y206.249 E56.65901
G1 X173.541 Y206.489 E56.66699
G1 X173.572 Y206.932 E56.68175
G1 X173.61 Y207.12 E56.68812
G1 X173.61 Y207.28 E56.69344
G1 X173.991 Y208.36 E56.7315
G1 X174.512 Y209.102 E56.76163
G1 X174.792 Y209.565 E56.77961
G1 X175.717 Y210.124 E56.81552
G1 X176.356 Y210.521 E56.84052
G1 X176.896 Y210.602 E56.85867
G1 X177.104 Y210.65 E56.86576
G1 X177.63 Y210.724 E56.88342
G1 X178.249 Y210.724 E56.90399
G1 X179.419 Y210.571 E56.9432
G1 X180.468 Y209.928 E56.98409
G1 X180.881 Y209.599 E57.00164
G1 X181.415 Y209.158 E57.02465
G1 X181.953 Y208.131 E57.06318
G1 X182.217 Y208.131 E57.07195
G1 X182.682 Y207.559 E57.09645
G1 X182.177 Y205.147 E57.17834
G1 X181.98 Y204.585 E57.19813
G1 X181.699 Y204.041 E57.21848
G1 X181.347 Y203.545 E57.23869
G1 X180.95 Y203.129 E57.2578
G1 X180.639 Y202.819 E57.2724
G1 X179.686 Y202.258 E57.30915
G1 X178.791 Y202.006 E57.34004
G1 X178.732 Y202.006 E57.34201
G1 X178.248 Y201.936 E57.35826
G1 X177.615 Y201.936 E57.37929
G1 X177.011 Y202.024 E57.39958
G1 X176.59 Y202.143 E57.41412
G1 X176.356 Y202.222 E57.42232
G1 X175.912 Y202.418 E57.43845
G1 X175.391 Y202.734 E57.4587
G1 X174.933 Y203.106 E57.47831
G1 X174.522 Y203.545 E57.49829
G1 X174.163 Y204.054 E57.51899
G1 X173.896 Y204.566 E57.53818
G1 F600 E56.53818
G0 F2625 X176.853 Y203.196
G0 X177.656 Y203.04
G0 X236.694 Y205.136
G1 F600 E57.53818
G1 F900 X236.606 Y205.556 E57.55244
G1 X236.571 Y205.728 E57.55828
G1 X236.534 Y206.249 E57.57563
G1 X236.541 Y206.488 E57.58358
G1 X236.572 Y206.935 E57.59847
G1 X236.61 Y207.119 E57.60471
G1 X236.61 Y207.279 E57.61003
G1 X236.896 Y208.09 E57.63861
G1 X237.165 Y208.612 E57.65812
G1 X237.508 Y209.101 E57.67797
G1 X237.939 Y209.56 E57.6989
G1 X238.393 Y209.927 E57.7183
G1 X238.878 Y210.221 E57.73715
G1 X239.457 Y210.479 E57.75821
G1 X239.989 Y210.628 E57.77657
G1 X240.103 Y210.65 E57.78043
G1 X240.631 Y210.724 E57.79815
G1 X241.249 Y210.724 E57.81868
G1 X242.419 Y210.571 E57.8579
G1 X243.468 Y209.928 E57.89878
G1 X243.881 Y209.599 E57.91633
G1 X244.415 Y209.158 E57.93935
G1 X244.975 Y208.089 E57.97945
G1 X245.181 Y207.987 E57.98709
G1 X245.551 Y207.486 E58.00779
G1 X245.6 Y207.165 E58.01858
G1 X245.177 Y205.147 E58.0871
G1 X244.981 Y204.587 E58.10682
G1 X244.699 Y204.038 E58.12733
G1 X244.349 Y203.549 E58.14731
G1 X243.935 Y203.105 E58.16748
G1 X243.481 Y202.737 E58.1869
G1 X242.831 Y202.339 E58.21223
G1 X242.449 Y202.198 E58.22577
G1 X242.449 Y202.182 E58.2263
G1 X242.128 Y201.555 E58.24971
G1 X241.438 Y201.524 E58.27266
G1 X240.837 Y201.725 E58.29372
G1 X240.597 Y201.656 E58.30202
G1 X239.695 Y202.106 E58.33552
G1 X239.091 Y202.3 E58.3566
G1 X238.387 Y202.737 E58.38413
G1 X237.939 Y203.102 E58.40334
G1 X237.517 Y203.552 E58.42384
G1 X237.178 Y204.027 E58.44323
G1 X236.89 Y204.583 E58.46404
G1 X236.694 Y205.136 E58.48354
G0 F2625 X236.633 Y176.284
G1 F900 X236.529 Y177.83 E58.53503
G1 X236.555 Y178.184 E58.54683
G1 X236.555 Y178.378 E58.55327
G1 X236.687 Y178.999 E58.57437
G1 X236.889 Y179.577 E58.59472
G1 X237.149 Y180.075 E58.61339
G1 X237.503 Y180.595 E58.63429
G1 X237.913 Y181.03 E58.65416
G1 X238.381 Y181.42 E58.6744
G1 X238.939 Y181.762 E58.69615
