;Generated by Cura LulzBot Edition GCodeWriter Version: 3.2.21
;FLAVOR:Marlin
;TIME:10741
;Filament used: 5.05673m
;Layer height: 0.25
;Generated with Cura_SteamEngine 3.2.21
M82 ;absolute extrusion mode
;This G-Code has been generated specifically for the LulzBot TAZ 6 with standard extruder
M75 ; start GLCD timer
G26 ; clear potential 'probe fail' condition
G21 ; set units to Millimetres
M107 ; disable fans
G90 ; absolute positioning
M82 ; set extruder to absolute mode
G92 E0 ; set extruder position to 0
M140 S60 ; start bed heating up
G28 XY ; home X and Y
G1 X-19 Y258 F1000 ; move to safe homing position
M109 R140 ; soften filament before homing Z
G28 Z ; home Z
G1 E-30 F100 ; retract filament
M109 R140 ; wait for extruder to reach wiping temp
G1 X-15 Y100 F3000 ; move above wiper pad
G1 Z1 ; push nozzle into wiper
G1 X-17 Y95 F1000 ; slow wipe
G1 X-17 Y90 F1000 ; slow wipe
G1 X-17 Y85 F1000 ; slow wipe
G1 X-15 Y90 F1000 ; slow wipe
G1 X-17 Y80 F1000 ; slow wipe
G1 X-15 Y95 F1000 ; slow wipe
G1 X-17 Y75 F2000 ; fast wipe
G1 X-15 Y65 F2000 ; fast wipe
G1 X-17 Y70 F2000 ; fast wipe
G1 X-15 Y60 F2000 ; fast wipe
G1 X-17 Y55 F2000 ; fast wipe
G1 X-15 Y50 F2000 ; fast wipe
G1 X-17 Y40 F2000 ; fast wipe
G1 X-15 Y45 F2000 ; fast wipe
G1 X-17 Y35 F2000 ; fast wipe
G1 X-15 Y40 F2000 ; fast wipe
G1 X-17 Y70 F2000 ; fast wipe
G1 X-15 Y30 Z2 F2000 ; fast wipe
G1 X-17 Y35 F2000 ; fast wipe
G1 X-15 Y25 F2000 ; fast wipe
G1 X-17 Y30 F2000 ; fast wipe
G1 X-15 Y25 Z1.5 F1000 ; slow wipe
G1 X-17 Y23 F1000 ; slow wipe
G1 Z10 ; raise extruder
M109 R140 ; wait for extruder to reach probe temp
G1 X-9 Y-9 ; move above first probe point
M204 S100 ; set probing acceleration
G29 ; start auto-leveling sequence
M204 S500 ; restore standard acceleration
G1 X0 Y0 Z15 F5000 ; move up off last probe point
G4 S1 ; pause
M400 ; wait for moves to finish
M117 Heating... ; progress indicator message on LCD
M109 R210 ; wait for extruder to reach printing temp
M190 S60 ; wait for bed to reach printing temp
G1 Z2 E0 F75 ; prime tiny bit of filament into the nozzle
M117 TAZ 6 Printing... ; progress indicator message on LCD

M221 S100
;LAYER_COUNT:152
;LAYER:0
M107
G0 F2625 X88.024 Y60.763 Z0.424
;TYPE:SKIRT
G1 F900 X89.202 Y59.045 E0.06922
G1 X89.33 Y58.87 E0.07643
G1 X91.896 Y55.617 E0.21412
G1 X92.017 Y55.473 E0.22037
G1 X93.415 Y53.897 E0.29038
G1 X93.566 Y53.738 E0.29767
G1 X96.522 Y50.828 E0.43551
G1 X96.695 Y50.669 E0.44332
G1 X99.115 Y48.609 E0.54893
G1 X99.235 Y48.512 E0.55406
G1 X103.031 Y45.58 E0.71346
G1 X103.458 Y45.301 E0.73041
G1 X103.922 Y45.092 E0.74732
G1 X104.414 Y44.959 E0.76426
G1 X105.018 Y44.902 E0.78442
G1 X162.411 Y44.894 E2.6917
G1 X162.918 Y44.934 E2.7086
G1 X163.414 Y45.053 E2.72555
G1 X163.885 Y45.247 E2.74248
G1 X164.319 Y45.513 E2.7594
G1 X164.707 Y45.844 E2.77635
G1 X165.135 Y46.372 E2.79893
G1 X167.28 Y49.67 E2.92967
G1 X170.472 Y54.113 E3.11148
G1 X173.924 Y58.384 E3.29397
G1 X178.088 Y62.954 E3.49943
G1 X178.401 Y63.356 E3.51636
G1 X178.556 Y63.618 E3.52648
G1 X180.453 Y67.188 E3.66083
G1 X180.561 Y67.412 E3.66909
G1 X181.795 Y70.238 E3.77157
G1 X181.868 Y70.421 E3.77812
G1 X182.453 Y72.017 E3.8346
G1 X182.591 Y72.507 E3.85152
G1 X182.652 Y73.135 E3.87249
G1 X182.657 Y107.118 E5.00181
G1 X182.617 Y107.625 E5.01871
G1 X182.539 Y107.987 E5.03102
G1 X180.93 Y113.785 E5.23098
G1 X179.772 Y119.161 E5.41373
G1 X179.321 Y121.798 E5.50264
G1 X178.623 Y127.253 E5.6854
G1 X178.237 Y132.705 E5.86703
G1 X178.159 Y138.187 E6.04923
G1 X178.391 Y143.648 E6.23087
G1 X178.931 Y149.088 E6.41254
G1 X179.783 Y154.52 E6.59526
G1 X180.315 Y157.173 E6.68518
G1 X180.926 Y159.83 E6.77579
G1 X182.378 Y165.106 E6.95764
G1 X184.577 Y171.449 E7.18073
G1 X185.68 Y174.437 E7.28658
G1 X185.818 Y174.927 E7.3035
G1 X185.881 Y175.562 E7.3247
G1 X185.886 Y209.53 E8.45353
G1 X185.846 Y210.037 E8.47043
G1 X185.7 Y210.614 E8.49021
G1 X185.243 Y211.906 E8.53575
G1 X185.15 Y212.139 E8.54409
G1 X183.479 Y215.91 E8.68116
G1 X183.37 Y216.134 E8.68944
G1 X181.778 Y219.091 E8.80104
G1 X181.502 Y219.519 E8.81796
G1 X181.276 Y219.785 E8.82956
G1 X179.605 Y221.549 E8.91031
G1 X175.992 Y225.688 E9.09289
G1 X172.626 Y230.013 E9.27502
G1 X169.511 Y234.519 E9.45706
G1 X168.38 Y236.296 E9.52706
G1 X168.074 Y236.703 E9.54398
G1 X167.708 Y237.057 E9.5609
G1 X167.29 Y237.35 E9.57786
G1 X166.833 Y237.573 E9.59476
G1 X166.346 Y237.723 E9.6117
G1 X165.638 Y237.801 E9.63537
G1 X108.271 Y237.8 E11.54179
G1 X107.763 Y237.76 E11.55872
G1 X107.268 Y237.641 E11.57564
G1 X106.797 Y237.446 E11.59258
G1 X106.265 Y237.107 E11.61354
G1 X101.132 Y233.081 E11.83033
G1 X100.98 Y232.954 E11.83692
G1 X99.387 Y231.539 E11.90772
G1 X99.228 Y231.388 E11.91501
G1 X96.333 Y228.445 E12.0522
G1 X96.177 Y228.274 E12.05989
G1 X94.126 Y225.868 E12.16496
G1 X94.023 Y225.741 E12.17039
G1 X92.719 Y224.045 E12.24149
G1 X92.591 Y223.867 E12.24877
G1 X90.278 Y220.397 E12.38736
G1 X90.171 Y220.225 E12.39409
G1 X89.57 Y219.189 E12.43389
G1 X89.349 Y218.729 E12.45085
G1 X89.204 Y218.241 E12.46777
G1 X89.136 Y217.736 E12.4847
G1 X89.148 Y217.227 E12.50162
G1 X89.209 Y216.851 E12.51428
G1 X90.633 Y210.464 E12.73174
G1 X91.083 Y207.864 E12.81943
G1 X91.801 Y202.383 E13.00313
G1 X92.201 Y196.95 E13.18417
G1 X92.296 Y191.45 E13.36697
G1 X92.08 Y186.004 E13.5481
G1 X91.555 Y180.551 E13.73015
G1 X90.724 Y175.156 E13.91155
G1 X89.209 Y168.274 E14.14573
G1 X89.139 Y167.769 E14.16267
G1 X89.18 Y167.022 E14.18753
G1 X90.256 Y160.788 E14.39776
G1 X90.867 Y155.348 E14.57968
G1 X91.169 Y149.893 E14.76124
G1 X91.162 Y144.426 E14.94292
G1 X90.846 Y138.954 E15.12507
G1 X90.222 Y133.521 E15.30681
G1 X89.289 Y128.115 E15.48911
G1 X88.061 Y122.814 E15.66994
G1 X87.329 Y120.164 E15.7613
G1 X86.052 Y116.11 E15.90255
G1 X85.938 Y115.613 E15.9195
G1 X85.902 Y115.105 E15.93642
G1 X85.98 Y114.425 E15.95917
G1 X87.395 Y108.085 E16.17504
G1 X87.851 Y105.461 E16.26355
G1 X88.565 Y100.022 E16.44585
G1 X88.97 Y94.569 E16.62756
G1 X89.066 Y89.087 E16.80977
G1 X88.853 Y83.609 E16.99195
G1 X88.331 Y78.169 E17.17356
G1 X87.504 Y72.779 E17.35478
G1 X85.981 Y65.847 E17.59064
G1 X85.911 Y65.342 E17.60758
G1 X85.92 Y64.832 E17.62453
G1 X86.01 Y64.331 E17.64145
G1 X86.176 Y63.849 E17.65839
G1 X86.378 Y63.461 E17.67292
G1 X87.927 Y60.913 E17.77202
G1 X88.024 Y60.763 E17.77796
G1 F600 E16.77796
G0 F2625 X88.527 Y115.391
G0 X89.646 Y117.291
G0 X91.452 Y119.945
G0 X93.39 Y122.441
G0 X95.474 Y124.806
G0 X97.756 Y127.085
G0 X100.13 Y129.176
G0 X104.67 Y132.699
G0 X104.833 Y132.754
G0 X118.473 Y133.884
;TYPE:SUPPORT
G1 F600 E17.77796
G1 F900 X123.661 Y133.884 E17.95036
G1 X123.133 Y135.216 E17.99798
G1 X118.932 Y135.216 E18.13759
G1 X118.473 Y133.884 E18.18441
G0 F2625 X119.067 Y135
G1 F900 X123.003 Y135 E18.31521
G0 F2625 X120 Y135.016
G1 F900 X120 Y134.084 E18.34618
G1 F600 E17.34618
G0 F2625 X120 Y132.799
G0 X120 Y131.364
G0 X103.785 Y128.637
G0 X103.785 Y128.537
;TYPE:WALL-INNER
G1 F600 E18.34618
G1 F900 X104.237 Y128.491 E18.36128
G1 X104.639 Y128.375 E18.37518
G1 X105.015 Y128.193 E18.38906
G1 X105.355 Y127.945 E18.40305
G1 X105.644 Y127.644 E18.41692
G1 X105.874 Y127.303 E18.43058
G1 X106.037 Y126.956 E18.44333
G1 X106.145 Y126.551 E18.45725
G1 X106.182 Y126.134 E18.47117
G1 X106.145 Y125.716 E18.48511
G1 X106.036 Y125.311 E18.49905
G1 X105.86 Y124.933 E18.51291
G1 X105.62 Y124.59 E18.52682
G1 X105.323 Y124.293 E18.54078
G1 X104.98 Y124.054 E18.55467
G1 X104.601 Y123.875 E18.5686
G1 X104.195 Y123.768 E18.58255
G1 X103.779 Y123.731 E18.59643
G1 X103.362 Y123.768 E18.61034
G1 X102.957 Y123.875 E18.62426
G1 X102.578 Y124.054 E18.63819
G1 X102.235 Y124.293 E18.65208
G1 X101.939 Y124.589 E18.666
G1 X101.699 Y124.931 E18.67988
G1 X101.52 Y125.311 E18.69384
G1 X101.413 Y125.717 E18.70779
G1 X101.376 Y126.134 E18.7217
G1 X101.413 Y126.55 E18.73558
G1 X101.52 Y126.955 E18.7495
G1 X101.699 Y127.337 E18.76352
G1 X101.938 Y127.677 E18.77733
G1 X102.233 Y127.974 E18.79125
G1 X102.579 Y128.216 E18.80528
G1 X102.958 Y128.392 E18.81916
G1 X103.361 Y128.5 E18.83303
G1 X103.785 Y128.537 E18.84717
G0 F2625 X103.785 Y128.637
G0 X102.945 Y128.429
G0 X102.208 Y128.004
G0 X101.665 Y127.357
G0 X101.431 Y126.71
G0 X99.237 Y115.954
G0 X99.167 Y115.884
G1 F900 X99.167 Y64.384 E20.55862
G1 X90.455 Y64.384 E20.84814
G1 X90.821 Y63.764 E20.87206
G1 X92.587 Y61.166 E20.97646
G1 X94.465 Y58.745 E21.07828
G1 X96.505 Y56.431 E21.1808
G1 X98.714 Y54.222 E21.28461
G1 X101.029 Y52.182 E21.38715
G1 X105.282 Y48.884 E21.566
G1 X161.667 Y48.884 E23.43979
G1 X161.667 Y63.953 E23.94056
G1 X161.487 Y63.773 E23.94902
G1 X161.144 Y63.534 E23.96291
G1 X160.765 Y63.355 E23.97684
G1 X160.36 Y63.248 E23.99076
G1 X159.937 Y63.211 E24.00488
G1 X159.487 Y63.257 E24.01991
G1 X159.084 Y63.372 E24.03383
G1 X158.707 Y63.556 E24.04778
G1 X158.373 Y63.798 E24.06148
G1 X158.102 Y64.07 E24.07424
G1 X157.861 Y64.413 E24.08817
G1 X157.685 Y64.793 E24.10209
G1 X157.577 Y65.195 E24.11592
G1 X157.54 Y65.614 E24.1299
G1 X157.577 Y66.031 E24.14381
G1 X157.685 Y66.436 E24.15774
G1 X157.862 Y66.815 E24.17164
G1 X158.102 Y67.157 E24.18553
G1 X158.397 Y67.454 E24.19944
G1 X158.743 Y67.696 E24.21347
G1 X159.122 Y67.872 E24.22736
G1 X159.526 Y67.98 E24.24125
G1 X159.943 Y68.017 E24.25517
G1 X160.362 Y67.98 E24.26915
G1 X160.764 Y67.872 E24.28298
G1 X161.143 Y67.696 E24.29687
G1 X161.489 Y67.454 E24.3109
G1 X161.784 Y67.157 E24.32481
G1 X162.023 Y66.817 E24.33862
G1 X162.202 Y66.435 E24.35264
G1 X162.309 Y66.03 E24.36656
G1 X162.322 Y65.884 E24.37143
G1 X175.266 Y65.884 E24.80158
G1 X175.563 Y66.386 E24.82097
G1 X176.983 Y69.174 E24.92494
G1 X178.212 Y72.011 E25.02769
G1 X178.667 Y73.276 E25.07236
G1 X178.667 Y106.991 E26.19278
G1 X178.212 Y108.255 E26.23743
G1 X176.978 Y111.106 E26.34066
G1 X175.578 Y113.853 E26.44312
G1 X175.265 Y114.384 E26.46361
G1 X162.326 Y114.384 E26.8936
G1 X162.309 Y114.197 E26.89984
G1 X162.202 Y113.792 E26.91376
G1 X162.023 Y113.413 E26.92769
G1 X161.784 Y113.07 E26.94158
G1 X161.487 Y112.773 E26.95554
G1 X161.144 Y112.534 E26.96943
G1 X160.765 Y112.355 E26.98336
G1 X160.36 Y112.248 E26.99728
G1 X159.937 Y112.211 E27.01139
G1 X159.487 Y112.257 E27.02642
G1 X159.084 Y112.372 E27.04035
G1 X158.707 Y112.556 E27.05429
G1 X158.373 Y112.798 E27.068
G1 X158.102 Y113.07 E27.08076
G1 X157.861 Y113.413 E27.09469
G1 X157.685 Y113.793 E27.1086
G1 X157.577 Y114.195 E27.12244
G1 X157.54 Y114.614 E27.13642
G1 X157.577 Y115.031 E27.15033
G1 X157.685 Y115.436 E27.16426
G1 X157.862 Y115.815 E27.17816
G1 X158.102 Y116.157 E27.19204
G1 X158.397 Y116.454 E27.20595
G1 X158.743 Y116.696 E27.21999
G1 X159.122 Y116.872 E27.23387
G1 X159.526 Y116.98 E27.24777
G1 X159.943 Y117.017 E27.26168
G1 X160.362 Y116.98 E27.27566
G1 X160.764 Y116.872 E27.28949
G1 X161.143 Y116.696 E27.30338
G1 X161.489 Y116.454 E27.31741
G1 X161.667 Y116.275 E27.3258
G1 X161.667 Y131.384 E27.8279
G1 X105.283 Y131.384 E29.70165
G1 X101.02 Y128.076 E29.88097
G1 X98.71 Y126.041 E29.98328
G1 X96.505 Y123.836 E30.08691
G1 X94.465 Y121.522 E30.18942
G1 X92.582 Y119.094 E30.29153
G1 X90.826 Y116.51 E30.39535
G1 X90.456 Y115.884 E30.41952
G1 X99.167 Y115.884 E30.709
G0 F2625 X99.237 Y115.954
G0 X99.648 Y113.78
G0 X100.072 Y113.045
G0 X100.687 Y112.522
G0 X101.135 Y112.351
G0 X101.937 Y112.111
G0 X101.937 Y112.211
G1 F900 X101.487 Y112.257 E30.72403
G1 X101.084 Y112.372 E30.73796
G1 X100.707 Y112.556 E30.7519
G1 X100.373 Y112.798 E30.76561
G1 X100.102 Y113.07 E30.77837
G1 X99.861 Y113.413 E30.7923
G1 X99.685 Y113.793 E30.80622
G1 X99.577 Y114.195 E30.82005
G1 X99.54 Y114.614 E30.83403
G1 X99.577 Y115.031 E30.84794
G1 X99.685 Y115.436 E30.86187
G1 X99.862 Y115.815 E30.87577
G1 X100.102 Y116.157 E30.88966
G1 X100.397 Y116.454 E30.90357
G1 X100.743 Y116.696 E30.9176
G1 X101.122 Y116.872 E30.93148
G1 X101.526 Y116.98 E30.94538
G1 X101.943 Y117.017 E30.95929
G1 X102.362 Y116.98 E30.97327
G1 X102.764 Y116.872 E30.98711
G1 X103.143 Y116.696 E31.00099
G1 X103.489 Y116.454 E31.01502
G1 X103.784 Y116.157 E31.02893
G1 X104.023 Y115.817 E31.04275
G1 X104.202 Y115.435 E31.05677
G1 X104.309 Y115.03 E31.07069
G1 X104.346 Y114.614 E31.08457
G1 X104.309 Y114.197 E31.09848
G1 X104.202 Y113.792 E31.1124
G1 X104.023 Y113.413 E31.12633
G1 X103.784 Y113.07 E31.14022
G1 X103.487 Y112.773 E31.15418
G1 X103.144 Y112.534 E31.16807
G1 X102.765 Y112.355 E31.182
G1 X102.36 Y112.248 E31.19592
G1 X101.937 Y112.211 E31.21003
G0 F2625 X101.937 Y112.111
G0 X99.974 Y99.034
G0 X100.121 Y98.198
G0 X100.546 Y97.465
G0 X101.161 Y96.942
G0 X101.608 Y96.771
G0 X102.411 Y96.531
G0 X102.411 Y96.631
G1 F900 X101.959 Y96.677 E31.22513
G1 X101.557 Y96.792 E31.23902
G1 X101.181 Y96.976 E31.25294
G1 X100.847 Y97.218 E31.26664
G1 X100.576 Y97.49 E31.2794
G1 X100.337 Y97.831 E31.29324
G1 X100.158 Y98.211 E31.3072
G1 X100.051 Y98.617 E31.32115
G1 X100.014 Y99.034 E31.33506
G1 X100.051 Y99.45 E31.34894
G1 X100.158 Y99.855 E31.36286
G1 X100.337 Y100.237 E31.37688
G1 X100.576 Y100.577 E31.3907
G1 X100.871 Y100.874 E31.40461
G1 X101.217 Y101.116 E31.41864
G1 X101.596 Y101.292 E31.43252
G1 X101.998 Y101.4 E31.44636
G1 X102.417 Y101.437 E31.46034
G1 X102.834 Y101.4 E31.47425
G1 X103.239 Y101.292 E31.48818
G1 X103.618 Y101.115 E31.50208
G1 X103.961 Y100.874 E31.51601
G1 X104.257 Y100.578 E31.52992
G1 X104.498 Y100.235 E31.54385
G1 X104.675 Y99.856 E31.55775
G1 X104.783 Y99.451 E31.57168
G1 X104.82 Y99.034 E31.58559
G1 X104.783 Y98.616 E31.59954
G1 X104.674 Y98.211 E31.61348
G1 X104.498 Y97.833 E31.62733
G1 X104.257 Y97.488 E31.64132
G1 X103.96 Y97.193 E31.65523
G1 X103.62 Y96.954 E31.66904
G1 X103.238 Y96.775 E31.68306
G1 X102.832 Y96.668 E31.69701
G1 X102.411 Y96.631 E31.71106
G0 F2625 X102.411 Y96.531
G0 X108.568 Y79.329
G0 X108.661 Y79.363
G1 F900 X108.561 Y79.743 E31.72412
G1 X108.529 Y80.101 E31.73606
G1 X108.529 Y100.167 E32.40289
G1 X108.561 Y100.523 E32.41477
G1 X108.661 Y100.904 E32.42786
G1 X108.829 Y101.262 E32.441
G1 X109.054 Y101.582 E32.454
G1 X109.331 Y101.86 E32.46704
G1 X109.653 Y102.085 E32.4801
G1 X110.008 Y102.251 E32.49312
G1 X110.386 Y102.352 E32.50612
G1 X110.779 Y102.387 E32.51924
G1 X111.17 Y102.352 E32.53228
G1 X111.55 Y102.251 E32.54535
G1 X111.905 Y102.085 E32.55837
G1 X112.227 Y101.86 E32.57143
G1 X112.504 Y101.582 E32.58447
G1 X112.729 Y101.262 E32.59747
G1 X112.897 Y100.904 E32.61061
G1 X112.997 Y100.523 E32.6237
G1 X113.029 Y100.167 E32.63558
G1 X113.029 Y80.101 E33.30241
G1 X112.997 Y79.743 E33.31436
G1 X112.897 Y79.363 E33.32741
G1 X112.729 Y79.006 E33.34053
G1 X112.504 Y78.686 E33.35353
G1 X112.227 Y78.409 E33.36654
G1 X111.907 Y78.184 E33.37954
G1 X111.55 Y78.016 E33.39266
G1 X111.169 Y77.915 E33.40575
G1 X110.779 Y77.881 E33.41876
G1 X110.388 Y77.915 E33.43181
G1 X110.008 Y78.017 E33.44488
G1 X109.651 Y78.184 E33.45798
G1 X109.331 Y78.409 E33.47098
G1 X109.054 Y78.686 E33.484
G1 X108.829 Y79.006 E33.497
G1 X108.661 Y79.363 E33.51011
G0 F2625 X108.568 Y79.329
G0 X104.532 Y69.914
G0 X103.985 Y69.263
G0 X103.325 Y68.881
G0 X102.411 Y68.631
G0 X102.411 Y68.731
G1 F900 X101.959 Y68.777 E33.52521
G1 X101.557 Y68.892 E33.5391
G1 X101.181 Y69.076 E33.55301
G1 X100.847 Y69.318 E33.56672
G1 X100.576 Y69.59 E33.57948
G1 X100.337 Y69.931 E33.59332
G1 X100.158 Y70.311 E33.60728
G1 X100.051 Y70.717 E33.62123
G1 X100.014 Y71.134 E33.63514
G1 X100.051 Y71.55 E33.64902
G1 X100.158 Y71.955 E33.66294
G1 X100.337 Y72.337 E33.67696
G1 X100.576 Y72.677 E33.69077
G1 X100.871 Y72.974 E33.70468
G1 X101.217 Y73.216 E33.71872
G1 X101.596 Y73.392 E33.7326
G1 X101.998 Y73.5 E33.74644
G1 X102.417 Y73.537 E33.76041
G1 X102.834 Y73.5 E33.77433
G1 X103.239 Y73.392 E33.78826
G1 X103.618 Y73.215 E33.80216
G1 X103.961 Y72.974 E33.81609
G1 X104.257 Y72.678 E33.83
G1 X104.498 Y72.335 E33.84393
G1 X104.675 Y71.956 E33.85783
G1 X104.783 Y71.551 E33.87176
G1 X104.82 Y71.134 E33.88567
G1 X104.783 Y70.716 E33.89962
G1 X104.674 Y70.311 E33.91355
G1 X104.498 Y69.933 E33.92741
G1 X104.257 Y69.588 E33.9414
G1 X103.96 Y69.293 E33.95531
G1 X103.62 Y69.054 E33.96912
G1 X103.238 Y68.875 E33.98314
G1 X102.832 Y68.768 E33.99709
G1 X102.411 Y68.731 E34.01114
G0 F2625 X102.411 Y68.631
G0 X103.814 Y67.182
