;Generated by Cura LulzBot Edition GCodeWriter Version: 3.2.21
;FLAVOR:Marlin
;TIME:2245
;Filament used: 0.993444m
;Layer height: 0.25
;Generated with Cura_SteamEngine 3.2.21
M82 ;absolute extrusion mode
;This G-Code has been generated specifically for the LulzBot TAZ 6 with standard extruder
M75 ; start GLCD timer
G26 ; clear potential 'probe fail' condition
G21 ; set units to Millimetres
M107 ; disable fans
G90 ; absolute positioning
M82 ; set extruder to absolute mode
G92 E0 ; set extruder position to 0
M140 S60 ; start bed heating up
G28 XY ; home X and Y
G1 X-19 Y258 F1000 ; move to safe homing position
M109 R140 ; soften filament before homing Z
G28 Z ; home Z
G1 E-30 F100 ; retract filament
M109 R140 ; wait for extruder to reach wiping temp
G1 X-15 Y100 F3000 ; move above wiper pad
G1 Z1 ; push nozzle into wiper
G1 X-17 Y95 F1000 ; slow wipe
G1 X-17 Y90 F1000 ; slow wipe
G1 X-17 Y85 F1000 ; slow wipe
G1 X-15 Y90 F1000 ; slow wipe
G1 X-17 Y80 F1000 ; slow wipe
G1 X-15 Y95 F1000 ; slow wipe
G1 X-17 Y75 F2000 ; fast wipe
G1 X-15 Y65 F2000 ; fast wipe
G1 X-17 Y70 F2000 ; fast wipe
G1 X-15 Y60 F2000 ; fast wipe
G1 X-17 Y55 F2000 ; fast wipe
G1 X-15 Y50 F2000 ; fast wipe
G1 X-17 Y40 F2000 ; fast wipe
G1 X-15 Y45 F2000 ; fast wipe
G1 X-17 Y35 F2000 ; fast wipe
G1 X-15 Y40 F2000 ; fast wipe
G1 X-17 Y70 F2000 ; fast wipe
G1 X-15 Y30 Z2 F2000 ; fast wipe
G1 X-17 Y35 F2000 ; fast wipe
G1 X-15 Y25 F2000 ; fast wipe
G1 X-17 Y30 F2000 ; fast wipe
G1 X-15 Y25 Z1.5 F1000 ; slow wipe
G1 X-17 Y23 F1000 ; slow wipe
G1 Z10 ; raise extruder
M109 R140 ; wait for extruder to reach probe temp
G1 X-9 Y-9 ; move above first probe point
M204 S100 ; set probing acceleration
G29 ; start auto-leveling sequence
M204 S500 ; restore standard acceleration
G1 X0 Y0 Z15 F5000 ; move up off last probe point
G4 S1 ; pause
M400 ; wait for moves to finish
M117 Heating... ; progress indicator message on LCD
M109 R215 ; wait for extruder to reach printing temp
M190 S60 ; wait for bed to reach printing temp
G1 Z2 E0 F75 ; prime tiny bit of filament into the nozzle
M117 TAZ 6 Printing... ; progress indicator message on LCD

M221 S100
;LAYER_COUNT:21
;LAYER:0
M107
G0 F2625 X59.515 Y130.634 Z0.424
;TYPE:SKIRT
G1 F900 X59.829 Y130.492 E0.01145
G1 X64.596 Y128.633 E0.18149
G1 X68.207 Y127.04 E0.31265
G1 X68.731 Y126.861 E0.33105
G1 X70.916 Y126.315 E0.40589
G1 X76.204 Y124.77 E0.58897
G1 X81.357 Y122.943 E0.77066
G1 X86.403 Y120.824 E0.95253
G1 X91.338 Y118.415 E1.13503
G1 X96.087 Y115.755 E1.31592
G1 X100.733 Y112.797 E1.49895
G1 X102.936 Y111.258 E1.58826
G1 X107.287 Y107.937 E1.77016
G1 X112.843 Y103.093 E2.01511
G1 X113.252 Y102.79 E2.03203
G1 X113.826 Y102.504 E2.05334
G1 X115.993 Y101.682 E2.13036
G1 X122.242 Y99.027 E2.35599
G1 X122.725 Y98.865 E2.37292
G1 X123.228 Y98.781 E2.38987
G1 X123.513 Y98.768 E2.39935
G1 X134.489 Y98.768 E2.76411
G1 X134.596 Y98.77 E2.76766
G1 X138.68 Y98.904 E2.90346
G1 X145.772 Y98.759 E3.13919
G1 X145.843 Y98.758 E3.14155
G1 X156.499 Y98.77 E3.49567
G1 X157.007 Y98.811 E3.5126
G1 X157.502 Y98.93 E3.52952
G1 X157.83 Y99.057 E3.54121
G1 X160.144 Y100.099 E3.62555
G1 X165.248 Y102.151 E3.80836
G1 X165.264 Y102.155 E3.8089
G1 X166.114 Y102.468 E3.83901
G1 X166.577 Y102.681 E3.85594
G1 X167.001 Y102.964 E3.87288
G1 X167.375 Y103.309 E3.88979
G1 X167.691 Y103.709 E3.90673
G1 X167.941 Y104.153 E3.92367
G1 X168.118 Y104.631 E3.9406
G1 X168.218 Y105.131 E3.95755
G1 X168.241 Y105.544 E3.9713
G1 X168.153 Y116.799 E4.34533
G1 X168.201 Y118.507 E4.40212
G1 X168.202 Y118.563 E4.40398
G1 X168.24 Y121.954 E4.51667
G1 X168.239 Y122.058 E4.52013
G1 X168.089 Y129.225 E4.75836
G1 X168.237 Y133.363 E4.89596
G1 X168.239 Y133.504 E4.90064
G1 X168.152 Y144.799 E5.27601
G1 X168.201 Y146.507 E5.33279
G1 X168.202 Y146.563 E5.33465
G1 X168.24 Y149.954 E5.44735
G1 X168.239 Y150.058 E5.45081
G1 X168.089 Y157.22 E5.68887
G1 X168.237 Y161.363 E5.82664
G1 X168.239 Y161.504 E5.83132
G1 X168.152 Y172.799 E6.20669
G1 X168.201 Y174.507 E6.26347
G1 X168.202 Y174.562 E6.2653
G1 X168.241 Y177.946 E6.37776
G1 X168.207 Y178.454 E6.39468
G1 X168.094 Y178.951 E6.41162
G1 X167.904 Y179.424 E6.42856
G1 X167.643 Y179.861 E6.44548
G1 X167.317 Y180.253 E6.46242
G1 X166.934 Y180.588 E6.47933
G1 X166.503 Y180.86 E6.49627
G1 X166.034 Y181.061 E6.51322
G1 X165.541 Y181.186 E6.53012
G1 X164.991 Y181.233 E6.54847
G1 X115.004 Y181.232 E8.20964
G1 X114.496 Y181.192 E8.22657
G1 X114.001 Y181.073 E8.24349
G1 X113.53 Y180.878 E8.26043
G1 X113.095 Y180.612 E8.27737
G1 X112.78 Y180.352 E8.29095
G1 X108.025 Y175.891 E8.50762
G1 X103.81 Y172.393 E8.68965
G1 X99.414 Y169.146 E8.87126
G1 X94.843 Y166.153 E9.05283
G1 X90.099 Y163.419 E9.23479
G1 X85.196 Y160.949 E9.41724
G1 X80.212 Y158.782 E9.59784
G1 X75.056 Y156.88 E9.78047
G1 X69.815 Y155.277 E9.96261
G1 X64.476 Y153.968 E10.14529
G1 X60.388 Y153.172 E10.28369
G1 X59.897 Y153.036 E10.30062
G1 X59.433 Y152.824 E10.31758
G1 X59.008 Y152.543 E10.33451
G1 X58.632 Y152.199 E10.35144
G1 X58.315 Y151.8 E10.36838
G1 X58.064 Y151.357 E10.3853
G1 X57.885 Y150.88 E10.40223
G1 X57.784 Y150.381 E10.41915
G1 X57.759 Y149.945 E10.43366
G1 X57.847 Y142.186 E10.69152
G1 X57.8 Y140.486 E10.74804
G1 X57.799 Y140.414 E10.75043
G1 X57.76 Y133.538 E10.97894
G1 X57.797 Y133.03 E10.99587
G1 X57.913 Y132.534 E11.01279
G1 X58.105 Y132.062 E11.02973
G1 X58.369 Y131.626 E11.04667
G1 X58.697 Y131.237 E11.06358
G1 X59.083 Y130.903 E11.08054
G1 X59.515 Y130.634 E11.09745
G1 F600 E10.09745
G0 F2625 X61.764 Y132.846
G0 X61.764 Y134.275
G0 X63.172 Y137.826
G0 X63.242 Y137.756
;TYPE:WALL-INNER
G1 F600 E11.09745
G1 F900 X91.242 Y137.756 E12.02795
G1 X91.242 Y140.256 E12.11103
G1 X98.756 Y140.256 E12.36073
G1 X98.54 Y140.46 E12.37061
G1 X98.374 Y140.656 E12.37914
G1 X98.226 Y140.87 E12.38779
G1 X98.099 Y141.094 E12.39634
G1 X97.989 Y141.331 E12.40503
G1 X97.9 Y141.581 E12.41385
G1 X97.83 Y141.833 E12.42254
G1 X97.782 Y142.092 E12.43129
G1 X97.75 Y142.357 E12.44016
G1 X97.742 Y142.622 E12.44897
G1 X97.75 Y142.887 E12.45778
G1 X97.782 Y143.152 E12.46665
G1 X97.83 Y143.411 E12.47541
G1 X97.9 Y143.663 E12.4841
G1 X97.989 Y143.913 E12.49292
G1 X98.099 Y144.15 E12.5016
G1 X98.226 Y144.374 E12.51016
G1 X98.374 Y144.588 E12.5188
G1 X98.54 Y144.784 E12.52734
G1 X98.722 Y144.961 E12.53578
G1 X98.926 Y145.121 E12.54439
G1 X99.143 Y145.254 E12.55285
G1 X99.372 Y145.362 E12.56126
G1 X99.619 Y145.444 E12.56991
G1 X99.869 Y145.49 E12.57836
G1 X100.125 Y145.508 E12.58689
G1 X100.381 Y145.49 E12.59542
G1 X100.631 Y145.444 E12.60386
G1 X100.878 Y145.362 E12.61251
G1 X101.107 Y145.254 E12.62093
G1 X101.324 Y145.121 E12.62939
G1 X101.528 Y144.961 E12.638
G1 X101.71 Y144.784 E12.64644
G1 X101.876 Y144.588 E12.65497
G1 X102.024 Y144.374 E12.66362
G1 X102.151 Y144.15 E12.67218
G1 X102.261 Y143.913 E12.68086
G1 X102.35 Y143.663 E12.68968
G1 X102.42 Y143.411 E12.69837
G1 X102.469 Y143.151 E12.70716
G1 X102.499 Y142.888 E12.71596
G1 X102.509 Y142.622 E12.72481
G1 X102.499 Y142.356 E12.73365
G1 X102.469 Y142.093 E12.74245
G1 X102.42 Y141.833 E12.75124
G1 X102.35 Y141.581 E12.75993
G1 X102.261 Y141.331 E12.76875
G1 X102.151 Y141.094 E12.77743
G1 X102.024 Y140.87 E12.78599
G1 X101.876 Y140.656 E12.79464
G1 X101.71 Y140.46 E12.80317
G1 X101.494 Y140.256 E12.81305
G1 X108.257 Y140.256 E13.0378
G1 X108.257 Y148.756 E13.32027
G1 X110.25 Y148.756 E13.3865
G1 X110.25 Y149.242 E13.40265
G1 X91.759 Y149.242 E14.01714
G1 X91.759 Y146.239 E14.11694
G1 X68.242 Y146.239 E14.89845
G1 X68.242 Y149.242 E14.99825
G1 X61.75 Y149.242 E15.21399
G1 X61.75 Y148.756 E15.23014
G1 X63.743 Y148.756 E15.29637
G1 X63.743 Y138.239 E15.64587
G1 X61.75 Y138.239 E15.71211
G1 X61.75 Y134.261 E15.8443
G1 X63.242 Y134.261 E15.89388
G1 X63.242 Y137.756 E16.01003
G1 F600 E15.01003
G0 F2625 X63.172 Y137.826
G0 X79.672 Y137.776
G0 X79.672 Y136.341
G0 X79.672 Y135.654
G0 X79.672 Y134.219
G0 X79.672 Y134.169
G0 X79.742 Y134.239
G1 F600 E16.01003
G1 F900 X70.258 Y134.239 E16.3252
G1 X70.258 Y130.758 E16.44088
G1 X79.742 Y130.758 E16.75606
G1 X79.742 Y134.239 E16.87174
G1 F600 E15.87174
G0 F2625 X79.672 Y134.169
G0 X79.722 Y134.169
G0 X79.722 Y135.654
G0 X92.279 Y135.654
G0 X92.279 Y134.169
G0 X101.672 Y134.169
G0 X101.742 Y134.239
G1 F600 E16.87174
G1 F900 X92.259 Y134.239 E17.18687
G1 X92.259 Y130.758 E17.30256
G1 X101.742 Y130.758 E17.61769
G1 X101.742 Y134.239 E17.73337
G1 F600 E16.73337
G0 F2625 X101.672 Y134.169
G0 X101.728 Y134.225
G0 X101.728 Y135.654
G0 X101.824 Y135.614
G0 X101.865 Y135.598
G0 X108.635 Y132.9
G0 X108.676 Y132.884
G0 X108.773 Y132.846
G0 X108.773 Y134.275
G0 X110.18 Y134.331
G0 X110.25 Y134.261
G1 F600 E17.73337
G1 F900 X110.25 Y138.239 E17.86557
G1 X108.759 Y138.239 E17.91512
G1 X108.759 Y134.261 E18.04732
G1 X110.25 Y134.261 E18.09687
G1 F600 E17.09687
G0 F2625 X110.18 Y134.331
G0 X108.773 Y134.275
G0 X108.773 Y132.846
G0 X108.676 Y132.884
G0 X108.635 Y132.9
G0 X101.865 Y135.598
G0 X101.824 Y135.614
G0 X101.728 Y135.654
G0 X101.728 Y134.225
G0 X101.642 Y133.761
G0 X102.242 Y133.761
;TYPE:WALL-OUTER
G1 F600 E18.09687
G1 F900 X110.75 Y133.761 E18.3796
G1 X110.75 Y138.739 E18.54503
G1 X108.757 Y138.739 E18.61126
G1 X108.757 Y148.256 E18.92753
G1 X110.75 Y148.256 E18.99376
G1 X110.75 Y149.742 E19.04315
G1 X61.25 Y149.742 E20.68813
G1 X61.25 Y148.256 E20.73751
G1 X63.243 Y148.256 E20.80374
G1 X63.243 Y138.739 E21.12001
G1 X61.25 Y138.739 E21.18624
G1 X61.25 Y133.761 E21.35167
G1 X69.758 Y133.761 E21.63441
G1 X69.758 Y130.258 E21.75082
G1 X80.242 Y130.258 E22.09923
G1 X80.242 Y133.761 E22.21564
G1 X91.759 Y133.761 E22.59837
G1 X91.759 Y130.258 E22.71478
G1 X102.242 Y130.258 E23.06315
G1 X102.242 Y133.761 E23.17957
G0 F2625 X102.492 Y133.761
G1 F600 E22.17957
G0 F2625 X101.642 Y133.761
G0 X92.273 Y134.225
G0 X92.273 Y135.654
G0 X91.228 Y136.341
G0 X91.228 Y137.77
G0 X91.172 Y137.826
G0 X91.742 Y137.739
G1 F600 E23.17957
G1 F900 X91.742 Y139.756 E23.24659
G1 X108.259 Y139.756 E23.79549
G1 X108.259 Y137.739 E23.86252
G1 X91.742 Y137.739 E24.41141
G0 F2625 X91.742 Y137.989
G0 X91.142 Y137.989
G0 X91.214 Y140.284
G0 X99.358 Y145.399
G0 X100.084 Y145.605
G0 X100.125 Y145.007
G1 F900 X100.317 Y144.993 E24.41781
G1 X100.507 Y144.958 E24.42423
G1 X100.692 Y144.897 E24.4307
G1 X100.869 Y144.813 E24.43721
G1 X101.038 Y144.71 E24.44379
G1 X101.198 Y144.584 E24.45056
G1 X101.344 Y144.442 E24.45732
G1 X101.479 Y144.283 E24.46426
G1 X101.6 Y144.108 E24.47133
G1 X101.706 Y143.921 E24.47847
G1 X101.798 Y143.723 E24.48572
G1 X101.873 Y143.513 E24.49313
G1 X101.932 Y143.298 E24.50054
G1 X101.974 Y143.076 E24.50805
G1 X102 Y142.85 E24.51561
G1 X102.009 Y142.622 E24.5232
G1 X102 Y142.394 E24.53078
G1 X101.974 Y142.168 E24.53834
G1 X101.932 Y141.946 E24.54585
G1 X101.873 Y141.731 E24.55326
G1 X101.798 Y141.521 E24.56067
G1 X101.706 Y141.323 E24.56792
G1 X101.6 Y141.136 E24.57506
G1 X101.479 Y140.961 E24.58213
G1 X101.344 Y140.802 E24.58907
G1 X101.198 Y140.66 E24.59583
G1 X101.038 Y140.534 E24.6026
G1 X100.869 Y140.431 E24.60918
G1 X100.692 Y140.347 E24.61569
G1 X100.507 Y140.286 E24.62216
G1 X100.316 Y140.25 E24.62862
G1 X100.125 Y140.239 E24.63498
G1 X99.934 Y140.25 E24.64134
G1 X99.743 Y140.286 E24.6478
G1 X99.558 Y140.347 E24.65427
G1 X99.381 Y140.431 E24.66078
G1 X99.212 Y140.534 E24.66736
G1 X99.052 Y140.66 E24.67413
G1 X98.906 Y140.802 E24.6809
G1 X98.771 Y140.961 E24.68783
G1 X98.65 Y141.136 E24.6949
G1 X98.544 Y141.323 E24.70204
G1 X98.452 Y141.521 E24.7093
G1 X98.377 Y141.731 E24.71671
G1 X98.318 Y141.946 E24.72412
G1 X98.276 Y142.168 E24.73162
G1 X98.249 Y142.394 E24.73919
G1 X98.242 Y142.622 E24.74677
G1 X98.249 Y142.85 E24.75435
G1 X98.276 Y143.076 E24.76191
G1 X98.318 Y143.298 E24.76942
G1 X98.377 Y143.513 E24.77683
G1 X98.452 Y143.723 E24.78424
G1 X98.544 Y143.921 E24.7915
G1 X98.65 Y144.108 E24.79864
G1 X98.771 Y144.283 E24.80571
G1 X98.906 Y144.442 E24.81264
G1 X99.052 Y144.584 E24.81941
G1 X99.212 Y144.71 E24.82618
G1 X99.381 Y144.813 E24.83275
G1 X99.558 Y144.897 E24.83927
G1 X99.743 Y144.958 E24.84574
G1 X99.933 Y144.993 E24.85216
G1 X100.125 Y145.007 E24.85856
G0 F2625 X100.317 Y144.993
G0 X100.374 Y144.983
G0 X100.481 Y145.573
G0 X68.214 Y146.211
G0 X68.142 Y146.739
G0 X68.742 Y146.739
G1 F900 X68.742 Y149.256 E24.9422
G1 X91.259 Y149.256 E25.69049
G1 X91.259 Y146.739 E25.77413
G1 X68.742 Y146.739 E26.52242
G0 F2625 X68.742 Y146.989
G0 X68.142 Y146.989
G0 X63.546 Y137.786
G0 X63.214 Y137.784
G0 X63.142 Y134.739
G0 X63.742 Y134.739
G1 F900 X63.742 Y137.256 E26.60606
G1 X108.259 Y137.256 E28.08545
G1 X108.259 Y134.739 E28.16909
G1 X63.742 Y134.739 E29.64848
G0 F2625 X63.742 Y134.989
G0 X63.142 Y134.989
G0 X62.752 Y134.751
;TYPE:SKIN
G1 F900 X62.752 Y137.749 E29.74811
G1 X62.24 Y137.749 E29.76513
G1 X62.24 Y134.751 E29.86476
G1 X62.752 Y134.751 E29.88177
G0 F2625 X63.214 Y137.784
G0 X64.233 Y138.246
G1 F900 X90.752 Y138.246 E30.76305
G1 X90.752 Y140.746 E30.84613
G1 X97.733 Y140.746 E31.07812
G1 X97.664 Y140.87 E31.08284
G1 X97.535 Y141.145 E31.09293
G1 X97.432 Y141.434 E31.10313
G1 X97.352 Y141.723 E31.11309
G1 X97.298 Y142.018 E31.12306
G1 X97.26 Y142.32 E31.13317
G1 X97.252 Y142.622 E31.14321
G1 X97.26 Y142.924 E31.15325
G1 X97.298 Y143.226 E31.16337
G1 X97.352 Y143.521 E31.17333
G1 X97.432 Y143.81 E31.1833
G1 X97.535 Y144.099 E31.1935
G1 X97.664 Y144.374 E31.20359
G1 X97.81 Y144.634 E31.2135
G1 X97.984 Y144.886 E31.22368
G1 X98.181 Y145.119 E31.23382
G1 X98.399 Y145.331 E31.24392
G1 X98.646 Y145.525 E31.25436
G1 X98.91 Y145.685 E31.26462
G1 X99.19 Y145.818 E31.27492
G1 X99.498 Y145.92 E31.2857
G1 X99.808 Y145.976 E31.29617
G1 X100.125 Y146 E31.30673
G1 X100.442 Y145.976 E31.3173
G1 X100.752 Y145.92 E31.32777
G1 X101.06 Y145.818 E31.33855
G1 X101.34 Y145.685 E31.34885
G1 X101.604 Y145.525 E31.35911
G1 X101.851 Y145.331 E31.36955
G1 X102.069 Y145.119 E31.37965
G1 X102.266 Y144.886 E31.38979
G1 X102.44 Y144.634 E31.39997
G1 X102.586 Y144.374 E31.40988
G1 X102.715 Y144.099 E31.41997
G1 X102.818 Y143.81 E31.43017
G1 X102.898 Y143.522 E31.4401
G1 X102.954 Y143.224 E31.45018
G1 X102.987 Y142.925 E31.46018
G1 X102.999 Y142.622 E31.47025
G1 X102.987 Y142.319 E31.48033
G1 X102.954 Y142.02 E31.49033
G1 X102.898 Y141.722 E31.5004
G1 X102.818 Y141.434 E31.51034
G1 X102.715 Y141.145 E31.52053
G1 X102.586 Y140.87 E31.53063
G1 X102.517 Y140.746 E31.53534
G1 X107.767 Y140.746 E31.70981
G1 X107.767 Y148.752 E31.97586
G1 X92.249 Y148.752 E32.49156
G1 X92.249 Y145.749 E32.59135
G1 X67.752 Y145.749 E33.40544
G1 X67.752 Y148.752 E33.50523
G1 X64.233 Y148.752 E33.62218
G1 X64.233 Y138.246 E33.97131
G0 F2625 X65.087 Y148.526
G1 F900 X64.457 Y147.896 E34.00092
G0 F2625 X64.457 Y147.189
G1 F900 X65.794 Y148.526 E34.06376
G1 X65.882 Y148.614
G0 F2625 X66.501 Y148.526
G1 F900 X64.457 Y146.482 E34.15982
G1 X64.369 Y146.394
G0 F2625 X64.457 Y145.775
G1 F900 X67.209 Y148.526 E34.28913
G1 X67.297 Y148.614
G0 F2625 X67.527 Y148.137
G1 F900 X64.457 Y145.067 E34.43341
G1 X64.369 Y144.979
G0 F2625 X64.457 Y144.36
G1 F900 X67.527 Y147.43 E34.57769
G1 X67.615 Y147.518
G0 F2625 X67.527 Y146.723
G1 F900 X64.457 Y143.653 E34.72197
G1 X64.369 Y143.565
G0 F2625 X64.457 Y142.946
G1 F900 X67.527 Y146.016 E34.86626
G1 X67.615 Y146.104
G0 F2625 X67.741 Y145.523
G1 F900 X64.457 Y142.239 E35.02059
G1 X64.369 Y142.151
G0 F2625 X64.457 Y141.532
G1 F900 X68.448 Y145.523 E35.20816
G1 X68.536 Y145.611
G0 F2625 X69.155 Y145.523
G1 F900 X64.457 Y140.825 E35.42895
G1 X64.369 Y140.737
G0 F2625 X64.457 Y140.118
G1 F900 X69.862 Y145.523 E35.68297
G1 X69.95 Y145.611
G0 F2625 X70.569 Y145.523
G1 F900 X64.457 Y139.411 E35.97022
G1 X64.369 Y139.323
G0 F2625 X64.457 Y138.703
G1 F900 X71.277 Y145.523 E36.29074
G1 X71.365 Y145.611
G0 F2625 X71.984 Y145.523
G1 F900 X64.931 Y138.47 E36.62221
G1 X64.843 Y138.382
G0 F2625 X65.638 Y138.47
G1 F900 X72.691 Y145.523 E36.95368
G1 X72.779 Y145.611
G0 F2625 X73.398 Y145.523
G1 F900 X66.345 Y138.47 E37.28515
G1 X66.257 Y138.382
G0 F2625 X67.052 Y138.47
G1 F900 X74.105 Y145.523 E37.61662
G1 X74.193 Y145.611
G0 F2625 X74.812 Y145.523
G1 F900 X67.759 Y138.47 E37.94809
G1 X67.671 Y138.382
G0 F2625 X68.467 Y138.47
